;FLAVOR:Marlin
;TIME:1770
;Filament used: 1.18241m
;Layer height: 0.2
;Generated with Cura_SteamEngine 3.2.1
M190 S50
M104 S210
M109 S210
M82 ;absolute extrusion mode
G28 ;Home
G1 Z15.0 F6000 ;Move the platform down 15mm
;Prime the extruder
G92 E0
G1 F200 E3
G92 E0
;LAYER_COUNT:100
;LAYER:0
M107
G0 F3600 X77.756 Y91.201 Z0.3
;TYPE:SKIRT
G1 F1800 X78.198 Y90.898 E0.02704
G1 X78.681 Y90.663 E0.05415
G1 X79.192 Y90.503 E0.08117
G1 X79.722 Y90.42 E0.10825
G1 X80.009 Y90.409 E0.12274
G1 X129.991 Y90.41 E2.6451
G1 X130.526 Y90.45 E2.67217
G1 X131.049 Y90.569 E2.69924
G1 X131.548 Y90.764 E2.72627
G1 X132.013 Y91.032 E2.75336
G1 X132.433 Y91.365 E2.78041
G1 X132.799 Y91.757 E2.80747
G1 X133.102 Y92.199 E2.83452
G1 X133.337 Y92.682 E2.86162
G1 X133.497 Y93.193 E2.88865
G1 X133.58 Y93.723 E2.91572
G1 X133.591 Y94.01 E2.93021
G1 X133.591 Y115.991 E4.03949
G1 X133.551 Y116.526 E4.06656
G1 X133.432 Y117.049 E4.09363
G1 X133.237 Y117.548 E4.12067
G1 X132.969 Y118.013 E4.14775
G1 X132.636 Y118.433 E4.1748
G1 X132.244 Y118.799 E4.20187
G1 X131.802 Y119.102 E4.22891
G1 X131.319 Y119.337 E4.25602
G1 X130.808 Y119.497 E4.28304
G1 X130.278 Y119.58 E4.31011
G1 X129.991 Y119.591 E4.32461
G1 X80.009 Y119.591 E6.84696
G1 X79.474 Y119.551 E6.87404
G1 X78.951 Y119.432 E6.90111
G1 X78.452 Y119.237 E6.92814
G1 X77.987 Y118.969 E6.95523
G1 X77.567 Y118.636 E6.98228
G1 X77.201 Y118.244 E7.00934
G1 X76.898 Y117.802 E7.03639
G1 X76.663 Y117.319 E7.06349
G1 X76.503 Y116.808 E7.09051
G1 X76.42 Y116.278 E7.11759
G1 X76.409 Y115.991 E7.13208
G1 X76.409 Y94.009 E8.24141
G1 X76.449 Y93.474 E8.26848
G1 X76.568 Y92.951 E8.29555
G1 X76.763 Y92.452 E8.32259
G1 X77.031 Y91.987 E8.34967
G1 X77.364 Y91.567 E8.37672
G1 X77.756 Y91.201 E8.40379
G0 F3600 X78.145 Y91.408
G1 F1800 X78.578 Y91.147 E8.4293
G1 X79.046 Y90.957 E8.45479
G1 X79.539 Y90.844 E8.48032
G1 X80.009 Y90.809 E8.5041
G1 X129.991 Y90.81 E11.02646
G1 X130.495 Y90.85 E11.05197
G1 X130.986 Y90.969 E11.07747
G1 X131.453 Y91.164 E11.10301
G1 X131.883 Y91.429 E11.1285
G1 X132.266 Y91.76 E11.15404
G1 X132.592 Y92.146 E11.17954
G1 X132.853 Y92.579 E11.20505
G1 X133.043 Y93.047 E11.23054
G1 X133.156 Y93.54 E11.25607
G1 X133.191 Y94.01 E11.27985
G1 X133.191 Y115.991 E12.38913
G1 X133.151 Y116.495 E12.41464
G1 X133.032 Y116.986 E12.44014
G1 X132.838 Y117.453 E12.46566
G1 X132.572 Y117.883 E12.49118
G1 X132.242 Y118.266 E12.51669
G1 X131.855 Y118.592 E12.54223
G1 X131.422 Y118.853 E12.56774
G1 X130.954 Y119.043 E12.59323
G1 X130.461 Y119.156 E12.61875
G1 X129.991 Y119.191 E12.64254
G1 X80.009 Y119.191 E15.1649
G1 X79.505 Y119.151 E15.19041
G1 X79.014 Y119.032 E15.21591
G1 X78.547 Y118.838 E15.24143
G1 X78.117 Y118.572 E15.26694
G1 X77.734 Y118.242 E15.29246
G1 X77.408 Y117.855 E15.31799
G1 X77.147 Y117.422 E15.34351
G1 X76.957 Y116.954 E15.369
G1 X76.844 Y116.461 E15.39452
G1 X76.809 Y115.991 E15.4183
G1 X76.809 Y94.009 E16.52763
G1 X76.849 Y93.505 E16.55315
G1 X76.968 Y93.014 E16.57864
G1 X77.162 Y92.547 E16.60416
G1 X77.428 Y92.117 E16.62968
G1 X77.758 Y91.734 E16.65519
G1 X78.145 Y91.408 E16.68073
G1 F1500 E10.18073
G0 F3600 X86.714 Y93.335
G0 X86.714 Y94.614
G0 X87.23 Y95.13
G0 X87.3 Y95.2
;TYPE:WALL-INNER
G1 F1500 E16.68073
G1 F1800 X86.7 Y95.2 E16.71101
G1 X86.7 Y94.6 E16.74129
G1 X87.3 Y94.6 E16.77157
G1 X87.3 Y95.2 E16.80185
G1 F1500 E10.30185
G0 F3600 X87.23 Y95.13
G0 X87.28 Y95.13
G0 X88.553 Y95.653
G0 X97.447 Y95.653
G0 X98.72 Y95.13
G0 X99.23 Y95.13
G0 X99.3 Y95.2
G1 F1500 E16.80185
G1 F1800 X98.7 Y95.2 E16.83212
G1 X98.7 Y94.6 E16.8624
G1 X99.3 Y94.6 E16.89268
G1 X99.3 Y95.2 E16.92296
G1 F1500 E10.42296
G0 F3600 X99.23 Y95.13
G0 X99.28 Y95.13
G0 X100.553 Y95.653
G0 X109.447 Y95.653
G0 X110.72 Y95.13
G0 X111.23 Y95.13
G0 X111.3 Y95.2
G1 F1500 E16.92296
G1 F1800 X110.7 Y95.2 E16.95324
G1 X110.7 Y94.6 E16.98352
G1 X111.3 Y94.6 E17.0138
G1 X111.3 Y95.2 E17.04408
G1 F1500 E10.54408
G0 F3600 X111.23 Y95.13
G0 X111.28 Y95.13
G0 X112.553 Y95.653
G0 X121.447 Y95.653
G0 X122.72 Y95.13
G0 X123.23 Y95.13
G0 X123.3 Y95.2
G1 F1500 E17.04408
G1 F1800 X122.7 Y95.2 E17.07436
G1 X122.7 Y94.6 E17.10464
G1 X123.3 Y94.6 E17.13492
G1 X123.3 Y95.2 E17.1652
G1 F1500 E10.6652
G0 F3600 X123.23 Y95.13
G0 X123.286 Y95.186
G0 X123.286 Y96.465
G0 X128.373 Y109.795
G0 X128.388 Y109.837
G0 X130.61 Y115.657
G0 X130.625 Y115.699
G0 X130.665 Y115.8
G0 X129.8 Y115.8
;TYPE:WALL-OUTER
G1 F1500 E17.1652
G1 F1800 X80.2 Y115.8 E19.66827
G1 X80.2 Y94.2 E20.75833
G1 X129.8 Y94.2 E23.2614
G1 X129.8 Y115.8 E24.35145
G0 F3600 X129.6 Y115.8
G1 F1500 E17.85145
G0 F3600 X129.6 Y116.665
G0 X129.512 Y116.625
G0 X124.41 Y114.39
G0 X124.37 Y114.373
G0 X81.653 Y95.653
G0 X80.8 Y94.8
G1 F1500 E24.35145
G1 F1800 X80.8 Y115.2 E25.38095
G1 X129.2 Y115.2 E27.82347
G1 X129.2 Y94.8 E28.85296
G1 X123.7 Y94.8 E29.13052
G1 X123.7 Y95.6 E29.17089
G1 X122.3 Y95.6 E29.24154
G1 X122.3 Y94.8 E29.28191
G1 X111.7 Y94.8 E29.81685
G1 X111.7 Y95.6 E29.85722
G1 X110.3 Y95.6 E29.92787
G1 X110.3 Y94.8 E29.96824
G1 X99.7 Y94.8 E30.50317
G1 X99.7 Y95.6 E30.54355
G1 X98.3 Y95.6 E30.6142
G1 X98.3 Y94.8 E30.65457
G1 X87.7 Y94.8 E31.1895
G1 X87.7 Y95.6 E31.22987
G1 X86.3 Y95.6 E31.30053
G1 X86.3 Y94.8 E31.3409
G1 X80.8 Y94.8 E31.61846
G0 F3600 X80.8 Y95
G0 X80.499 Y94.924
G1 F1800 X80.499 Y94.641 E31.62599
G1 X80.639 Y94.498 E31.63349
G1 X80.922 Y94.498 E31.64095
G1 X81.205 Y94.498 E31.64841
G1 X81.488 Y94.498 E31.65588
G1 X81.77 Y94.498 E31.66331
G1 X82.053 Y94.498 E31.67077
G1 X82.336 Y94.498 E31.67824
G1 X82.619 Y94.498 E31.6857
G1 X82.902 Y94.498 E31.69316
G1 X83.185 Y94.498 E31.70062
G1 X83.467 Y94.498 E31.70806
G1 X83.75 Y94.498 E31.71552
G1 X84.033 Y94.498 E31.72298
G1 X84.316 Y94.498 E31.73045
G1 X84.599 Y94.498 E31.73791
G1 X84.882 Y94.498 E31.74537
G1 X85.165 Y94.498 E31.75283
G1 X85.447 Y94.498 E31.76027
G1 X85.73 Y94.498 E31.76773
G1 X86.013 Y94.498 E31.77519
G1 X86.296 Y94.498 E31.78265
G1 X86.497 Y94.416 E31.78717
G0 F3600 X86.77 Y94.67
G0 X87.23 Y94.67
G0 X87.506 Y94.577
G1 F1800 X87.711 Y94.499 E31.79185
G1 X87.994 Y94.499 E31.79931
G1 X88.276 Y94.499 E31.80675
G1 X88.559 Y94.499 E31.81421
G1 X88.842 Y94.499 E31.82167
G1 X89.125 Y94.499 E31.82913
G1 X89.408 Y94.499 E31.8366
G1 X89.691 Y94.499 E31.84406
G1 X89.974 Y94.499 E31.85152
G1 X90.256 Y94.499 E31.85896
G1 X90.539 Y94.499 E31.86642
G1 X90.822 Y94.499 E31.87388
G1 X91.105 Y94.499 E31.88134
G1 X91.388 Y94.499 E31.88881
G1 X91.671 Y94.499 E31.89627
G1 X91.953 Y94.499 E31.9037
G1 X92.236 Y94.499 E31.91117
G1 X92.519 Y94.499 E31.91863
G1 X92.802 Y94.499 E31.92609
G1 X93.085 Y94.499 E31.93355
G1 X93.368 Y94.499 E31.94101
G1 X93.65 Y94.499 E31.94845
G1 X93.933 Y94.499 E31.95591
G1 X94.216 Y94.499 E31.96337
G1 X94.499 Y94.499 E31.97084
G1 X94.782 Y94.499 E31.9783
G1 X95.065 Y94.499 E31.98576
G1 X95.348 Y94.499 E31.99322
G1 X95.63 Y94.499 E32.00066
G1 X95.913 Y94.499 E32.00812
G1 X96.196 Y94.499 E32.01558
G1 X96.479 Y94.499 E32.02305
G1 X96.762 Y94.499 E32.03051
G1 X97.045 Y94.499 E32.03797
G1 X97.327 Y94.499 E32.04541
G1 X97.61 Y94.499 E32.05287
G1 X97.893 Y94.499 E32.06033
G1 X98.176 Y94.499 E32.06779
G1 X98.437 Y94.477 E32.07443
G0 F3600 X98.77 Y94.67
G0 X99.23 Y94.67
G0 X99.59 Y94.499
G1 F1800 X99.873 Y94.499 E32.0819
G1 X100.156 Y94.499 E32.08936
G1 X100.439 Y94.499 E32.09682
G1 X100.722 Y94.499 E32.10428
G1 X101.004 Y94.499 E32.11172
G1 X101.287 Y94.499 E32.11918
G1 X101.57 Y94.499 E32.12664
G1 X101.853 Y94.499 E32.13411
G1 X102.136 Y94.499 E32.14157
G1 X102.419 Y94.499 E32.14903
G1 X102.701 Y94.499 E32.15647
G1 X102.984 Y94.499 E32.16393
G1 X103.267 Y94.499 E32.17139
G1 X103.55 Y94.499 E32.17885
G1 X103.833 Y94.499 E32.18631
G1 X104.116 Y94.499 E32.19378
G1 X104.399 Y94.499 E32.20124
G1 X104.681 Y94.499 E32.20867
G1 X104.964 Y94.499 E32.21614
G1 X105.247 Y94.499 E32.2236
G1 X105.53 Y94.499 E32.23106
G1 X105.813 Y94.499 E32.23852
G1 X106.096 Y94.499 E32.24599
G1 X106.378 Y94.499 E32.25342
G1 X106.661 Y94.499 E32.26088
G1 X106.944 Y94.499 E32.26835
G1 X107.227 Y94.499 E32.27581
G1 X107.51 Y94.499 E32.28327
G1 X107.793 Y94.499 E32.29073
G1 X108.075 Y94.499 E32.29817
G1 X108.358 Y94.499 E32.30563
G1 X108.641 Y94.499 E32.31309
G1 X108.924 Y94.499 E32.32055
G1 X109.207 Y94.499 E32.32802
G1 X109.49 Y94.499 E32.33548
G1 X109.773 Y94.499 E32.34294
G1 X110.055 Y94.499 E32.35038
G1 X110.338 Y94.499 E32.35784
G0 F3600 X110.8 Y94.604
G0 X111.23 Y94.67
G0 X111.526 Y94.556
G1 F1800 X111.753 Y94.5 E32.3633
G1 X112.036 Y94.5 E32.37079
G1 X112.319 Y94.5 E32.37829
G1 X112.602 Y94.5 E32.38579
G1 X112.884 Y94.5 E32.39326
G1 X113.167 Y94.5 E32.40076
G1 X113.45 Y94.5 E32.40826
G1 X113.733 Y94.5 E32.41575
G1 X114.016 Y94.5 E32.42325
G1 X114.299 Y94.5 E32.43075
G1 X114.582 Y94.5 E32.43825
G1 X114.864 Y94.5 E32.44572
G1 X115.147 Y94.5 E32.45322
G1 X115.43 Y94.5 E32.46072
G1 X115.713 Y94.5 E32.46821
G1 X115.996 Y94.5 E32.47571
G1 X116.279 Y94.5 E32.48321
G1 X116.561 Y94.5 E32.49068
G1 X116.844 Y94.5 E32.49818
G1 X117.127 Y94.5 E32.50568
G1 X117.41 Y94.5 E32.51317
G1 X117.693 Y94.5 E32.52067
G1 X117.976 Y94.5 E32.52817
G1 X118.259 Y94.5 E32.53567
G1 X118.541 Y94.5 E32.54314
G1 X118.824 Y94.5 E32.55064
G1 X119.107 Y94.5 E32.55814
G1 X119.39 Y94.5 E32.56563
G1 X119.673 Y94.5 E32.57313
G1 X119.956 Y94.5 E32.58063
G1 X120.238 Y94.5 E32.5881
G1 X120.521 Y94.5 E32.5956
G1 X120.804 Y94.5 E32.6031
G1 X121.087 Y94.5 E32.61059
G1 X121.37 Y94.5 E32.61809
G1 X121.653 Y94.5 E32.62559
G1 X121.935 Y94.5 E32.63306
G1 X122.218 Y94.5 E32.64056
G1 X122.457 Y94.456 E32.64648
G0 F3600 X122.77 Y94.67
G0 X123.23 Y94.67
G0 X123.632 Y94.499
G1 F1800 X123.915 Y94.499 E32.65397
G1 X124.197 Y94.499 E32.66145
G1 X124.48 Y94.499 E32.66894
G1 X124.763 Y94.499 E32.67644
G1 X125.046 Y94.499 E32.68394
G1 X125.329 Y94.499 E32.69144
G1 X125.612 Y94.499 E32.69893
G1 X125.895 Y94.499 E32.70643
G1 X126.177 Y94.499 E32.7139
G1 X126.46 Y94.499 E32.7214
G1 X126.743 Y94.499 E32.7289
G1 X127.026 Y94.499 E32.7364
G1 X127.309 Y94.499 E32.7439
G1 X127.592 Y94.499 E32.75139
G1 X127.874 Y94.499 E32.75887
G1 X128.157 Y94.499 E32.76636
G1 X128.44 Y94.499 E32.77386
G1 X128.723 Y94.499 E32.78136
G1 X129.006 Y94.499 E32.78886
G1 X129.289 Y94.499 E32.79635
G0 F3600 X129.499 Y94.709
G1 F1800 X129.499 Y94.992 E32.80385
G1 X129.499 Y95.275 E32.81135
G1 X129.499 Y95.558 E32.81885
G1 X129.499 Y95.84 E32.82632
G1 X129.499 Y96.123 E32.83382
G1 X129.499 Y96.406 E32.84132
G1 X129.499 Y96.689 E32.84881
G1 X129.499 Y96.972 E32.85631
G1 X129.499 Y97.255 E32.86381
G1 X129.499 Y97.537 E32.87128
G1 X129.499 Y97.82 E32.87878
G1 X129.499 Y98.103 E32.88628
G1 X129.499 Y98.386 E32.89377
G1 X129.499 Y98.669 E32.90127
G1 X129.499 Y98.952 E32.90877
G1 X129.499 Y99.235 E32.91627
G1 X129.499 Y99.517 E32.92374
G1 X129.499 Y99.8 E32.93124
G1 X129.499 Y100.083 E32.93873
G1 X129.499 Y100.366 E32.94623
G1 X129.499 Y100.649 E32.95373
G1 X129.499 Y100.932 E32.96123
G1 X129.499 Y101.214 E32.9687
G1 X129.499 Y101.497 E32.9762
G1 X129.499 Y101.78 E32.9837
G1 X129.499 Y102.063 E32.99119
G1 X129.499 Y102.346 E32.99869
G1 X129.499 Y102.629 E33.00619
G1 X129.499 Y102.911 E33.01366
G1 X129.499 Y103.194 E33.02116
G1 X129.499 Y103.477 E33.02866
G1 X129.499 Y103.76 E33.03615
G1 X129.499 Y104.043 E33.04365
G1 X129.499 Y104.326 E33.05115
G1 X129.499 Y104.609 E33.05865
G1 X129.499 Y104.891 E33.06612
G1 X129.499 Y105.174 E33.07362
G1 X129.499 Y105.457 E33.08111
G1 X129.499 Y105.74 E33.08861
G1 X129.499 Y106.023 E33.09611
G1 X129.499 Y106.306 E33.10361
G1 X129.499 Y106.588 E33.11108
G1 X129.499 Y106.871 E33.11858
G1 X129.499 Y107.154 E33.12608
G1 X129.499 Y107.437 E33.13357
G1 X129.499 Y107.72 E33.14107
G1 X129.499 Y108.003 E33.14857
G1 X129.499 Y108.285 E33.15604
G1 X129.499 Y108.568 E33.16354
G1 X129.499 Y108.851 E33.17104
G1 X129.499 Y109.134 E33.17853
G1 X129.499 Y109.417 E33.18603
G1 X129.499 Y109.7 E33.19353
G1 X129.499 Y109.983 E33.20103
G1 X129.499 Y110.265 E33.2085
G1 X129.499 Y110.548 E33.216
G1 X129.499 Y110.831 E33.2235
G1 X129.499 Y111.114 E33.23099
G1 X129.499 Y111.397 E33.23849
G1 X129.499 Y111.68 E33.24599
G1 X129.499 Y111.962 E33.25346
G1 X129.499 Y112.245 E33.26096
G1 X129.499 Y112.528 E33.26846
G1 X129.499 Y112.811 E33.27595
G1 X129.499 Y113.094 E33.28345
G1 X129.499 Y113.377 E33.29095
G1 X129.499 Y113.659 E33.29842
G1 X129.499 Y113.942 E33.30592
G1 X129.499 Y114.225 E33.31342
G1 X129.499 Y114.508 E33.32091
G1 X129.499 Y114.791 E33.32841
G1 X129.499 Y115.074 E33.33591
G1 X129.499 Y115.357 E33.34341
G1 X129.358 Y115.499 E33.35088
G1 X129.075 Y115.499 E33.35838
G1 X128.792 Y115.499 E33.36588
G1 X128.509 Y115.499 E33.37338
G1 X128.227 Y115.499 E33.38085
G1 X127.944 Y115.499 E33.38834
G1 X127.661 Y115.499 E33.39584
G1 X127.378 Y115.499 E33.40334
G1 X127.095 Y115.499 E33.41084
G1 X126.812 Y115.499 E33.41834
G1 X126.53 Y115.499 E33.42581
G1 X126.247 Y115.499 E33.43331
G1 X125.964 Y115.499 E33.4408
G1 X125.681 Y115.499 E33.4483
G1 X125.398 Y115.499 E33.4558
G1 X125.115 Y115.499 E33.4633
G1 X124.832 Y115.499 E33.47079
G1 X124.55 Y115.499 E33.47827
G1 X124.267 Y115.499 E33.48576
G1 X123.984 Y115.499 E33.49326
G1 X123.701 Y115.499 E33.50076
G1 X123.418 Y115.499 E33.50826
G1 X123.135 Y115.499 E33.51576
G1 X122.853 Y115.499 E33.52323
G1 X122.57 Y115.499 E33.53072
G1 X122.287 Y115.499 E33.53822
G1 X122.004 Y115.499 E33.54572
G1 X121.721 Y115.499 E33.55322
G1 X121.438 Y115.499 E33.56072
G1 X121.156 Y115.499 E33.56819
G1 X120.873 Y115.499 E33.57569
G1 X120.59 Y115.499 E33.58318
G1 X120.307 Y115.499 E33.59068
G1 X120.024 Y115.499 E33.59818
G1 X119.741 Y115.499 E33.60568
G1 X119.458 Y115.499 E33.61317
G1 X119.176 Y115.499 E33.62065
G1 X118.893 Y115.499 E33.62814
G1 X118.61 Y115.499 E33.63564
G1 X118.327 Y115.499 E33.64314
G1 X118.044 Y115.499 E33.65064
G1 X117.761 Y115.499 E33.65814
G1 X117.479 Y115.499 E33.66561
G1 X117.196 Y115.499 E33.6731
G1 X116.913 Y115.499 E33.6806
G1 X116.63 Y115.499 E33.6881
G1 X116.347 Y115.499 E33.6956
G1 X116.064 Y115.499 E33.7031
G1 X115.782 Y115.499 E33.71057
G1 X115.499 Y115.499 E33.71807
G1 X115.216 Y115.499 E33.72556
G1 X114.933 Y115.499 E33.73306
G1 X114.65 Y115.499 E33.74056
G1 X114.367 Y115.499 E33.74806
G1 X114.084 Y115.499 E33.75556
G1 X113.802 Y115.499 E33.76303
G1 X113.519 Y115.499 E33.77052
G1 X113.236 Y115.499 E33.77802
G1 X112.953 Y115.499 E33.78552
G1 X112.67 Y115.499 E33.79302
G1 X112.387 Y115.499 E33.80052
G1 X112.105 Y115.499 E33.80799
G1 X111.822 Y115.499 E33.81549
G1 X111.539 Y115.499 E33.82298
G1 X111.256 Y115.499 E33.83048
G1 X110.973 Y115.499 E33.83798
G1 X110.69 Y115.499 E33.84548
G1 X110.408 Y115.499 E33.85295
G1 X110.125 Y115.499 E33.86045
G1 X109.842 Y115.499 E33.86794
G1 X109.559 Y115.499 E33.87544
G1 X109.276 Y115.499 E33.88294
G1 X108.993 Y115.499 E33.89044
G1 X108.71 Y115.499 E33.89794
G1 X108.428 Y115.499 E33.90541
G1 X108.145 Y115.499 E33.9129
G1 X107.862 Y115.499 E33.9204
G1 X107.579 Y115.499 E33.9279
G1 X107.296 Y115.499 E33.9354
G1 X107.013 Y115.499 E33.9429
G1 X106.731 Y115.499 E33.95037
G1 X106.448 Y115.499 E33.95787
G1 X106.165 Y115.499 E33.96536
G1 X105.882 Y115.499 E33.97286
G1 X105.599 Y115.499 E33.98036
G1 X105.316 Y115.499 E33.98786
G1 X105.034 Y115.499 E33.99533
G1 X104.751 Y115.499 E34.00283
G1 X104.468 Y115.499 E34.01032
G1 X104.185 Y115.499 E34.01782
G1 X103.902 Y115.499 E34.02532
G1 X103.619 Y115.499 E34.03282
G1 X103.336 Y115.499 E34.04032
G1 X103.054 Y115.499 E34.04779
G1 X102.771 Y115.499 E34.05528
G1 X102.488 Y115.499 E34.06278
G1 X102.205 Y115.499 E34.07028
G1 X101.922 Y115.499 E34.07778
G1 X101.639 Y115.499 E34.08528
G1 X101.357 Y115.499 E34.09275
G1 X101.074 Y115.499 E34.10025
G1 X100.791 Y115.499 E34.10774
G1 X100.508 Y115.499 E34.11524
G1 X100.225 Y115.499 E34.12274
G1 X99.942 Y115.499 E34.13024
G1 X99.659 Y115.499 E34.13774
G1 X99.377 Y115.499 E34.14521
G1 X99.094 Y115.499 E34.1527
G1 X98.811 Y115.499 E34.1602
G1 X98.528 Y115.499 E34.1677
G1 X98.245 Y115.499 E34.1752
G1 X97.962 Y115.499 E34.1827
G1 X97.68 Y115.499 E34.19017
G1 X97.397 Y115.499 E34.19767
G1 X97.114 Y115.499 E34.20516
G1 X96.831 Y115.499 E34.21266
G1 X96.548 Y115.499 E34.22016
G1 X96.265 Y115.499 E34.22766
G1 X95.983 Y115.499 E34.23513
