;FLAVOR:Marlin
;TIME:4418
;Filament used: 3.51018m
;Layer height: 0.2
;Generated with Cura_SteamEngine 3.2.1
M190 S50
M104 S210
M109 S210
M82 ;absolute extrusion mode
G28 ;Home
G1 Z15.0 F6000 ;Move the platform down 15mm
;Prime the extruder
G92 E0
G1 F200 E3
G92 E0
;LAYER_COUNT:98
;LAYER:0
M107
G0 F3600 X90.413 Y46.046 Z0.3
;TYPE:SKIRT
G1 F1800 X90.679 Y45.616 E0.02552
G1 X91.009 Y45.233 E0.05103
G1 X91.396 Y44.907 E0.07657
G1 X91.829 Y44.646 E0.10208
G1 X92.533 Y44.392 E0.13985
G1 X97.589 Y43.213 E0.40185
G1 X103.597 Y41.441 E0.71795
G1 X104.092 Y41.336 E0.74349
G1 X104.508 Y41.31 E0.76453
G1 X105.509 Y41.312 E0.81504
G1 X106.013 Y41.353 E0.84056
G1 X106.468 Y41.461 E0.86416
G1 X108.491 Y42.101 E0.97124
G1 X113.804 Y43.563 E1.24933
G1 X117.447 Y44.387 E1.43782
G1 X117.929 Y44.537 E1.46329
G1 X118.383 Y44.761 E1.48884
G1 X118.795 Y45.054 E1.51435
G1 X119.156 Y45.408 E1.53987
G1 X119.456 Y45.815 E1.56538
G1 X119.689 Y46.263 E1.59087
G1 X119.848 Y46.743 E1.61638
G1 X119.93 Y47.242 E1.6419
G1 X119.941 Y47.508 E1.65534
G1 X119.941 Y165.491 E7.60939
G1 X119.901 Y165.995 E7.6349
G1 X119.782 Y166.486 E7.6604
G1 X119.588 Y166.953 E7.68592
G1 X119.322 Y167.383 E7.71143
G1 X118.992 Y167.766 E7.73695
G1 X118.605 Y168.092 E7.76248
G1 X118.172 Y168.353 E7.788
G1 X117.704 Y168.543 E7.81349
G1 X117.211 Y168.656 E7.83901
G1 X116.741 Y168.691 E7.8628
G1 X93.259 Y168.691 E9.04782
G1 X92.755 Y168.651 E9.07334
G1 X92.264 Y168.532 E9.09883
G1 X91.797 Y168.338 E9.12435
G1 X91.367 Y168.072 E9.14987
G1 X90.984 Y167.742 E9.17538
G1 X90.658 Y167.355 E9.20092
G1 X90.397 Y166.922 E9.22643
G1 X90.207 Y166.454 E9.25192
G1 X90.094 Y165.961 E9.27745
G1 X90.059 Y165.491 E9.30123
G1 X90.06 Y47.508 E15.25528
G1 X90.1 Y47.004 E15.28079
G1 X90.219 Y46.513 E15.30629
G1 X90.413 Y46.046 E15.33181
G1 F1500 E8.83181
G0 F3600 X92.585 Y48.114
G0 X93.864 Y48.114
G0 X103.95 Y48.144
G0 X103.924 Y48.048
;TYPE:WALL-INNER
G1 F1500 E15.33181
G1 F1800 X104.311 Y47.884 E15.35302
G1 X104.64 Y47.628 E15.37406
G1 X104.819 Y47.395 E15.38889
G1 X104.89 Y47.303 E15.39475
G1 X104.922 Y47.226 E15.39896
G1 X105 Y47.038 E15.40923
G1 X105.078 Y47.226
G1 X105.11 Y47.303
G1 X105.181 Y47.395 E15.41509
G1 X105.365 Y47.635 E15.43036
G1 X105.697 Y47.89 E15.45148
G1 X106.085 Y48.051 E15.47268
G1 X106.461 Y48.1 E15.49182
G1 X116.15 Y48.1 E15.98078
G1 X116.15 Y164.9 E21.87512
G1 X93.85 Y164.9 E23.0005
G1 X93.85 Y48.1 E28.89485
G1 X103.547 Y48.099 E29.38421
G1 X103.924 Y48.048 E29.40341
G0 F3600 X103.817 Y47.659
;TYPE:WALL-OUTER
G1 F1800 X104.107 Y47.536 E29.4193
G1 X104.354 Y47.344 E29.43509
G1 X104.541 Y47.101 E29.45056
G1 X104.661 Y46.811 E29.4664
G1 X104.7 Y46.513 E29.48157
G1 X104.7 Y44.7 E29.57306
G1 X105.3 Y44.7 E29.60334
G1 X105.3 Y46.513 E29.69484
G1 X105.339 Y46.811 E29.71
G1 X105.459 Y47.101 E29.72584
G1 X105.65 Y47.35 E29.74168
G1 X105.899 Y47.541 E29.75752
G1 X106.189 Y47.661 E29.77335
G1 X106.487 Y47.7 E29.78852
G1 X116.55 Y47.7 E30.29635
G1 X116.55 Y165.3 E36.23107
G1 X93.45 Y165.3 E37.39682
G1 X93.45 Y47.7 E43.33154
G1 X103.52 Y47.699 E43.83973
G1 X103.817 Y47.659 E43.85485
G0 F3600 X104.001 Y47.581
G0 X104.196 Y48.042
G0 X104.51 Y48.223
;TYPE:SKIN
G1 F1800 X104.919 Y47.905 E43.88099
G1 X105 Y47.8 E43.88769
G1 X105.087 Y47.914 E43.89492
G1 X105.5 Y48.231 E43.9212
G1 X105.984 Y48.431 E43.94763
G1 X106.436 Y48.49 E43.97063
G1 X115.76 Y48.49 E44.44117
G1 X115.76 Y164.51 E50.29615
G1 X94.24 Y164.51 E51.38217
G1 X94.24 Y48.49 E57.23715
G1 X103.573 Y48.489 E57.70814
G1 X104.028 Y48.428 E57.73131
G1 X104.51 Y48.223 E57.75774
G0 F3600 X115.421 Y48.67
G1 F1800 X115.58 Y48.829 E57.76909
G0 F3600 X115.58 Y49.394
G1 F1800 X114.855 Y48.67 E57.8208
G1 X114.785 Y48.6
G0 F3600 X114.289 Y48.67
G1 F1800 X115.58 Y49.96 E57.9129
G1 X115.65 Y50.03
G0 F3600 X115.58 Y50.526
G1 F1800 X113.723 Y48.67 E58.04539
G1 X113.653 Y48.6
G0 F3600 X113.158 Y48.67
G1 F1800 X115.58 Y51.092 E58.21825
G1 X115.65 Y51.162
G0 F3600 X115.58 Y51.657
G1 F1800 X112.592 Y48.67 E58.43146
G1 X112.522 Y48.6
G0 F3600 X112.026 Y48.67
G1 F1800 X115.58 Y52.223 E58.68507
G1 X115.65 Y52.293
G0 F3600 X115.58 Y52.789
G1 F1800 X111.461 Y48.67 E58.97904
G1 X111.391 Y48.6
G0 F3600 X110.895 Y48.67
G1 F1800 X115.58 Y53.354 E59.31337
G1 X115.65 Y53.424
G0 F3600 X115.58 Y53.92
G1 F1800 X110.329 Y48.67 E59.68809
G1 X110.259 Y48.6
G0 F3600 X109.764 Y48.67
G1 F1800 X115.58 Y54.486 E60.10317
G1 X115.65 Y54.556
G0 F3600 X115.58 Y55.051
G1 F1800 X109.198 Y48.67 E60.55861
G1 X109.128 Y48.6
G0 F3600 X108.632 Y48.67
G1 F1800 X115.58 Y55.617 E61.05444
G1 X115.65 Y55.687
G0 F3600 X115.58 Y56.183
G1 F1800 X108.067 Y48.67 E61.59064
G1 X107.997 Y48.6
G0 F3600 X107.501 Y48.67
G1 F1800 X115.58 Y56.748 E62.16719
G1 X115.65 Y56.818
G0 F3600 X115.58 Y57.314
G1 F1800 X106.935 Y48.67 E62.78413
G1 X106.865 Y48.6
G0 F3600 X106.362 Y48.662
G1 F1800 X115.58 Y57.88 E63.44201
G1 X115.65 Y57.95
G0 F3600 X115.58 Y58.445
G1 F1800 X105.604 Y48.47 E64.15395
G1 X105.534 Y48.4
G0 F3600 X104.796 Y48.228
G1 F1800 X115.58 Y59.011 E64.92355
G1 X115.65 Y59.081
G0 F3600 X115.58 Y59.577
G1 F1800 X104.448 Y48.445 E65.71803
G1 X104.378 Y48.375
G0 F3600 X104.045 Y48.607
G1 F1800 X115.58 Y60.142 E66.54127
G1 X115.65 Y60.212
G0 F3600 X115.58 Y60.708
G1 F1800 X103.54 Y48.669 E67.40051
G1 X103.47 Y48.599
G0 F3600 X102.975 Y48.669
G1 F1800 X115.58 Y61.274 E68.30012
G1 X115.65 Y61.344
G0 F3600 X115.58 Y61.84
G1 F1800 X102.409 Y48.669 E69.24011
G1 X102.339 Y48.599
G0 F3600 X101.843 Y48.669
G1 F1800 X115.58 Y62.405 E70.22047
G1 X115.65 Y62.475
G0 F3600 X115.58 Y62.971
G1 F1800 X101.278 Y48.669 E71.24118
G1 X101.208 Y48.599
G0 F3600 X100.712 Y48.669
G1 F1800 X115.58 Y63.537 E72.30229
G1 X115.65 Y63.607
G0 F3600 X115.58 Y64.102
G1 F1800 X100.146 Y48.669 E73.40376
G1 X100.076 Y48.599
G0 F3600 X99.581 Y48.669
G1 F1800 X115.58 Y64.668 E74.54559
G1 X115.65 Y64.738
G0 F3600 X115.58 Y65.234
G1 F1800 X99.015 Y48.669 E75.72781
G1 X98.945 Y48.599
G0 F3600 X98.449 Y48.669
G1 F1800 X115.58 Y65.799 E76.9504
G1 X115.65 Y65.869
G0 F3600 X115.58 Y66.365
G1 F1800 X97.884 Y48.669 E78.21334
G1 X97.814 Y48.599
G0 F3600 X97.318 Y48.669
G1 F1800 X115.58 Y66.931 E79.51667
G1 X115.65 Y67.001
G0 F3600 X115.58 Y67.496
G1 F1800 X96.752 Y48.669 E80.86037
G1 X96.682 Y48.599
G0 F3600 X96.187 Y48.669
G1 F1800 X115.58 Y68.062 E82.24442
G1 X115.65 Y68.132
G0 F3600 X115.58 Y68.628
G1 F1800 X95.621 Y48.669 E83.66887
G1 X95.551 Y48.599
G0 F3600 X95.055 Y48.669
G1 F1800 X115.58 Y69.193 E85.13368
G1 X115.65 Y69.263
G0 F3600 X115.58 Y69.759
G1 F1800 X94.489 Y48.669 E86.63888
G1 X94.419 Y48.599
G0 F3600 X94.419 Y49.164
G1 F1800 X115.58 Y70.325 E88.14911
G1 X115.65 Y70.395
G0 F3600 X115.58 Y70.89
G1 F1800 X94.419 Y49.73 E89.65931
G1 X94.349 Y49.66
G0 F3600 X94.419 Y50.295
G1 F1800 X115.58 Y71.456 E91.16954
G1 X115.65 Y71.526
G0 F3600 X115.58 Y72.022
G1 F1800 X94.419 Y50.861 E92.67977
G1 X94.349 Y50.791
G0 F3600 X94.419 Y51.427
G1 F1800 X115.58 Y72.588 E94.19001
G1 X115.65 Y72.658
G0 F3600 X115.58 Y73.153
G1 F1800 X94.419 Y51.992 E95.70024
G1 X94.349 Y51.922
G0 F3600 X94.419 Y52.558
G1 F1800 X115.58 Y73.719 E97.21047
G1 X115.65 Y73.789
G0 F3600 X115.58 Y74.285
G1 F1800 X94.419 Y53.124 E98.72071
G1 X94.349 Y53.054
G0 F3600 X94.419 Y53.689
G1 F1800 X115.58 Y74.85 E100.23094
G1 X115.65 Y74.92
G0 F3600 X115.58 Y75.416
G1 F1800 X94.419 Y54.255 E101.74117
G1 X94.349 Y54.185
G0 F3600 X94.419 Y54.821
G1 F1800 X115.58 Y75.982 E103.25141
G1 X115.65 Y76.052
G0 F3600 X115.58 Y76.547
G1 F1800 X94.419 Y55.386 E104.76164
G1 X94.349 Y55.316
G0 F3600 X94.419 Y55.952
G1 F1800 X115.58 Y77.113 E106.27187
G1 X115.65 Y77.183
G0 F3600 X115.58 Y77.679
G1 F1800 X94.419 Y56.518 E107.78211
G1 X94.349 Y56.448
G0 F3600 X94.419 Y57.084
G1 F1800 X115.58 Y78.244 E109.29231
G1 X115.65 Y78.314
G0 F3600 X115.58 Y78.81
G1 F1800 X94.419 Y57.649 E110.80254
G1 X94.349 Y57.579
G0 F3600 X94.419 Y58.215
G1 F1800 X115.58 Y79.376 E112.31277
G1 X115.65 Y79.446
G0 F3600 X115.58 Y79.941
G1 F1800 X94.419 Y58.781 E113.82297
G1 X94.349 Y58.711
G0 F3600 X94.419 Y59.346
G1 F1800 X115.58 Y80.507 E115.3332
G1 X115.65 Y80.577
G0 F3600 X115.58 Y81.073
G1 F1800 X94.419 Y59.912 E116.84344
G1 X94.349 Y59.842
G0 F3600 X94.419 Y60.478
G1 F1800 X115.58 Y81.639 E118.35367
G1 X115.65 Y81.709
G0 F3600 X115.58 Y82.204
G1 F1800 X94.419 Y61.043 E119.8639
G1 X94.349 Y60.973
G0 F3600 X94.419 Y61.609
G1 F1800 X115.58 Y82.77 E121.37414
G1 X115.65 Y82.84
G0 F3600 X115.58 Y83.336
G1 F1800 X94.419 Y62.175 E122.88437
G1 X94.349 Y62.105
G0 F3600 X94.419 Y62.74
G1 F1800 X115.58 Y83.901 E124.3946
G1 X115.65 Y83.971
G0 F3600 X115.58 Y84.467
G1 F1800 X94.419 Y63.306 E125.90484
G1 X94.349 Y63.236
G0 F3600 X94.419 Y63.872
G1 F1800 X115.58 Y85.033 E127.41507
G1 X115.65 Y85.103
G0 F3600 X115.58 Y85.598
G1 F1800 X94.419 Y64.437 E128.9253
G1 X94.349 Y64.367
G0 F3600 X94.419 Y65.003
G1 F1800 X115.58 Y86.164 E130.43554
G1 X115.65 Y86.234
G0 F3600 X115.58 Y86.73
G1 F1800 X94.419 Y65.569 E131.94577
G1 X94.349 Y65.499
G0 F3600 X94.419 Y66.134
G1 F1800 X115.58 Y87.295 E133.456
G1 X115.65 Y87.365
G0 F3600 X115.58 Y87.861
G1 F1800 X94.419 Y66.7 E134.96624
G1 X94.349 Y66.63
G0 F3600 X94.419 Y67.266
G1 F1800 X115.58 Y88.427 E136.47647
G1 X115.65 Y88.497
G0 F3600 X115.58 Y88.992
G1 F1800 X94.419 Y67.832 E137.98667
G1 X94.349 Y67.762
G0 F3600 X94.419 Y68.397
G1 F1800 X115.58 Y89.558 E139.4969
G1 X115.65 Y89.628
G0 F3600 X115.58 Y90.124
G1 F1800 X94.419 Y68.963 E141.00713
G1 X94.349 Y68.893
G0 F3600 X94.419 Y69.529
G1 F1800 X115.58 Y90.689 E142.51733
G1 X115.65 Y90.759
G0 F3600 X115.58 Y91.255
G1 F1800 X94.419 Y70.094 E144.02757
G1 X94.349 Y70.024
G0 F3600 X94.419 Y70.66
G1 F1800 X115.58 Y91.821 E145.5378
G1 X115.65 Y91.891
G0 F3600 X115.58 Y92.387
G1 F1800 X94.419 Y71.226 E147.04803
G1 X94.349 Y71.156
G0 F3600 X94.419 Y71.791
G1 F1800 X115.58 Y92.952 E148.55827
G1 X115.65 Y93.022
G0 F3600 X115.58 Y93.518
G1 F1800 X94.419 Y72.357 E150.0685
G1 X94.349 Y72.287
G0 F3600 X94.419 Y72.923
G1 F1800 X115.58 Y94.084 E151.57873
G1 X115.65 Y94.154
G0 F3600 X115.58 Y94.649
G1 F1800 X94.419 Y73.488 E153.08897
G1 X94.349 Y73.418
G0 F3600 X94.419 Y74.054
G1 F1800 X115.58 Y95.215 E154.5992
G1 X115.65 Y95.285
G0 F3600 X115.58 Y95.781
G1 F1800 X94.419 Y74.62 E156.10943
G1 X94.349 Y74.55
G0 F3600 X94.419 Y75.185
G1 F1800 X115.58 Y96.346 E157.61967
G1 X115.65 Y96.416
G0 F3600 X115.58 Y96.912
G1 F1800 X94.419 Y75.751 E159.1299
G1 X94.349 Y75.681
G0 F3600 X94.419 Y76.317
G1 F1800 X115.58 Y97.478 E160.64013
G1 X115.65 Y97.548
G0 F3600 X115.58 Y98.043
G1 F1800 X94.419 Y76.883 E162.15033
G1 X94.349 Y76.813
G0 F3600 X94.419 Y77.448
G1 F1800 X115.58 Y98.609 E163.66056
G1 X115.65 Y98.679
G0 F3600 X115.58 Y99.175
G1 F1800 X94.419 Y78.014 E165.1708
G1 X94.349 Y77.944
G0 F3600 X94.419 Y78.58
G1 F1800 X115.58 Y99.74 E166.68099
G1 X115.65 Y99.81
G0 F3600 X115.58 Y100.306
G1 F1800 X94.419 Y79.145 E168.19123
G1 X94.349 Y79.075
G0 F3600 X94.419 Y79.711
G1 F1800 X115.58 Y100.872 E169.70146
G1 X115.65 Y100.942
G0 F3600 X115.58 Y101.438
G1 F1800 X94.419 Y80.277 E171.21169
G1 X94.349 Y80.207
G0 F3600 X94.419 Y80.842
G1 F1800 X115.58 Y102.003 E172.72193
G1 X115.65 Y102.073
G0 F3600 X115.58 Y102.569
G1 F1800 X94.419 Y81.408 E174.23216
G1 X94.349 Y81.338
G0 F3600 X94.419 Y81.974
G1 F1800 X115.58 Y103.135 E175.74239
G1 X115.65 Y103.205
G0 F3600 X115.58 Y103.7
G1 F1800 X94.419 Y82.539 E177.25263
G1 X94.349 Y82.469
G0 F3600 X94.419 Y83.105
G1 F1800 X115.58 Y104.266 E178.76286
G1 X115.65 Y104.336
G0 F3600 X115.58 Y104.832
G1 F1800 X94.419 Y83.671 E180.27309
G1 X94.349 Y83.601
G0 F3600 X94.419 Y84.236
G1 F1800 X115.58 Y105.397 E181.78333
G1 X115.65 Y105.467
G0 F3600 X115.58 Y105.963
G1 F1800 X94.419 Y84.802 E183.29356
G1 X94.349 Y84.732
G0 F3600 X94.419 Y85.368
G1 F1800 X115.58 Y106.529 E184.80379
G1 X115.65 Y106.599
G0 F3600 X115.58 Y107.094
G1 F1800 X94.419 Y85.933 E186.31403
G1 X94.349 Y85.863
G0 F3600 X94.419 Y86.499
G1 F1800 X115.58 Y107.66 E187.82426
G1 X115.65 Y107.73
G0 F3600 X115.58 Y108.226
G1 F1800 X94.419 Y87.065 E189.33449
G1 X94.349 Y86.995
G0 F3600 X94.419 Y87.631
G1 F1800 X115.58 Y108.791 E190.84469
G1 X115.65 Y108.861
G0 F3600 X115.58 Y109.357
G1 F1800 X94.419 Y88.196 E192.35493
G1 X94.349 Y88.126
G0 F3600 X94.419 Y88.762
G1 F1800 X115.58 Y109.923 E193.86516
G1 X115.65 Y109.993
G0 F3600 X115.58 Y110.488
G1 F1800 X94.419 Y89.328 E195.37536
G1 X94.349 Y89.258
G0 F3600 X94.419 Y89.893
G1 F1800 X115.58 Y111.054 E196.88559
G1 X115.65 Y111.124
G0 F3600 X115.58 Y111.62
G1 F1800 X94.419 Y90.459 E198.39582
G1 X94.349 Y90.389
G0 F3600 X94.419 Y91.025
G1 F1800 X115.58 Y112.186 E199.90606
G1 X115.65 Y112.256
G0 F3600 X115.58 Y112.751
G1 F1800 X94.419 Y91.59 E201.41629
G1 X94.349 Y91.52
G0 F3600 X94.419 Y92.156
G1 F1800 X115.58 Y113.317 E202.92652
G1 X115.65 Y113.387
G0 F3600 X115.58 Y113.883
G1 F1800 X94.419 Y92.722 E204.43676
G1 X94.349 Y92.652
G0 F3600 X94.419 Y93.287
G1 F1800 X115.58 Y114.448 E205.94699
G1 X115.65 Y114.518
G0 F3600 X115.58 Y115.014
G1 F1800 X94.419 Y93.853 E207.45722
G1 X94.349 Y93.783
G0 F3600 X94.419 Y94.419
G1 F1800 X115.58 Y115.58 E208.96746
G1 X115.65 Y115.65
G0 F3600 X115.58 Y116.145
G1 F1800 X94.419 Y94.984 E210.47769
G1 X94.349 Y94.914
G0 F3600 X94.419 Y95.55
G1 F1800 X115.58 Y116.711 E211.98792
G1 X115.65 Y116.781
G0 F3600 X115.58 Y117.277
G1 F1800 X94.419 Y96.116 E213.49816
G1 X94.349 Y96.046
G0 F3600 X94.419 Y96.682
G1 F1800 X115.58 Y117.842 E215.00835
G1 X115.65 Y117.912
G0 F3600 X115.58 Y118.408
G1 F1800 X94.419 Y97.247 E216.51859
G1 X94.349 Y97.177
G0 F3600 X94.419 Y97.813
G1 F1800 X115.58 Y118.974 E218.02882
G1 X115.65 Y119.044
G0 F3600 X115.58 Y119.539
G1 F1800 X94.419 Y98.379 E219.53902
G1 X94.349 Y98.309
G0 F3600 X94.419 Y98.944
G1 F1800 X115.58 Y120.105 E221.04925
G1 X115.65 Y120.175
G0 F3600 X115.58 Y120.671
G1 F1800 X94.419 Y99.51 E222.55948
G1 X94.349 Y99.44
G0 F3600 X94.419 Y100.076
G1 F1800 X115.58 Y121.236 E224.06968
G1 X115.65 Y121.306
G0 F3600 X115.58 Y121.802
G1 F1800 X94.419 Y100.641 E225.57992
G1 X94.349 Y100.571
G0 F3600 X94.419 Y101.207
G1 F1800 X115.58 Y122.368 E227.09015
G1 X115.65 Y122.438
G0 F3600 X115.58 Y122.934
G1 F1800 X94.419 Y101.773 E228.60038
G1 X94.349 Y101.703
G0 F3600 X94.419 Y102.338
G1 F1800 X115.58 Y123.499 E230.11062
G1 X115.65 Y123.569
G0 F3600 X115.58 Y124.065
G1 F1800 X94.419 Y102.904 E231.62085
G1 X94.349 Y102.834
G0 F3600 X94.419 Y103.47
G1 F1800 X115.58 Y124.631 E233.13108
G1 X115.65 Y124.701
G0 F3600 X115.58 Y125.196
G1 F1800 X94.419 Y104.035 E234.64132
G1 X94.349 Y103.965
G0 F3600 X94.419 Y104.601
G1 F1800 X115.58 Y125.762 E236.15155
G1 X115.65 Y125.832
G0 F3600 X115.58 Y126.328
G1 F1800 X94.419 Y105.167 E237.66178
G1 X94.349 Y105.097
G0 F3600 X94.419 Y105.732
G1 F1800 X115.58 Y126.893 E239.17202
G1 X115.65 Y126.963
G0 F3600 X115.58 Y127.459
G1 F1800 X94.419 Y106.298 E240.68225
G1 X94.349 Y106.228
G0 F3600 X94.419 Y106.864
G1 F1800 X115.58 Y128.025 E242.19248
G1 X115.65 Y128.095
G0 F3600 X115.58 Y128.59
G1 F1800 X94.419 Y107.43 E243.70268
G1 X94.349 Y107.36
G0 F3600 X94.419 Y107.995
G1 F1800 X115.58 Y129.156 E245.21291
G1 X115.65 Y129.226
G0 F3600 X115.58 Y129.722
G1 F1800 X94.419 Y108.561 E246.72315
G1 X94.349 Y108.491
G0 F3600 X94.419 Y109.127
G1 F1800 X115.58 Y130.287 E248.23334
G1 X115.65 Y130.357
G0 F3600 X115.58 Y130.853
G1 F1800 X94.419 Y109.692 E249.74358
G1 X94.349 Y109.622
G0 F3600 X94.419 Y110.258
G1 F1800 X115.58 Y131.419 E251.25381
G1 X115.65 Y131.489
G0 F3600 X115.58 Y131.985
G1 F1800 X94.419 Y110.824 E252.76404
G1 X94.349 Y110.754
G0 F3600 X94.419 Y111.389
G1 F1800 X115.58 Y132.55 E254.27428
G1 X115.65 Y132.62
G0 F3600 X115.58 Y133.116
G1 F1800 X94.419 Y111.955 E255.78451
G1 X94.349 Y111.885
G0 F3600 X94.419 Y112.521
G1 F1800 X115.58 Y133.682 E257.29474
G1 X115.65 Y133.752
G0 F3600 X115.58 Y134.247
G1 F1800 X94.419 Y113.086 E258.80498
G1 X94.349 Y113.016
G0 F3600 X94.419 Y113.652
G1 F1800 X115.58 Y134.813 E260.31521
G1 X115.65 Y134.883
G0 F3600 X115.58 Y135.379
G1 F1800 X94.419 Y114.218 E261.82544
G1 X94.349 Y114.148
G0 F3600 X94.419 Y114.783
G1 F1800 X115.58 Y135.944 E263.33568
G1 X115.65 Y136.014
G0 F3600 X115.58 Y136.51
