;FLAVOR:Marlin
;TIME:6217
;Filament used: 3.19329m
;Layer height: 0.2
;Generated with Cura_SteamEngine 3.2.1
M190 S50
M104 S210
M109 S210
M82 ;absolute extrusion mode
G28 ;Home
G1 Z15.0 F6000 ;Move the platform down 15mm
;Prime the extruder
G92 E0
G1 F200 E3
G92 E0
;LAYER_COUNT:98
;LAYER:0
M107
G0 F3600 X99.472 Y39.234 Z0.3
;TYPE:SKIRT
G1 F1200 X99.709 Y38.788 E0.02549
G1 X100.014 Y38.384 E0.05103
G1 X100.379 Y38.034 E0.07655
G1 X100.794 Y37.745 E0.10207
G1 X101.249 Y37.526 E0.12756
G1 X101.733 Y37.381 E0.15306
G1 X102.408 Y37.309 E0.18731
G1 X107.595 Y37.31 E0.44908
G1 X108.099 Y37.35 E0.47459
G1 X108.59 Y37.469 E0.50009
G1 X109.057 Y37.664 E0.52563
G1 X109.487 Y37.93 E0.55114
G1 X109.869 Y38.26 E0.57662
G1 X110.195 Y38.646 E0.60211
G1 X110.456 Y39.079 E0.62763
G1 X110.687 Y39.69 E0.66059
G1 X111.938 Y44.407 E0.90687
G1 X113.932 Y50.51 E1.23088
G1 X114.05 Y51.002 E1.25641
G1 X114.09 Y51.504 E1.28183
G1 X114.091 Y169.491 E7.23608
G1 X114.051 Y169.995 E7.26159
G1 X113.932 Y170.486 E7.28709
G1 X113.738 Y170.953 E7.31261
G1 X113.472 Y171.383 E7.33812
G1 X113.142 Y171.766 E7.36364
G1 X112.755 Y172.092 E7.38917
G1 X112.322 Y172.353 E7.41469
G1 X111.854 Y172.543 E7.44018
G1 X111.361 Y172.656 E7.4657
G1 X110.891 Y172.691 E7.48948
G1 X99.109 Y172.691 E8.08407
G1 X98.605 Y172.651 E8.10958
G1 X98.114 Y172.532 E8.13508
G1 X97.647 Y172.338 E8.1606
G1 X97.217 Y172.072 E8.18611
G1 X96.834 Y171.742 E8.21163
G1 X96.508 Y171.355 E8.23716
G1 X96.247 Y170.922 E8.26268
G1 X96.057 Y170.454 E8.28817
G1 X95.944 Y169.961 E8.31369
G1 X95.909 Y169.491 E8.33748
G1 X95.911 Y51.498 E14.29203
G1 X95.951 Y50.994 E14.31754
G1 X96.09 Y50.442 E14.34627
G1 X96.856 Y48.253 E14.46331
G1 X98.468 Y42.978 E14.74166
G1 X99.308 Y39.712 E14.91185
G1 X99.472 Y39.234 E14.93735
G1 F1500 E8.43735
G0 F3600 X103.021 Y49.661
G0 X104.142 Y50.308
G0 X106.67 Y58.83
G0 X106.6 Y58.9
;TYPE:WALL-INNER
G1 F1500 E14.93735
G1 F1200 X103.4 Y58.9 E15.09884
G1 X103.4 Y168.9 E20.65002
G1 X99.7 Y168.9 E20.83674
G1 X99.7 Y52.1 E26.73109
G1 X101.039 Y52.1 E26.79866
G1 X101.938 Y51.982 E26.84442
G1 X102.81 Y51.617 E26.89213
G1 X103.555 Y51.042 E26.93962
G1 X104.125 Y50.299 E26.98688
G1 X104.483 Y49.432 E27.03421
G1 X104.598 Y48.551 E27.07905
G1 X104.6 Y42.961 E27.36115
G1 X104.534 Y42.456 E27.38685
G1 X104.324 Y41.948 E27.41459
G1 X103.989 Y41.511 E27.44238
G1 X103.93 Y41.466 E27.44613
G1 X103.552 Y41.176 E27.47017
G1 X103.368 Y41.1 E27.48022
G1 X103.552 Y41.1
G1 X104.029 Y41.1 E27.49507
G1 X105.971 Y41.1 E27.59307
G1 X106.448 Y41.1 E27.61715
G1 X106.632 Y41.1 E27.62643
G1 X106.448 Y41.176
G1 X106.07 Y41.466 E27.64125
G1 X106.011 Y41.511 E27.64499
G1 X105.676 Y41.948 E27.67278
G1 X105.466 Y42.456 E27.70052
G1 X105.4 Y42.961 E27.72622
G1 X105.4 Y48.539 E28.00772
G1 X105.514 Y49.422 E28.05265
G1 X105.886 Y50.313 E28.10137
G1 X106.461 Y51.057 E28.14883
G1 X107.211 Y51.628 E28.1964
G1 X108.084 Y51.985 E28.24399
G1 X108.961 Y52.1 E28.28863
G1 X110.3 Y52.1 E28.3562
G1 X110.3 Y168.9 E34.25055
G1 X106.6 Y168.9 E34.43727
G1 X106.6 Y58.9 E39.98846
G0 F3600 X106.2 Y59.3
;TYPE:WALL-OUTER
G1 F1200 X103.8 Y59.3 E40.10957
G1 X103.8 Y169.3 E45.66076
G1 X99.3 Y169.3 E45.88785
G1 X99.3 Y51.7 E51.82257
G1 X101.013 Y51.7 E51.90902
G1 X101.833 Y51.592 E51.95076
G1 X102.607 Y51.268 E51.9931
G1 X103.269 Y50.757 E52.0353
G1 X103.775 Y50.097 E52.07727
G1 X104.093 Y49.328 E52.11927
G1 X104.198 Y48.525 E52.16014
G1 X104.2 Y42.987 E52.43961
G1 X104.144 Y42.56 E52.46135
G1 X103.974 Y42.149 E52.48379
G1 X103.704 Y41.796 E52.50622
G1 X103.351 Y41.526 E52.52865
G1 X102.94 Y41.356 E52.55109
G1 X102.6 Y41.311 E52.5684
G1 X102.6 Y40.7 E52.59923
G1 X107.4 Y40.7 E52.84147
G1 X107.4 Y41.311 E52.8723
G1 X107.06 Y41.356 E52.88961
G1 X106.649 Y41.526 E52.91206
G1 X106.296 Y41.796 E52.93448
G1 X106.026 Y42.149 E52.95691
G1 X105.856 Y42.56 E52.97936
G1 X105.8 Y42.987 E53.00109
G1 X105.8 Y48.513 E53.27996
G1 X105.904 Y49.317 E53.32087
G1 X106.235 Y50.11 E53.36424
G1 X106.745 Y50.771 E53.40637
G1 X107.411 Y51.278 E53.44861
G1 X108.187 Y51.595 E53.49091
G1 X108.987 Y51.7 E53.53163
G1 X110.7 Y51.7 E53.61808
G1 X110.7 Y169.3 E59.5528
G1 X106.2 Y169.3 E59.77989
G1 X106.2 Y59.3 E65.33108
G0 F3600 X106 Y59.3
G0 X106 Y58.8
G0 X106.99 Y58.51
;TYPE:SKIN
G1 F1200 X103.01 Y58.51 E65.53193
G1 X103.01 Y168.51 E71.08311
G1 X100.09 Y168.51 E71.23047
G1 X100.09 Y52.49 E77.08545
G1 X101.064 Y52.49 E77.13461
G1 X102.041 Y52.362 E77.18433
G1 X103.007 Y51.957 E77.23719
G1 X103.834 Y51.319 E77.2899
G1 X104.466 Y50.496 E77.34227
G1 X104.863 Y49.533 E77.39484
G1 X104.988 Y48.576 E77.44354
G1 X104.99 Y42.936 E77.72817
G1 X104.914 Y42.355 E77.75774
G1 X104.665 Y41.751 E77.79071
G1 X104.465 Y41.49 E77.8073
G1 X105.535 Y41.49 E77.8613
G1 X105.335 Y41.751 E77.87789
G1 X105.086 Y42.355 E77.91086
G1 X105.01 Y42.936 E77.94043
G1 X105.01 Y48.564 E78.22445
G1 X105.134 Y49.524 E78.2733
G1 X105.546 Y50.51 E78.32723
G1 X106.184 Y51.336 E78.3799
G1 X107.016 Y51.969 E78.43266
G1 X107.983 Y52.365 E78.48539
G1 X108.936 Y52.49 E78.53389
G1 X109.91 Y52.49 E78.58305
G1 X109.91 Y168.51 E84.43803
G1 X106.99 Y168.51 E84.58539
G1 X106.99 Y58.51 E90.13657
G0 F3600 X105.361 Y48.541
G0 X105.13 Y41.773
G1 F1200 X105.026 Y41.669 E90.144
G0 F3600 X104.866 Y49.995
G1 F1200 X105.327 Y50.456 E90.1769
G0 F3600 X104.702 Y50.396
G1 F1200 X109.73 Y55.424 E90.53574
G1 X109.8 Y55.494
G0 F3600 X109.73 Y55.99
G1 F1200 X104.494 Y50.754 E90.90943
G1 X104.424 Y50.684
G0 F3600 X104.248 Y51.074
G1 F1200 X109.73 Y56.555 E91.30063
G1 X109.8 Y56.625
G0 F3600 X109.73 Y57.121
G1 F1200 X104.002 Y51.393 E91.70943
G1 X103.932 Y51.323
G0 F3600 X103.695 Y51.652
G1 F1200 X109.73 Y57.687 E92.14014
G1 X109.8 Y57.757
G0 F3600 X109.73 Y58.252
G1 F1200 X103.376 Y51.898 E92.59362
G1 X103.306 Y51.828
G0 F3600 X103.046 Y52.134
G1 F1200 X109.73 Y58.818 E93.07065
G1 X109.8 Y58.888
G0 F3600 X109.73 Y59.384
G1 F1200 X102.648 Y52.302 E93.57608
G1 X102.578 Y52.232
G0 F3600 X102.25 Y52.47
G1 F1200 X109.73 Y59.949 E94.10988
G1 X109.8 Y60.019
G0 F3600 X109.73 Y60.515
G1 F1200 X101.791 Y52.576 E94.67648
G1 X101.721 Y52.506
G0 F3600 X101.29 Y52.641
G1 F1200 X106.978 Y58.329 E95.08243
G1 X107.048 Y58.399
G0 F3600 X107.169 Y58.52
G1 F1200 X109.73 Y61.081 E95.2652
G1 X109.8 Y61.151
G0 F3600 X109.73 Y61.646
G1 F1200 X107.169 Y59.086 E95.44794
G1 X107.099 Y59.016
G0 F3600 X107.169 Y59.652
G1 F1200 X109.73 Y62.212 E95.63068
G1 X109.8 Y62.282
G0 F3600 X109.73 Y62.778
G1 F1200 X107.169 Y60.217 E95.81346
G1 X107.099 Y60.147
G0 F3600 X107.169 Y60.783
G1 F1200 X109.73 Y63.344 E95.99623
G1 X109.8 Y63.414
G0 F3600 X109.73 Y63.909
G1 F1200 X107.169 Y61.349 E96.17897
G1 X107.099 Y61.279
G0 F3600 X107.169 Y61.914
G1 F1200 X109.73 Y64.475 E96.36175
G1 X109.8 Y64.545
G0 F3600 X109.73 Y65.041
G1 F1200 X107.169 Y62.48 E96.54452
G1 X107.099 Y62.41
G0 F3600 X107.169 Y63.046
G1 F1200 X109.73 Y65.606 E96.72726
G1 X109.8 Y65.676
G0 F3600 X109.73 Y66.172
G1 F1200 X107.169 Y63.612 E96.91
G1 X107.099 Y63.542
G0 F3600 X107.169 Y64.177
G1 F1200 X109.73 Y66.738 E97.09278
G1 X109.8 Y66.808
G0 F3600 X109.73 Y67.303
G1 F1200 X107.169 Y64.743 E97.27551
G1 X107.099 Y64.673
G0 F3600 X107.169 Y65.309
G1 F1200 X109.73 Y67.869 E97.45825
G1 X109.8 Y67.939
G0 F3600 X109.73 Y68.435
G1 F1200 X107.169 Y65.874 E97.64103
G1 X107.099 Y65.804
G0 F3600 X107.169 Y66.44
G1 F1200 X109.73 Y69 E97.82377
G1 X109.8 Y69.07
G0 F3600 X109.73 Y69.566
G1 F1200 X107.169 Y67.006 E98.00651
G1 X107.099 Y66.936
G0 F3600 X107.169 Y67.571
G1 F1200 X109.73 Y70.132 E98.18928
G1 X109.8 Y70.202
G0 F3600 X109.73 Y70.697
G1 F1200 X107.169 Y68.137 E98.37202
G1 X107.099 Y68.067
G0 F3600 X107.169 Y68.703
G1 F1200 X109.73 Y71.263 E98.55476
G1 X109.8 Y71.333
G0 F3600 X109.73 Y71.829
G1 F1200 X107.169 Y69.268 E98.73754
G1 X107.099 Y69.198
G0 F3600 X107.169 Y69.834
G1 F1200 X109.73 Y72.395 E98.92031
G1 X109.8 Y72.465
G0 F3600 X109.73 Y72.96
G1 F1200 X107.169 Y70.4 E99.10305
G1 X107.099 Y70.33
G0 F3600 X107.169 Y70.965
G1 F1200 X109.73 Y73.526 E99.28583
G1 X109.8 Y73.596
G0 F3600 X109.73 Y74.092
G1 F1200 X107.169 Y71.531 E99.4686
G1 X107.099 Y71.461
G0 F3600 X107.169 Y72.097
G1 F1200 X109.73 Y74.657 E99.65134
G1 X109.8 Y74.727
G0 F3600 X109.73 Y75.223
G1 F1200 X107.169 Y72.662 E99.83412
G1 X107.099 Y72.592
G0 F3600 X107.169 Y73.228
G1 F1200 X109.73 Y75.789 E100.01689
G1 X109.8 Y75.859
G0 F3600 X109.73 Y76.354
G1 F1200 X107.169 Y73.794 E100.19963
G1 X107.099 Y73.724
G0 F3600 X107.169 Y74.36
G1 F1200 X109.73 Y76.92 E100.38237
G1 X109.8 Y76.99
G0 F3600 X109.73 Y77.486
G1 F1200 X107.169 Y74.925 E100.56515
G1 X107.099 Y74.855
G0 F3600 X107.169 Y75.491
G1 F1200 X109.73 Y78.051 E100.74789
G1 X109.8 Y78.121
G0 F3600 X109.73 Y78.617
G1 F1200 X107.169 Y76.057 E100.93063
G1 X107.099 Y75.987
G0 F3600 X107.169 Y76.622
G1 F1200 X109.73 Y79.183 E101.1134
G1 X109.8 Y79.253
G0 F3600 X109.73 Y79.748
G1 F1200 X107.169 Y77.188 E101.29614
G1 X107.099 Y77.118
G0 F3600 X107.169 Y77.754
G1 F1200 X109.73 Y80.314 E101.47888
G1 X109.8 Y80.384
G0 F3600 X109.73 Y80.88
G1 F1200 X107.169 Y78.319 E101.66166
G1 X107.099 Y78.249
G0 F3600 X107.169 Y78.885
G1 F1200 X109.73 Y81.445 E101.8444
G1 X109.8 Y81.515
G0 F3600 X109.73 Y82.011
G1 F1200 X107.169 Y79.451 E102.02714
G1 X107.099 Y79.381
G0 F3600 X107.169 Y80.016
G1 F1200 X109.73 Y82.577 E102.20991
G1 X109.8 Y82.647
G0 F3600 X109.73 Y83.143
G1 F1200 X107.169 Y80.582 E102.39269
G1 X107.099 Y80.512
G0 F3600 X107.169 Y81.148
G1 F1200 X109.73 Y83.708 E102.57543
G1 X109.8 Y83.778
G0 F3600 X109.73 Y84.274
G1 F1200 X107.169 Y81.713 E102.7582
G1 X107.099 Y81.643
G0 F3600 X107.169 Y82.279
G1 F1200 X109.73 Y84.84 E102.94098
G1 X109.8 Y84.91
G0 F3600 X109.73 Y85.405
G1 F1200 X107.169 Y82.845 E103.12372
G1 X107.099 Y82.775
G0 F3600 X107.169 Y83.411
G1 F1200 X109.73 Y85.971 E103.30646
G1 X109.8 Y86.041
G0 F3600 X109.73 Y86.537
G1 F1200 X107.169 Y83.976 E103.48923
G1 X107.099 Y83.906
G0 F3600 X107.169 Y84.542
G1 F1200 X109.73 Y87.102 E103.67197
G1 X109.8 Y87.172
G0 F3600 X109.73 Y87.668
G1 F1200 X107.169 Y85.108 E103.85471
G1 X107.099 Y85.038
G0 F3600 X107.169 Y85.673
G1 F1200 X109.73 Y88.234 E104.03749
G1 X109.8 Y88.304
G0 F3600 X109.73 Y88.799
G1 F1200 X107.169 Y86.239 E104.22023
G1 X107.099 Y86.169
G0 F3600 X107.169 Y86.805
G1 F1200 X109.73 Y89.365 E104.40297
G1 X109.8 Y89.435
G0 F3600 X109.73 Y89.931
G1 F1200 X107.169 Y87.37 E104.58574
G1 X107.099 Y87.3
G0 F3600 X107.169 Y87.936
G1 F1200 X109.73 Y90.496 E104.76848
G1 X109.8 Y90.566
G0 F3600 X109.73 Y91.062
G1 F1200 X107.169 Y88.502 E104.95122
G1 X107.099 Y88.432
G0 F3600 X107.169 Y89.067
G1 F1200 X109.73 Y91.628 E105.134
G1 X109.8 Y91.698
G0 F3600 X109.73 Y92.193
G1 F1200 X107.169 Y89.633 E105.31674
G1 X107.099 Y89.563
G0 F3600 X107.169 Y90.199
G1 F1200 X109.73 Y92.759 E105.49947
G1 X109.8 Y92.829
G0 F3600 X109.73 Y93.325
G1 F1200 X107.169 Y90.764 E105.68225
G1 X107.099 Y90.694
G0 F3600 X107.169 Y91.33
G1 F1200 X109.73 Y93.891 E105.86503
G1 X109.8 Y93.961
G0 F3600 X109.73 Y94.456
G1 F1200 X107.169 Y91.896 E106.04776
G1 X107.099 Y91.826
G0 F3600 X107.169 Y92.461
G1 F1200 X109.73 Y95.022 E106.23054
G1 X109.8 Y95.092
G0 F3600 X109.73 Y95.588
G1 F1200 X107.169 Y93.027 E106.41332
G1 X107.099 Y92.957
G0 F3600 X107.169 Y93.593
G1 F1200 X109.73 Y96.153 E106.59605
G1 X109.8 Y96.223
G0 F3600 X109.73 Y96.719
G1 F1200 X107.169 Y94.159 E106.77879
G1 X107.099 Y94.089
G0 F3600 X107.169 Y94.724
G1 F1200 X109.73 Y97.285 E106.96157
G1 X109.8 Y97.355
G0 F3600 X109.73 Y97.85
G1 F1200 X107.169 Y95.29 E107.14431
G1 X107.099 Y95.22
G0 F3600 X107.169 Y95.856
G1 F1200 X109.73 Y98.416 E107.32705
G1 X109.8 Y98.486
G0 F3600 X109.73 Y98.982
G1 F1200 X107.169 Y96.421 E107.50982
G1 X107.099 Y96.351
G0 F3600 X107.169 Y96.987
G1 F1200 X109.73 Y99.547 E107.69256
G1 X109.8 Y99.617
G0 F3600 X109.73 Y100.113
G1 F1200 X107.169 Y97.553 E107.8753
G1 X107.099 Y97.483
G0 F3600 X107.169 Y98.118
G1 F1200 X109.73 Y100.679 E108.05808
G1 X109.8 Y100.749
G0 F3600 X109.73 Y101.244
G1 F1200 X107.169 Y98.684 E108.24082
G1 X107.099 Y98.614
G0 F3600 X107.169 Y99.25
G1 F1200 X109.73 Y101.81 E108.42356
G1 X109.8 Y101.88
G0 F3600 X109.73 Y102.376
G1 F1200 X107.169 Y99.815 E108.60633
G1 X107.099 Y99.745
G0 F3600 X107.169 Y100.381
G1 F1200 X109.73 Y102.942 E108.78911
G1 X109.8 Y103.012
G0 F3600 X109.73 Y103.507
G1 F1200 X107.169 Y100.947 E108.97185
G1 X107.099 Y100.877
G0 F3600 X107.169 Y101.512
G1 F1200 X109.73 Y104.073 E109.15462
G1 X109.8 Y104.143
G0 F3600 X109.73 Y104.639
G1 F1200 X107.169 Y102.078 E109.3374
G1 X107.099 Y102.008
G0 F3600 X107.169 Y102.644
G1 F1200 X109.73 Y105.204 E109.52014
G1 X109.8 Y105.274
G0 F3600 X109.73 Y105.77
G1 F1200 X107.169 Y103.21 E109.70288
G1 X107.099 Y103.14
G0 F3600 X107.169 Y103.775
G1 F1200 X109.73 Y106.336 E109.88565
G1 X109.8 Y106.406
G0 F3600 X109.73 Y106.901
G1 F1200 X107.169 Y104.341 E110.06839
G1 X107.099 Y104.271
G0 F3600 X107.169 Y104.907
G1 F1200 X109.73 Y107.467 E110.25113
G1 X109.8 Y107.537
G0 F3600 X109.73 Y108.033
G1 F1200 X107.169 Y105.472 E110.43391
G1 X107.099 Y105.402
G0 F3600 X107.169 Y106.038
G1 F1200 X109.73 Y108.598 E110.61665
G1 X109.8 Y108.668
G0 F3600 X109.73 Y109.164
G1 F1200 X107.169 Y106.604 E110.79939
G1 X107.099 Y106.534
G0 F3600 X107.169 Y107.169
G1 F1200 X109.73 Y109.73 E110.98216
G1 X109.8 Y109.8
G0 F3600 X109.73 Y110.295
G1 F1200 X107.169 Y107.735 E111.1649
G1 X107.099 Y107.665
G0 F3600 X107.169 Y108.301
G1 F1200 X109.73 Y110.861 E111.34764
G1 X109.8 Y110.931
G0 F3600 X109.73 Y111.427
G1 F1200 X107.169 Y108.866 E111.53042
G1 X107.099 Y108.796
G0 F3600 X107.169 Y109.432
G1 F1200 X109.73 Y111.992 E111.71316
G1 X109.8 Y112.062
G0 F3600 X109.73 Y112.558
G1 F1200 X107.169 Y109.998 E111.8959
G1 X107.099 Y109.928
G0 F3600 X107.169 Y110.563
G1 F1200 X109.73 Y113.124 E112.07867
G1 X109.8 Y113.194
G0 F3600 X109.73 Y113.69
G1 F1200 X107.169 Y111.129 E112.26145
G1 X107.099 Y111.059
G0 F3600 X107.169 Y111.695
G1 F1200 X109.73 Y114.255 E112.44419
G1 X109.8 Y114.325
G0 F3600 X109.73 Y114.821
G1 F1200 X107.169 Y112.26 E112.62696
G1 X107.099 Y112.19
G0 F3600 X107.169 Y112.826
G1 F1200 X109.73 Y115.387 E112.80974
G1 X109.8 Y115.457
G0 F3600 X109.73 Y115.952
G1 F1200 X107.169 Y113.392 E112.99248
G1 X107.099 Y113.322
G0 F3600 X107.169 Y113.958
G1 F1200 X109.73 Y116.518 E113.17522
G1 X109.8 Y116.588
G0 F3600 X109.73 Y117.084
G1 F1200 X107.169 Y114.523 E113.35799
G1 X107.099 Y114.453
G0 F3600 X107.169 Y115.089
G1 F1200 X109.73 Y117.649 E113.54073
G1 X109.8 Y117.719
G0 F3600 X109.73 Y118.215
G1 F1200 X107.169 Y115.655 E113.72347
G1 X107.099 Y115.585
G0 F3600 X107.169 Y116.22
G1 F1200 X109.73 Y118.781 E113.90625
G1 X109.8 Y118.851
G0 F3600 X109.73 Y119.346
G1 F1200 X107.169 Y116.786 E114.08898
G1 X107.099 Y116.716
G0 F3600 X107.169 Y117.352
G1 F1200 X109.73 Y119.912 E114.27172
G1 X109.8 Y119.982
G0 F3600 X109.73 Y120.478
G1 F1200 X107.169 Y117.917 E114.4545
G1 X107.099 Y117.847
G0 F3600 X107.169 Y118.483
G1 F1200 X109.73 Y121.043 E114.63724
G1 X109.8 Y121.113
G0 F3600 X109.73 Y121.609
G1 F1200 X107.169 Y119.049 E114.81998
G1 X107.099 Y118.979
G0 F3600 X107.169 Y119.614
G1 F1200 X109.73 Y122.175 E115.00275
G1 X109.8 Y122.245
G0 F3600 X109.73 Y122.741
G1 F1200 X107.169 Y120.18 E115.18553
G1 X107.099 Y120.11
G0 F3600 X107.169 Y120.746
G1 F1200 X109.73 Y123.306 E115.36827
G1 X109.8 Y123.376
G0 F3600 X109.73 Y123.872
G1 F1200 X107.169 Y121.311 E115.55104
G1 X107.099 Y121.241
G0 F3600 X107.169 Y121.877
G1 F1200 X109.73 Y124.438 E115.73382
G1 X109.8 Y124.508
G0 F3600 X109.73 Y125.003
G1 F1200 X107.169 Y122.443 E115.91656
G1 X107.099 Y122.373
G0 F3600 X107.169 Y123.009
G1 F1200 X109.73 Y125.569 E116.0993
G1 X109.8 Y125.639
G0 F3600 X109.73 Y126.135
G1 F1200 X107.169 Y123.574 E116.28207
G1 X107.099 Y123.504
G0 F3600 X107.169 Y124.14
G1 F1200 X109.73 Y126.7 E116.46481
G1 X109.8 Y126.77
G0 F3600 X109.73 Y127.266
G1 F1200 X107.169 Y124.706 E116.64755
G1 X107.099 Y124.636
G0 F3600 X107.169 Y125.271
G1 F1200 X109.73 Y127.832 E116.83033
G1 X109.8 Y127.902
G0 F3600 X109.73 Y128.397
G1 F1200 X107.169 Y125.837 E117.01307
G1 X107.099 Y125.767
G0 F3600 X107.169 Y126.403
G1 F1200 X109.73 Y128.963 E117.19581
G1 X109.8 Y129.033
G0 F3600 X109.73 Y129.529
