;FLAVOR:Marlin
;TIME:7757
;Filament used: 4.26589m
;Layer height: 0.2
;Generated with Cura_SteamEngine 3.2.1
M190 S50
M104 S200
M109 S200
M82 ;absolute extrusion mode
G28 ;Home
G1 Z15.0 F6000 ;Move the platform down 15mm
;Prime the extruder
G92 E0
G1 F200 E3
G92 E0
;LAYER_COUNT:98
;LAYER:0
M107
G0 F4500 X90.313 Y46.545 Z0.3
;TYPE:SKIRT
G1 F1200 X90.579 Y46.115 E0.02523
G1 X90.909 Y45.732 E0.05045
G1 X91.296 Y45.406 E0.07569
G1 X91.874 Y45.077 E0.10887
G1 X93.981 Y44.152 E0.22368
G1 X100.087 Y41.141 E0.56333
G1 X100.556 Y40.954 E0.58852
G1 X101.05 Y40.843 E0.61378
G1 X101.502 Y40.811 E0.63639
G1 X108.491 Y40.81 E0.98507
G1 X108.995 Y40.85 E1.01029
G1 X109.486 Y40.969 E1.0355
G1 X109.925 Y41.149 E1.05917
G1 X114.722 Y43.553 E1.32686
G1 X118.132 Y45.079 E1.51325
G1 X118.576 Y45.321 E1.53848
G1 X118.976 Y45.63 E1.56369
G1 X119.322 Y45.999 E1.58893
G1 X119.606 Y46.417 E1.61414
G1 X119.821 Y46.875 E1.63938
G1 X119.96 Y47.361 E1.6646
G1 X120.025 Y48 E1.69665
G1 X120.041 Y165.991 E7.58324
G1 X120.001 Y166.495 E7.60847
G1 X119.882 Y166.986 E7.63367
G1 X119.688 Y167.453 E7.6589
G1 X119.422 Y167.883 E7.68413
G1 X119.092 Y168.266 E7.70935
G1 X118.706 Y168.592 E7.73456
G1 X118.273 Y168.853 E7.75978
G1 X117.804 Y169.043 E7.78502
G1 X117.311 Y169.156 E7.81026
G1 X116.841 Y169.191 E7.83377
G1 X93.159 Y169.191 E9.01527
G1 X92.655 Y169.151 E9.04049
G1 X92.164 Y169.032 E9.0657
G1 X91.697 Y168.838 E9.09093
G1 X91.267 Y168.572 E9.11616
G1 X90.884 Y168.242 E9.14138
G1 X90.558 Y167.855 E9.16662
G1 X90.297 Y167.422 E9.19185
G1 X90.107 Y166.954 E9.21705
G1 X89.994 Y166.461 E9.24228
G1 X89.959 Y165.991 E9.26579
G1 X89.96 Y48.007 E15.15204
G1 X90 Y47.503 E15.17726
G1 X90.119 Y47.012 E15.20247
G1 X90.313 Y46.545 E15.2277
G1 F1800 E8.7277
G0 F4500 X92.485 Y48.614
G0 X93.764 Y48.614
G0 X112.67 Y55.33
G0 X112.6 Y55.4
;TYPE:WALL-INNER
G1 F1800 E15.2277
G1 F1200 X109.4 Y55.4 E15.38734
G1 X109.4 Y165.4 E20.87527
G1 X100.6 Y165.4 E21.3143
G1 X100.6 Y55.4 E26.80222
G1 X97.4 Y55.4 E26.96187
G1 X97.4 Y165.4 E32.44979
G1 X93.75 Y165.4 E32.63189
G1 X93.75 Y48.6 E38.45907
G1 X102.539 Y48.6 E38.89755
G1 X102.912 Y48.552 E38.91632
G1 X103.308 Y48.387 E38.93772
G1 X103.636 Y48.132 E38.95845
G1 X103.89 Y47.803 E38.97918
G1 X104.048 Y47.419 E38.9999
G1 X104.099 Y47.046 E39.01868
G1 X104.1 Y45.962 E39.07276
G1 X104.052 Y45.587 E39.09162
G1 X103.887 Y45.193 E39.11293
G1 X103.717 Y44.973 E39.12681
G1 X103.633 Y44.864 E39.13367
G1 X103.303 Y44.609 E39.15448
G1 X103.281 Y44.6 E39.15566
G1 X103.303 Y44.6
G1 X103.633 Y44.6
G1 X103.771 Y44.6 E39.1615
G1 X106.23 Y44.6 E39.28418
G1 X106.364 Y44.6 E39.29087
G1 X106.692 Y44.6 E39.30723
G1 X106.723 Y44.6 E39.30878
G1 X106.692 Y44.613
G1 X106.364 Y44.868 E39.31547
G1 X106.282 Y44.974 E39.32117
G1 X106.11 Y45.197 E39.33522
G1 X105.952 Y45.581 E39.35594
G1 X105.901 Y45.954 E39.37472
G1 X105.9 Y47.044 E39.4291
G1 X105.951 Y47.419 E39.44798
G1 X106.11 Y47.803 E39.46872
G1 X106.363 Y48.132 E39.48942
G1 X106.702 Y48.393 E39.51077
G1 X107.087 Y48.551 E39.53153
G1 X107.461 Y48.6 E39.55035
G1 X116.25 Y48.6 E39.98883
G1 X116.25 Y165.4 E45.81601
G1 X112.6 Y165.4 E45.99811
G1 X112.6 Y55.4 E51.48603
G0 F4500 X112.2 Y55.8
;TYPE:WALL-OUTER
G1 F1200 X109.8 Y55.8 E51.60577
G1 X109.8 Y165.8 E57.09369
G1 X100.2 Y165.8 E57.57263
G1 X100.2 Y55.8 E63.06056
G1 X97.8 Y55.8 E63.18029
G1 X97.8 Y165.8 E68.66821
G1 X93.35 Y165.8 E68.89023
G1 X93.35 Y48.2 E74.75731
G1 X102.513 Y48.2 E75.21446
G1 X102.808 Y48.162 E75.2293
G1 X103.105 Y48.038 E75.24535
G1 X103.351 Y47.847 E75.26089
G1 X103.541 Y47.601 E75.2764
G1 X103.659 Y47.314 E75.29188
G1 X103.699 Y47.019 E75.30673
G1 X103.7 Y45.987 E75.35822
G1 X103.662 Y45.692 E75.37306
G1 X103.538 Y45.396 E75.38907
G1 X103.348 Y45.149 E75.40462
G1 X103.101 Y44.959 E75.42016
G1 X102.812 Y44.84 E75.43576
G1 X102.49 Y44.8 E75.45194
G1 X101.7 Y44.8 E75.49136
G1 X101.7 Y44.2 E75.52129
G1 X108.3 Y44.2 E75.85057
G1 X108.3 Y44.8 E75.8805
G1 X107.487 Y44.8 E75.92106
G1 X107.192 Y44.838 E75.9359
G1 X106.895 Y44.962 E75.95196
G1 X106.649 Y45.153 E75.9675
G1 X106.459 Y45.399 E75.983
G1 X106.341 Y45.686 E75.99849
G1 X106.301 Y45.981 E76.01334
G1 X106.3 Y47.017 E76.06502
G1 X106.34 Y47.314 E76.07998
G1 X106.459 Y47.601 E76.09548
G1 X106.648 Y47.847 E76.11095
G1 X106.903 Y48.043 E76.127
G1 X107.191 Y48.161 E76.14253
G1 X107.487 Y48.2 E76.15742
G1 X116.65 Y48.2 E76.61457
G1 X116.65 Y165.8 E82.48165
G1 X112.2 Y165.8 E82.70366
G1 X112.2 Y55.8 E88.19159
G0 F4500 X112 Y55.8
G0 X112 Y55.3
G0 X112.99 Y55.01
;TYPE:SKIN
G1 F1200 X109.01 Y55.01 E88.39015
G1 X109.01 Y165.01 E93.87807
G1 X100.99 Y165.01 E94.27819
G1 X100.99 Y55.01 E99.76611
G1 X97.01 Y55.01 E99.96468
G1 X97.01 Y165.01 E105.4526
G1 X94.14 Y165.01 E105.59578
G1 X94.14 Y48.99 E111.38405
G1 X102.564 Y48.99 E111.80432
G1 X103.014 Y48.932 E111.82696
G1 X103.507 Y48.727 E111.85359
G1 X103.915 Y48.409 E111.8794
G1 X104.231 Y48 E111.90519
G1 X104.428 Y47.521 E111.93103
G1 X104.489 Y47.073 E111.95358
G1 X104.49 Y45.937 E112.01026
G1 X104.432 Y45.485 E112.03299
G1 X104.222 Y44.99 E112.05982
G1 X105.777 Y44.99 E112.1374
G1 X105.572 Y45.479 E112.16385
G1 X105.511 Y45.927 E112.18641
G1 X105.51 Y47.07 E112.24344
G1 X105.571 Y47.522 E112.26619
G1 X105.769 Y48 E112.292
G1 X106.084 Y48.41 E112.3178
G1 X106.505 Y48.734 E112.3443
G1 X106.986 Y48.931 E112.37023
G1 X107.436 Y48.99 E112.39288
G1 X115.86 Y48.99 E112.81315
G1 X115.86 Y165.01 E118.60141
G1 X112.99 Y165.01 E118.7446
G1 X112.99 Y55.01 E124.23252
G0 F4500 X115.679 Y49.494
G1 F1200 X115.355 Y49.17 E124.25538
G0 F4500 X114.789 Y49.17
G1 F1200 X115.679 Y50.06 E124.31817
G1 X115.749 Y50.13
G0 F4500 X115.679 Y50.626
G1 F1200 X114.223 Y49.17 E124.4209
G1 X114.153 Y49.1
G0 F4500 X113.658 Y49.17
G1 F1200 X115.679 Y51.191 E124.56349
G1 X115.749 Y51.261
G0 F4500 X115.679 Y51.757
G1 F1200 X113.092 Y49.17 E124.74602
G1 X113.022 Y49.1
G0 F4500 X112.526 Y49.17
G1 F1200 X115.679 Y52.323 E124.96848
G1 X115.749 Y52.393
G0 F4500 X115.679 Y52.888
G1 F1200 X111.961 Y49.17 E125.23081
G1 X111.891 Y49.1
G0 F4500 X111.395 Y49.17
G1 F1200 X115.679 Y53.454 E125.53307
G1 X115.749 Y53.524
G0 F4500 X115.679 Y54.02
G1 F1200 X110.829 Y49.17 E125.87526
G1 X110.759 Y49.1
G0 F4500 X110.264 Y49.17
G1 F1200 X115.679 Y54.585 E126.25732
G1 X115.749 Y54.655
G0 F4500 X115.679 Y55.151
G1 F1200 X109.698 Y49.17 E126.67931
G1 X109.628 Y49.1
G0 F4500 X109.132 Y49.17
G1 F1200 X115.679 Y55.717 E127.14124
G1 X115.749 Y55.787
G0 F4500 X115.679 Y56.282
G1 F1200 X108.567 Y49.17 E127.64303
G1 X108.497 Y49.1
G0 F4500 X108.001 Y49.17
G1 F1200 X115.679 Y56.848 E128.18475
G1 X115.749 Y56.918
G0 F4500 X115.679 Y57.414
G1 F1200 X113.168 Y54.903 E128.36192
G1 X113.098 Y54.833
G0 F4500 X113.095 Y54.829
G1 F1200 X107.435 Y49.17 E128.76122
G1 X107.365 Y49.1
G0 F4500 X106.713 Y49.013
G1 F1200 X112.529 Y54.829 E129.17157
G1 X112.599 Y54.899
G0 F4500 X111.963 Y54.829
G1 F1200 X104.614 Y47.48 E129.69009
G1 X104.544 Y47.41
G0 F4500 X104.466 Y47.897
G1 F1200 X111.398 Y54.829 E130.17918
G1 X111.468 Y54.899
G0 F4500 X110.832 Y54.829
G1 F1200 X104.259 Y48.256 E130.64294
G1 X104.189 Y48.186
G0 F4500 X104.004 Y48.567
G1 F1200 X110.266 Y54.829 E131.08475
G1 X110.336 Y54.899
G0 F4500 X109.701 Y54.829
G1 F1200 X103.686 Y48.815 E131.50911
G1 X103.616 Y48.745
G0 F4500 X103.31 Y49.004
G1 F1200 X109.135 Y54.829 E131.92009
G1 X109.205 Y54.899
G0 F4500 X108.83 Y55.089
G1 F1200 X102.872 Y49.131 E132.34046
G1 X102.802 Y49.061
G0 F4500 X102.344 Y49.17
G1 F1200 X108.83 Y55.655 E132.79805
G1 X108.9 Y55.725
G0 F4500 X108.83 Y56.221
G1 F1200 X101.778 Y49.17 E133.29557
G1 X101.708 Y49.1
G0 F4500 X101.213 Y49.17
G1 F1200 X108.83 Y56.787 E133.83299
G1 X108.9 Y56.857
G0 F4500 X108.83 Y57.352
G1 F1200 X100.647 Y49.17 E134.41031
G1 X100.577 Y49.1
G0 F4500 X100.081 Y49.17
G1 F1200 X108.83 Y57.918 E135.02757
G1 X108.9 Y57.988
G0 F4500 X108.83 Y58.484
G1 F1200 X99.516 Y49.17 E135.68472
G1 X99.446 Y49.1
G0 F4500 X98.95 Y49.17
G1 F1200 X108.83 Y59.049 E136.38177
G1 X108.9 Y59.119
G0 F4500 X108.83 Y59.615
G1 F1200 X98.384 Y49.17 E137.11876
G1 X98.314 Y49.1
G0 F4500 X97.819 Y49.17
G1 F1200 X108.83 Y60.181 E137.89564
G1 X108.9 Y60.251
G0 F4500 X108.83 Y60.746
G1 F1200 X97.253 Y49.17 E138.71243
G1 X97.183 Y49.1
G0 F4500 X96.687 Y49.17
G1 F1200 X108.83 Y61.312 E139.56915
G1 X108.9 Y61.382
G0 F4500 X108.83 Y61.878
G1 F1200 X96.121 Y49.17 E140.4658
G1 X96.051 Y49.1
G0 F4500 X95.556 Y49.17
G1 F1200 X108.83 Y62.443 E141.40232
G1 X108.9 Y62.513
G0 F4500 X108.83 Y63.009
G1 F1200 X101.169 Y55.348 E141.94284
G1 X101.099 Y55.278
G0 F4500 X101.169 Y55.914
G1 F1200 X108.83 Y63.575 E142.48337
G1 X108.9 Y63.645
G0 F4500 X108.83 Y64.14
G1 F1200 X101.169 Y56.48 E143.02386
G1 X101.099 Y56.41
G0 F4500 X101.169 Y57.045
G1 F1200 X108.83 Y64.706 E143.56438
G1 X108.9 Y64.776
G0 F4500 X108.83 Y65.272
G1 F1200 X101.169 Y57.611 E144.10491
G1 X101.099 Y57.541
G0 F4500 X101.169 Y58.177
G1 F1200 X108.83 Y65.838 E144.64543
G1 X108.9 Y65.908
G0 F4500 X108.83 Y66.403
G1 F1200 X101.169 Y58.742 E145.18596
G1 X101.099 Y58.672
G0 F4500 X101.169 Y59.308
G1 F1200 X108.83 Y66.969 E145.72648
G1 X108.9 Y67.039
G0 F4500 X108.83 Y67.535
G1 F1200 X101.169 Y59.874 E146.26701
G1 X101.099 Y59.804
G0 F4500 X101.169 Y60.439
G1 F1200 X108.83 Y68.1 E146.80753
G1 X108.9 Y68.17
G0 F4500 X108.83 Y68.666
G1 F1200 X101.169 Y61.005 E147.34806
G1 X101.099 Y60.935
G0 F4500 X101.169 Y61.571
G1 F1200 X108.83 Y69.232 E147.88858
G1 X108.9 Y69.302
G0 F4500 X108.83 Y69.797
G1 F1200 X101.169 Y62.137 E148.42907
G1 X101.099 Y62.067
G0 F4500 X101.169 Y62.702
G1 F1200 X108.83 Y70.363 E148.9696
G1 X108.9 Y70.433
G0 F4500 X108.83 Y70.929
G1 F1200 X101.169 Y63.268 E149.51012
G1 X101.099 Y63.198
G0 F4500 X101.169 Y63.834
G1 F1200 X108.83 Y71.494 E150.05061
G1 X108.9 Y71.564
G0 F4500 X108.83 Y72.06
G1 F1200 X101.169 Y64.399 E150.59114
G1 X101.099 Y64.329
G0 F4500 X101.169 Y64.965
G1 F1200 X108.83 Y72.626 E151.13166
G1 X108.9 Y72.696
G0 F4500 X108.83 Y73.191
G1 F1200 X101.169 Y65.531 E151.67215
G1 X101.099 Y65.461
G0 F4500 X101.169 Y66.096
G1 F1200 X108.83 Y73.757 E152.21267
G1 X108.9 Y73.827
G0 F4500 X108.83 Y74.323
G1 F1200 X101.169 Y66.662 E152.7532
G1 X101.099 Y66.592
G0 F4500 X101.169 Y67.228
G1 F1200 X108.83 Y74.888 E153.29369
G1 X108.9 Y74.958
G0 F4500 X108.83 Y75.454
G1 F1200 X101.169 Y67.793 E153.83421
G1 X101.099 Y67.723
G0 F4500 X101.169 Y68.359
G1 F1200 X108.83 Y76.02 E154.37474
G1 X108.9 Y76.09
G0 F4500 X108.83 Y76.586
G1 F1200 X101.169 Y68.925 E154.91526
G1 X101.099 Y68.855
G0 F4500 X101.169 Y69.49
G1 F1200 X108.83 Y77.151 E155.45579
G1 X108.9 Y77.221
G0 F4500 X108.83 Y77.717
G1 F1200 X101.169 Y70.056 E155.99631
G1 X101.099 Y69.986
G0 F4500 X101.169 Y70.622
G1 F1200 X108.83 Y78.283 E156.53684
G1 X108.9 Y78.353
G0 F4500 X108.83 Y78.848
G1 F1200 X101.169 Y71.187 E157.07736
G1 X101.099 Y71.117
G0 F4500 X101.169 Y71.753
G1 F1200 X108.83 Y79.414 E157.61789
G1 X108.9 Y79.484
G0 F4500 X108.83 Y79.98
G1 F1200 X101.169 Y72.319 E158.15841
G1 X101.099 Y72.249
G0 F4500 X101.169 Y72.885
G1 F1200 X108.83 Y80.545 E158.6989
G1 X108.9 Y80.615
G0 F4500 X108.83 Y81.111
G1 F1200 X101.169 Y73.45 E159.23943
G1 X101.099 Y73.38
G0 F4500 X101.169 Y74.016
G1 F1200 X108.83 Y81.677 E159.77995
G1 X108.9 Y81.747
G0 F4500 X108.83 Y82.242
G1 F1200 X101.169 Y74.582 E160.32044
G1 X101.099 Y74.512
G0 F4500 X101.169 Y75.147
G1 F1200 X108.83 Y82.808 E160.86097
G1 X108.9 Y82.878
G0 F4500 X108.83 Y83.374
G1 F1200 X101.169 Y75.713 E161.40149
G1 X101.099 Y75.643
G0 F4500 X101.169 Y76.279
G1 F1200 X108.83 Y83.939 E161.94198
G1 X108.9 Y84.009
G0 F4500 X108.83 Y84.505
G1 F1200 X101.169 Y76.844 E162.48251
G1 X101.099 Y76.774
G0 F4500 X101.169 Y77.41
G1 F1200 X108.83 Y85.071 E163.02303
G1 X108.9 Y85.141
G0 F4500 X108.83 Y85.636
G1 F1200 X101.169 Y77.976 E163.56352
G1 X101.099 Y77.906
G0 F4500 X101.169 Y78.541
G1 F1200 X108.83 Y86.202 E164.10405
G1 X108.9 Y86.272
G0 F4500 X108.83 Y86.768
G1 F1200 X101.169 Y79.107 E164.64457
G1 X101.099 Y79.037
G0 F4500 X101.169 Y79.673
G1 F1200 X108.83 Y87.334 E165.1851
G1 X108.9 Y87.404
G0 F4500 X108.83 Y87.899
G1 F1200 X101.169 Y80.238 E165.72562
G1 X101.099 Y80.168
G0 F4500 X101.169 Y80.804
G1 F1200 X108.83 Y88.465 E166.26615
G1 X108.9 Y88.535
G0 F4500 X108.83 Y89.031
G1 F1200 X101.169 Y81.37 E166.80667
G1 X101.099 Y81.3
G0 F4500 X101.169 Y81.935
G1 F1200 X108.83 Y89.596 E167.3472
G1 X108.9 Y89.666
G0 F4500 X108.83 Y90.162
G1 F1200 X101.169 Y82.501 E167.88772
G1 X101.099 Y82.431
G0 F4500 X101.169 Y83.067
G1 F1200 X108.83 Y90.728 E168.42825
G1 X108.9 Y90.798
G0 F4500 X108.83 Y91.293
G1 F1200 X101.169 Y83.633 E168.96874
G1 X101.099 Y83.563
G0 F4500 X101.169 Y84.198
G1 F1200 X108.83 Y91.859 E169.50926
G1 X108.9 Y91.929
G0 F4500 X108.83 Y92.425
G1 F1200 X101.169 Y84.764 E170.04979
G1 X101.099 Y84.694
G0 F4500 X101.169 Y85.33
G1 F1200 X108.83 Y92.99 E170.59028
G1 X108.9 Y93.06
G0 F4500 X108.83 Y93.556
G1 F1200 X101.169 Y85.895 E171.1308
G1 X101.099 Y85.825
G0 F4500 X101.169 Y86.461
G1 F1200 X108.83 Y94.122 E171.67133
G1 X108.9 Y94.192
G0 F4500 X108.83 Y94.687
G1 F1200 X101.169 Y87.027 E172.21181
G1 X101.099 Y86.957
G0 F4500 X101.169 Y87.592
G1 F1200 X108.83 Y95.253 E172.75234
G1 X108.9 Y95.323
G0 F4500 X108.83 Y95.819
G1 F1200 X101.169 Y88.158 E173.29286
G1 X101.099 Y88.088
G0 F4500 X101.169 Y88.724
G1 F1200 X108.83 Y96.385 E173.83339
G1 X108.9 Y96.455
G0 F4500 X108.83 Y96.95
G1 F1200 X101.169 Y89.289 E174.37391
G1 X101.099 Y89.219
G0 F4500 X101.169 Y89.855
G1 F1200 X108.83 Y97.516 E174.91444
G1 X108.9 Y97.586
G0 F4500 X108.83 Y98.082
G1 F1200 X101.169 Y90.421 E175.45496
G1 X101.099 Y90.351
G0 F4500 X101.169 Y90.986
G1 F1200 X108.83 Y98.647 E175.99549
G1 X108.9 Y98.717
G0 F4500 X108.83 Y99.213
G1 F1200 X101.169 Y91.552 E176.53601
G1 X101.099 Y91.482
G0 F4500 X101.169 Y92.118
G1 F1200 X108.83 Y99.779 E177.07654
G1 X108.9 Y99.849
G0 F4500 X108.83 Y100.344
G1 F1200 X101.169 Y92.684 E177.61703
G1 X101.099 Y92.614
G0 F4500 X101.169 Y93.249
G1 F1200 X108.83 Y100.91 E178.15755
G1 X108.9 Y100.98
G0 F4500 X108.83 Y101.476
G1 F1200 X101.169 Y93.815 E178.69808
G1 X101.099 Y93.745
G0 F4500 X101.169 Y94.381
G1 F1200 X108.83 Y102.041 E179.23857
G1 X108.9 Y102.111
G0 F4500 X108.83 Y102.607
G1 F1200 X101.169 Y94.946 E179.77909
G1 X101.099 Y94.876
G0 F4500 X101.169 Y95.512
G1 F1200 X108.83 Y103.173 E180.31962
G1 X108.9 Y103.243
G0 F4500 X108.83 Y103.738
G1 F1200 X101.169 Y96.078 E180.86011
G1 X101.099 Y96.008
G0 F4500 X101.169 Y96.643
G1 F1200 X108.83 Y104.304 E181.40063
G1 X108.9 Y104.374
G0 F4500 X108.83 Y104.87
G1 F1200 X101.169 Y97.209 E181.94116
G1 X101.099 Y97.139
G0 F4500 X101.169 Y97.775
G1 F1200 X108.83 Y105.435 E182.48165
G1 X108.9 Y105.505
G0 F4500 X108.83 Y106.001
G1 F1200 X101.169 Y98.34 E183.02217
G1 X101.099 Y98.27
G0 F4500 X101.169 Y98.906
G1 F1200 X108.83 Y106.567 E183.5627
G1 X108.9 Y106.637
G0 F4500 X108.83 Y107.133
G1 F1200 X101.169 Y99.472 E184.10322
G1 X101.099 Y99.402
G0 F4500 X101.169 Y100.037
G1 F1200 X108.83 Y107.698 E184.64375
G1 X108.9 Y107.768
G0 F4500 X108.83 Y108.264
G1 F1200 X101.169 Y100.603 E185.18427
G1 X101.099 Y100.533
G0 F4500 X101.169 Y101.169
G1 F1200 X108.83 Y108.83 E185.7248
G1 X108.9 Y108.9
G0 F4500 X108.83 Y109.395
G1 F1200 X101.169 Y101.734 E186.26532
G1 X101.099 Y101.664
G0 F4500 X101.169 Y102.3
G1 F1200 X108.83 Y109.961 E186.80585
G1 X108.9 Y110.031
G0 F4500 X108.83 Y110.527
G1 F1200 X101.169 Y102.866 E187.34637
G1 X101.099 Y102.796
G0 F4500 X101.169 Y103.432
G1 F1200 X108.83 Y111.092 E187.88686
G1 X108.9 Y111.162
G0 F4500 X108.83 Y111.658
G1 F1200 X101.169 Y103.997 E188.42739
G1 X101.099 Y103.927
G0 F4500 X101.169 Y104.563
G1 F1200 X108.83 Y112.224 E188.96791
G1 X108.9 Y112.294
G0 F4500 X108.83 Y112.789
G1 F1200 X101.169 Y105.129 E189.5084
G1 X101.099 Y105.059
G0 F4500 X101.169 Y105.694
G1 F1200 X108.83 Y113.355 E190.04893
G1 X108.9 Y113.425
G0 F4500 X108.83 Y113.921
G1 F1200 X101.169 Y106.26 E190.58945
G1 X101.099 Y106.19
G0 F4500 X101.169 Y106.826
G1 F1200 X108.83 Y114.486 E191.12994
G1 X108.9 Y114.556
G0 F4500 X108.83 Y115.052
G1 F1200 X101.169 Y107.391 E191.67047
G1 X101.099 Y107.321
G0 F4500 X101.169 Y107.957
G1 F1200 X108.83 Y115.618 E192.21099
