;FLAVOR:Marlin
;TIME:3595
;Filament used: 2.68451m
;Layer height: 0.2
;Generated with Cura_SteamEngine 3.2.1
M190 S50
M104 S210
M109 S210
M82 ;absolute extrusion mode
G28 ;Home
G1 Z15.0 F6000 ;Move the platform down 15mm
;Prime the extruder
G92 E0
G1 F200 E3
G92 E0
;LAYER_COUNT:98
;LAYER:0
M107
G0 F3600 X96.413 Y46.542 Z0.3
;TYPE:SKIRT
G1 F1800 X96.777 Y45.985 E0.03358
G1 X100.025 Y41.99 E0.29341
G1 X100.374 Y41.624 E0.31893
G1 X100.776 Y41.318 E0.34443
G1 X101.222 Y41.079 E0.36996
G1 X101.699 Y40.913 E0.39545
G1 X102.197 Y40.824 E0.42098
G1 X102.509 Y40.809 E0.43675
G1 X107.494 Y40.81 E0.68832
G1 X107.998 Y40.85 E0.71383
G1 X108.489 Y40.969 E0.73933
G1 X108.956 Y41.164 E0.76487
G1 X109.386 Y41.43 E0.79038
G1 X109.768 Y41.76 E0.81586
G1 X109.976 Y41.991 E0.83154
G1 X113.197 Y45.952 E1.08919
G1 X113.484 Y46.368 E1.11469
G1 X113.702 Y46.825 E1.14024
G1 X113.845 Y47.309 E1.16571
G1 X113.914 Y47.97 E1.19925
G1 X113.94 Y165.99 E7.15517
G1 X113.9 Y166.494 E7.18068
G1 X113.781 Y166.986 E7.20622
G1 X113.587 Y167.452 E7.2317
G1 X113.321 Y167.882 E7.25721
G1 X112.991 Y168.265 E7.28273
G1 X112.605 Y168.592 E7.30826
G1 X112.172 Y168.853 E7.33377
G1 X111.703 Y169.043 E7.35931
G1 X111.211 Y169.156 E7.38478
G1 X110.74 Y169.191 E7.40862
G1 X99.259 Y169.191 E7.98801
G1 X98.755 Y169.151 E8.01352
G1 X98.264 Y169.032 E8.03902
G1 X97.797 Y168.838 E8.06454
G1 X97.367 Y168.572 E8.09006
G1 X96.984 Y168.242 E8.11557
G1 X96.658 Y167.855 E8.14111
G1 X96.397 Y167.422 E8.16662
G1 X96.207 Y166.954 E8.19211
G1 X96.094 Y166.461 E8.21763
G1 X96.059 Y165.991 E8.24142
G1 X96.06 Y48.004 E14.19567
G1 X96.1 Y47.5 E14.22118
G1 X96.219 Y47.009 E14.24668
G1 X96.413 Y46.542 E14.2722
G1 F1500 E7.7722
G0 F3600 X103.587 Y45.682
G0 X104.3 Y44.602
G0 X104.436 Y44.65
G0 X104.298 Y44.607
;TYPE:WALL-INNER
G1 F1500 E14.2722
G1 F1800 X104.281 Y44.6 E14.27313
G1 X104.298 Y44.6
G1 X104.637 Y44.6 E14.29021
G1 X105.364 Y44.6 E14.32689
G1 X105.692 Y44.6 E14.34345
G1 X105.723 Y44.6 E14.34501
G1 X105.692 Y44.613
G1 X105.364 Y44.868 E14.35178
G1 X105.11 Y45.197 E14.37276
G1 X105.078 Y45.274 E14.37697
G1 X105 Y45.463 E14.38729
G1 X104.922 Y45.274
G1 X104.89 Y45.197
G1 X104.637 Y44.868 E14.40823
G1 X104.298 Y44.607 E14.40989
G1 F1500 E7.90989
G0 F3600 X104.436 Y44.65
G0 X104.907 Y45.187
G0 X105 Y47.557
G0 X105.02 Y47.846
G0 X105.106 Y47.797
G1 F1500 E14.40989
G1 F1800 X105.179 Y47.893 E14.41598
G1 X105.36 Y48.128 E14.43095
G1 X105.689 Y48.384 E14.45198
G1 X106.076 Y48.547 E14.47318
G1 X106.454 Y48.598 E14.49243
G1 X110.15 Y48.6 E14.67894
G1 X110.15 Y165.4 E20.57329
G1 X99.85 Y165.4 E21.09308
G1 X99.85 Y48.6 E26.98743
G1 X103.545 Y48.599 E27.1739
G1 X103.923 Y48.548 E27.19315
G1 X104.31 Y48.385 E27.21434
G1 X104.639 Y48.129 E27.23538
G1 X104.82 Y47.894 E27.25035
G1 X104.893 Y47.798 E27.25643
G1 X104.923 Y47.724 E27.26046
G1 X105 Y47.537 E27.27067
G1 X105.076 Y47.723
G1 X105.106 Y47.797
G1 F1500 E20.77067
G0 F3600 X105.02 Y47.846
G0 X105 Y47.557
G0 X105 Y45.443
G0 X104.998 Y45.208
G0 X105.459 Y45.399
;TYPE:WALL-OUTER
G1 F1500 E27.27067
G1 F1800 X105.341 Y45.686 E27.28633
G1 X105.301 Y45.981 E27.30135
G1 X105.3 Y47.015 E27.35353
G1 X105.339 Y47.309 E27.3685
G1 X105.456 Y47.596 E27.38414
G1 X105.646 Y47.844 E27.39991
G1 X105.893 Y48.036 E27.4157
G1 X106.182 Y48.158 E27.43153
G1 X106.481 Y48.198 E27.44675
G1 X110.55 Y48.2 E27.65209
G1 X110.55 Y165.8 E33.58681
G1 X99.45 Y165.8 E34.14698
G1 X99.45 Y48.2 E40.0817
G1 X103.518 Y48.199 E40.28699
G1 X103.817 Y48.159 E40.30221
G1 X104.106 Y48.037 E40.31804
G1 X104.353 Y47.845 E40.33383
G1 X104.543 Y47.597 E40.3496
G1 X104.661 Y47.308 E40.36535
G1 X104.7 Y46.99 E40.38152
G1 X104.7 Y45.982 E40.43239
G1 X104.66 Y45.686 E40.44746
G1 X104.541 Y45.399 E40.46314
G1 X104.352 Y45.153 E40.4788
G1 X104.097 Y44.957 E40.49503
G1 X103.809 Y44.839 E40.51073
G1 X103.513 Y44.8 E40.5258
G1 X102.7 Y44.8 E40.56683
G1 X102.7 Y44.2 E40.59711
G1 X107.3 Y44.2 E40.82925
G1 X107.3 Y44.8 E40.85953
G1 X106.487 Y44.8 E40.90056
G1 X106.192 Y44.838 E40.91557
G1 X105.895 Y44.962 E40.93181
G1 X105.649 Y45.153 E40.94753
G1 X105.459 Y45.399 E40.96321
G0 F3600 X105.383 Y45.584
G1 F1500 E34.46321
G0 F3600 X105.01 Y45.357
G0 X105 Y45.443
G0 X105 Y47.557
G0 X105 Y48.299
;TYPE:SKIN
G1 F1500 E40.96321
G1 F1800 X105.081 Y48.405 E40.96994
G1 X105.49 Y48.723 E40.99609
G1 X105.973 Y48.927 E41.02255
G1 X106.428 Y48.988 E41.04572
G1 X109.76 Y48.99 E41.21387
G1 X109.76 Y165.01 E47.06885
G1 X100.24 Y165.01 E47.54928
G1 X100.24 Y48.99 E53.40426
G1 X103.571 Y48.989 E53.57236
G1 X104.026 Y48.928 E53.59553
G1 X104.509 Y48.724 E53.62199
G1 X104.918 Y48.406 E53.64814
G1 X105 Y48.299 E53.65494
G0 F3600 X109.58 Y49.617
G1 F1800 X109.132 Y49.17 E53.68688
G0 F3600 X108.567 Y49.17
G1 F1800 X109.58 Y50.183 E53.75917
G1 X109.65 Y50.253
G0 F3600 X109.58 Y50.749
G1 F1800 X108 Y49.169 E53.87194
G1 X107.93 Y49.099
G0 F3600 X107.434 Y49.168
G1 F1800 X109.58 Y51.314 E54.02509
G1 X109.65 Y51.384
G0 F3600 X109.58 Y51.88
G1 F1800 X106.868 Y49.168 E54.21865
G1 X106.798 Y49.098
G0 F3600 X106.285 Y49.15
G1 F1800 X109.58 Y52.446 E54.45384
G1 X109.65 Y52.516
G0 F3600 X109.58 Y53.011
G1 F1800 X105.486 Y48.917 E54.74602
G1 X105.416 Y48.847
G0 F3600 X104.759 Y48.757
G1 F1800 X109.58 Y53.577 E55.09006
G1 X109.65 Y53.647
G0 F3600 X109.58 Y54.143
G1 F1800 X104.402 Y48.965 E55.4596
G1 X104.332 Y48.895
G0 F3600 X103.986 Y49.114
G1 F1800 X109.58 Y54.708 E55.85884
G1 X109.65 Y54.778
G0 F3600 X109.58 Y55.274
G1 F1800 X103.475 Y49.169 E56.29455
G1 X103.405 Y49.099
G0 F3600 X102.909 Y49.169
G1 F1800 X109.58 Y55.84 E56.77065
G1 X109.65 Y55.91
G0 F3600 X109.58 Y56.405
G1 F1800 X102.343 Y49.169 E57.28711
G1 X102.273 Y49.099
G0 F3600 X101.778 Y49.17
G1 F1800 X109.58 Y56.971 E57.84389
G1 X109.65 Y57.041
G0 F3600 X109.58 Y57.537
G1 F1800 X101.213 Y49.17 E58.44103
G1 X101.143 Y49.1
G0 F3600 X100.647 Y49.17
G1 F1800 X109.58 Y58.102 E59.07853
G1 X109.65 Y58.172
G0 F3600 X109.58 Y58.668
G1 F1800 X100.419 Y49.508 E59.73231
G1 X100.349 Y49.438
G0 F3600 X100.419 Y50.073
G1 F1800 X109.58 Y59.234 E60.38612
G1 X109.65 Y59.304
G0 F3600 X109.58 Y59.8
G1 F1800 X100.419 Y50.639 E61.03992
G1 X100.349 Y50.569
G0 F3600 X100.419 Y51.205
G1 F1800 X109.58 Y60.365 E61.6937
G1 X109.65 Y60.435
G0 F3600 X109.58 Y60.931
G1 F1800 X100.419 Y51.77 E62.34751
G1 X100.349 Y51.7
G0 F3600 X100.419 Y52.336
G1 F1800 X109.58 Y61.497 E63.00132
G1 X109.65 Y61.567
G0 F3600 X109.58 Y62.062
G1 F1800 X100.419 Y52.902 E63.65509
G1 X100.349 Y52.832
G0 F3600 X100.419 Y53.467
G1 F1800 X109.58 Y62.628 E64.3089
G1 X109.65 Y62.698
G0 F3600 X109.58 Y63.194
G1 F1800 X100.419 Y54.033 E64.96271
G1 X100.349 Y53.963
G0 F3600 X100.419 Y54.599
G1 F1800 X109.58 Y63.759 E65.61648
G1 X109.65 Y63.829
G0 F3600 X109.58 Y64.325
G1 F1800 X100.419 Y55.164 E66.27029
G1 X100.349 Y55.094
G0 F3600 X100.419 Y55.73
G1 F1800 X109.58 Y64.891 E66.9241
G1 X109.65 Y64.961
G0 F3600 X109.58 Y65.456
G1 F1800 X100.419 Y56.296 E67.57787
G1 X100.349 Y56.226
G0 F3600 X100.419 Y56.861
G1 F1800 X109.58 Y66.022 E68.23168
G1 X109.65 Y66.092
G0 F3600 X109.58 Y66.588
G1 F1800 X100.419 Y57.427 E68.88549
G1 X100.349 Y57.357
G0 F3600 X100.419 Y57.993
G1 F1800 X109.58 Y67.153 E69.53926
G1 X109.65 Y67.223
G0 F3600 X109.58 Y67.719
G1 F1800 X100.419 Y58.559 E70.19303
G1 X100.349 Y58.489
G0 F3600 X100.419 Y59.124
G1 F1800 X109.58 Y68.285 E70.84684
G1 X109.65 Y68.355
G0 F3600 X109.58 Y68.85
G1 F1800 X100.419 Y59.69 E71.50062
G1 X100.349 Y59.62
G0 F3600 X100.419 Y60.256
G1 F1800 X109.58 Y69.416 E72.15439
G1 X109.65 Y69.486
G0 F3600 X109.58 Y69.982
G1 F1800 X100.419 Y60.821 E72.8082
G1 X100.349 Y60.751
G0 F3600 X100.419 Y61.387
G1 F1800 X109.58 Y70.548 E73.46201
G1 X109.65 Y70.618
G0 F3600 X109.58 Y71.113
G1 F1800 X100.419 Y61.953 E74.11578
G1 X100.349 Y61.883
G0 F3600 X100.419 Y62.518
G1 F1800 X109.58 Y71.679 E74.76959
G1 X109.65 Y71.749
G0 F3600 X109.58 Y72.245
G1 F1800 X100.419 Y63.084 E75.4234
G1 X100.349 Y63.014
G0 F3600 X100.419 Y63.65
G1 F1800 X109.58 Y72.81 E76.07717
G1 X109.65 Y72.88
G0 F3600 X109.58 Y73.376
G1 F1800 X100.419 Y64.215 E76.73098
G1 X100.349 Y64.145
G0 F3600 X100.419 Y64.781
G1 F1800 X109.58 Y73.942 E77.38479
G1 X109.65 Y74.012
G0 F3600 X109.58 Y74.507
G1 F1800 X100.419 Y65.347 E78.03856
G1 X100.349 Y65.277
G0 F3600 X100.419 Y65.912
G1 F1800 X109.58 Y75.073 E78.69237
G1 X109.65 Y75.143
G0 F3600 X109.58 Y75.639
G1 F1800 X100.419 Y66.478 E79.34618
G1 X100.349 Y66.408
G0 F3600 X100.419 Y67.044
G1 F1800 X109.58 Y76.204 E79.99995
G1 X109.65 Y76.274
G0 F3600 X109.58 Y76.77
G1 F1800 X100.419 Y67.61 E80.65372
G1 X100.349 Y67.54
G0 F3600 X100.419 Y68.175
G1 F1800 X109.58 Y77.336 E81.30753
G1 X109.65 Y77.406
G0 F3600 X109.58 Y77.901
G1 F1800 X100.419 Y68.741 E81.96131
G1 X100.349 Y68.671
G0 F3600 X100.419 Y69.307
G1 F1800 X109.58 Y78.467 E82.61508
G1 X109.65 Y78.537
G0 F3600 X109.58 Y79.033
G1 F1800 X100.419 Y69.872 E83.26889
G1 X100.349 Y69.802
G0 F3600 X100.419 Y70.438
G1 F1800 X109.58 Y79.599 E83.9227
G1 X109.65 Y79.669
G0 F3600 X109.58 Y80.164
G1 F1800 X100.419 Y71.004 E84.57647
G1 X100.349 Y70.934
G0 F3600 X100.419 Y71.569
G1 F1800 X109.58 Y80.73 E85.23028
G1 X109.65 Y80.8
G0 F3600 X109.58 Y81.296
G1 F1800 X100.419 Y72.135 E85.88409
G1 X100.349 Y72.065
G0 F3600 X100.419 Y72.701
G1 F1800 X109.58 Y81.861 E86.53786
G1 X109.65 Y81.931
G0 F3600 X109.58 Y82.427
G1 F1800 X100.419 Y73.266 E87.19167
G1 X100.349 Y73.196
G0 F3600 X100.419 Y73.832
G1 F1800 X109.58 Y82.993 E87.84548
G1 X109.65 Y83.063
G0 F3600 X109.58 Y83.558
G1 F1800 X100.419 Y74.398 E88.49925
G1 X100.349 Y74.328
G0 F3600 X100.419 Y74.963
G1 F1800 X109.58 Y84.124 E89.15306
G1 X109.65 Y84.194
G0 F3600 X109.58 Y84.69
G1 F1800 X100.419 Y75.529 E89.80687
G1 X100.349 Y75.459
G0 F3600 X100.419 Y76.095
G1 F1800 X109.58 Y85.255 E90.46064
G1 X109.65 Y85.325
G0 F3600 X109.58 Y85.821
G1 F1800 X100.419 Y76.66 E91.11445
G1 X100.349 Y76.59
G0 F3600 X100.419 Y77.226
G1 F1800 X109.58 Y86.387 E91.76826
G1 X109.65 Y86.457
G0 F3600 X109.58 Y86.952
G1 F1800 X100.419 Y77.792 E92.42203
G1 X100.349 Y77.722
G0 F3600 X100.419 Y78.358
G1 F1800 X109.58 Y87.518 E93.07581
G1 X109.65 Y87.588
G0 F3600 X109.58 Y88.084
G1 F1800 X100.419 Y78.923 E93.72961
G1 X100.349 Y78.853
G0 F3600 X100.419 Y79.489
G1 F1800 X109.58 Y88.649 E94.38339
G1 X109.65 Y88.719
G0 F3600 X109.58 Y89.215
G1 F1800 X100.419 Y80.055 E95.03716
G1 X100.349 Y79.985
G0 F3600 X100.419 Y80.62
G1 F1800 X109.58 Y89.781 E95.69097
G1 X109.65 Y89.851
G0 F3600 X109.58 Y90.347
G1 F1800 X100.419 Y81.186 E96.34478
G1 X100.349 Y81.116
G0 F3600 X100.419 Y81.752
G1 F1800 X109.58 Y90.912 E96.99855
G1 X109.65 Y90.982
G0 F3600 X109.58 Y91.478
G1 F1800 X100.419 Y82.317 E97.65236
G1 X100.349 Y82.247
G0 F3600 X100.419 Y82.883
G1 F1800 X109.58 Y92.044 E98.30617
G1 X109.65 Y92.114
G0 F3600 X109.58 Y92.609
G1 F1800 X100.419 Y83.449 E98.95994
G1 X100.349 Y83.379
G0 F3600 X100.419 Y84.014
G1 F1800 X109.58 Y93.175 E99.61375
G1 X109.65 Y93.245
G0 F3600 X109.58 Y93.741
G1 F1800 X100.419 Y84.58 E100.26756
G1 X100.349 Y84.51
G0 F3600 X100.419 Y85.146
G1 F1800 X109.58 Y94.306 E100.92133
G1 X109.65 Y94.376
G0 F3600 X109.58 Y94.872
G1 F1800 X100.419 Y85.711 E101.57514
G1 X100.349 Y85.641
G0 F3600 X100.419 Y86.277
G1 F1800 X109.58 Y95.438 E102.22895
G1 X109.65 Y95.508
G0 F3600 X109.58 Y96.003
G1 F1800 X100.419 Y86.843 E102.88272
G1 X100.349 Y86.773
G0 F3600 X100.419 Y87.409
G1 F1800 X109.58 Y96.569 E103.5365
G1 X109.65 Y96.639
G0 F3600 X109.58 Y97.135
G1 F1800 X100.419 Y87.974 E104.1903
G1 X100.349 Y87.904
G0 F3600 X100.419 Y88.54
G1 F1800 X109.58 Y97.7 E104.84408
G1 X109.65 Y97.77
G0 F3600 X109.58 Y98.266
G1 F1800 X100.419 Y89.106 E105.49785
G1 X100.349 Y89.036
G0 F3600 X100.419 Y89.671
G1 F1800 X109.58 Y98.832 E106.15166
G1 X109.65 Y98.902
G0 F3600 X109.58 Y99.398
G1 F1800 X100.419 Y90.237 E106.80547
G1 X100.349 Y90.167
G0 F3600 X100.419 Y90.803
G1 F1800 X109.58 Y99.963 E107.45924
G1 X109.65 Y100.033
G0 F3600 X109.58 Y100.529
G1 F1800 X100.419 Y91.368 E108.11305
G1 X100.349 Y91.298
G0 F3600 X100.419 Y91.934
G1 F1800 X109.58 Y101.095 E108.76686
G1 X109.65 Y101.165
G0 F3600 X109.58 Y101.66
G1 F1800 X100.419 Y92.5 E109.42063
G1 X100.349 Y92.43
G0 F3600 X100.419 Y93.065
G1 F1800 X109.58 Y102.226 E110.07444
G1 X109.65 Y102.296
G0 F3600 X109.58 Y102.792
G1 F1800 X100.419 Y93.631 E110.72825
G1 X100.349 Y93.561
G0 F3600 X100.419 Y94.197
G1 F1800 X109.58 Y103.357 E111.38202
G1 X109.65 Y103.427
G0 F3600 X109.58 Y103.923
G1 F1800 X100.419 Y94.762 E112.03583
G1 X100.349 Y94.692
G0 F3600 X100.419 Y95.328
G1 F1800 X109.58 Y104.489 E112.68964
G1 X109.65 Y104.559
G0 F3600 X109.58 Y105.054
G1 F1800 X100.419 Y95.894 E113.34341
G1 X100.349 Y95.824
G0 F3600 X100.419 Y96.459
G1 F1800 X109.58 Y105.62 E113.99722
G1 X109.65 Y105.69
G0 F3600 X109.58 Y106.186
G1 F1800 X100.419 Y97.025 E114.65103
G1 X100.349 Y96.955
G0 F3600 X100.419 Y97.591
G1 F1800 X109.58 Y106.751 E115.3048
G1 X109.65 Y106.821
G0 F3600 X109.58 Y107.317
G1 F1800 X100.419 Y98.157 E115.95858
G1 X100.349 Y98.087
G0 F3600 X100.419 Y98.722
G1 F1800 X109.58 Y107.883 E116.61239
G1 X109.65 Y107.953
G0 F3600 X109.58 Y108.448
G1 F1800 X100.419 Y99.288 E117.26616
G1 X100.349 Y99.218
G0 F3600 X100.419 Y99.854
G1 F1800 X109.58 Y109.014 E117.91993
G1 X109.65 Y109.084
G0 F3600 X109.58 Y109.58
G1 F1800 X100.419 Y100.419 E118.57374
G1 X100.349 Y100.349
G0 F3600 X100.419 Y100.985
G1 F1800 X109.58 Y110.146 E119.22755
G1 X109.65 Y110.216
G0 F3600 X109.58 Y110.711
G1 F1800 X100.419 Y101.551 E119.88132
G1 X100.349 Y101.481
G0 F3600 X100.419 Y102.116
G1 F1800 X109.58 Y111.277 E120.53513
G1 X109.65 Y111.347
G0 F3600 X109.58 Y111.843
G1 F1800 X100.419 Y102.682 E121.18894
G1 X100.349 Y102.612
G0 F3600 X100.419 Y103.248
G1 F1800 X109.58 Y112.408 E121.84271
G1 X109.65 Y112.478
G0 F3600 X109.58 Y112.974
G1 F1800 X100.419 Y103.813 E122.49652
G1 X100.349 Y103.743
G0 F3600 X100.419 Y104.379
G1 F1800 X109.58 Y113.54 E123.15033
G1 X109.65 Y113.61
G0 F3600 X109.58 Y114.105
G1 F1800 X100.419 Y104.945 E123.8041
G1 X100.349 Y104.875
G0 F3600 X100.419 Y105.51
G1 F1800 X109.58 Y114.671 E124.45791
G1 X109.65 Y114.741
G0 F3600 X109.58 Y115.237
G1 F1800 X100.419 Y106.076 E125.11172
G1 X100.349 Y106.006
G0 F3600 X100.419 Y106.642
G1 F1800 X109.58 Y115.802 E125.7655
G1 X109.65 Y115.872
G0 F3600 X109.58 Y116.368
G1 F1800 X100.419 Y107.207 E126.4193
G1 X100.349 Y107.137
G0 F3600 X100.419 Y107.773
G1 F1800 X109.58 Y116.934 E127.07311
G1 X109.65 Y117.004
G0 F3600 X109.58 Y117.499
G1 F1800 X100.419 Y108.339 E127.72689
G1 X100.349 Y108.269
G0 F3600 X100.419 Y108.905
G1 F1800 X109.58 Y118.065 E128.38066
G1 X109.65 Y118.135
G0 F3600 X109.58 Y118.631
G1 F1800 X100.419 Y109.47 E129.03447
G1 X100.349 Y109.4
G0 F3600 X100.419 Y110.036
G1 F1800 X109.58 Y119.196 E129.68824
G1 X109.65 Y119.266
G0 F3600 X109.58 Y119.762
G1 F1800 X100.419 Y110.602 E130.34201
G1 X100.349 Y110.532
G0 F3600 X100.419 Y111.167
G1 F1800 X109.58 Y120.328 E130.99582
G1 X109.65 Y120.398
G0 F3600 X109.58 Y120.894
G1 F1800 X100.419 Y111.733 E131.64963
G1 X100.349 Y111.663
G0 F3600 X100.419 Y112.299
G1 F1800 X109.58 Y121.459 E132.3034
G1 X109.65 Y121.529
G0 F3600 X109.58 Y122.025
G1 F1800 X100.419 Y112.864 E132.95721
G1 X100.349 Y112.794
G0 F3600 X100.419 Y113.43
G1 F1800 X109.58 Y122.591 E133.61102
G1 X109.65 Y122.661
G0 F3600 X109.58 Y123.156
G1 F1800 X100.419 Y113.996 E134.2648
G1 X100.349 Y113.926
G0 F3600 X100.419 Y114.561
G1 F1800 X109.58 Y123.722 E134.9186
G1 X109.65 Y123.792
G0 F3600 X109.58 Y124.288
G1 F1800 X100.419 Y115.127 E135.57241
G1 X100.349 Y115.057
G0 F3600 X100.419 Y115.693
G1 F1800 X109.58 Y124.853 E136.22619
G1 X109.65 Y124.923
G0 F3600 X109.58 Y125.419
G1 F1800 X100.419 Y116.258 E136.87999
G1 X100.349 Y116.188
G0 F3600 X100.419 Y116.824
G1 F1800 X109.58 Y125.985 E137.5338
G1 X109.65 Y126.055
G0 F3600 X109.58 Y126.55
G1 F1800 X100.419 Y117.39 E138.18758
G1 X100.349 Y117.32
G0 F3600 X100.419 Y117.956
G1 F1800 X109.58 Y127.116 E138.84135
G1 X109.65 Y127.186
G0 F3600 X109.58 Y127.682
G1 F1800 X100.419 Y118.521 E139.49516
G1 X100.349 Y118.451
G0 F3600 X100.419 Y119.087
G1 F1800 X109.58 Y128.247 E140.14893
G1 X109.65 Y128.317
G0 F3600 X109.58 Y128.813
