;FLAVOR:Marlin
;TIME:7463
;Filament used: 6.48376m
;Layer height: 0.2
;Generated with Cura_SteamEngine 3.2.1
M190 S50
M104 S210
M109 S210
M82 ;absolute extrusion mode
G28 ;Home
G1 Z15.0 F6000 ;Move the platform down 15mm
;Prime the extruder
G92 E0
G1 F200 E3
G92 E0
;LAYER_COUNT:98
;LAYER:0
M107
G0 F3600 X78.363 Y46.546 Z0.3
;TYPE:SKIRT
G1 F1800 X78.629 Y46.116 E0.02552
G1 X78.959 Y45.733 E0.05103
G1 X79.346 Y45.407 E0.07657
G1 X79.779 Y45.146 E0.10208
G1 X80.247 Y44.956 E0.12757
G1 X80.673 Y44.853 E0.14969
G1 X86.548 Y43.852 E0.45044
G1 X91.865 Y42.624 E0.72583
G1 X97.595 Y40.942 E1.0272
G1 X98.09 Y40.838 E1.05272
G1 X98.496 Y40.812 E1.07325
G1 X111.503 Y40.812 E1.72966
G1 X112.007 Y40.852 E1.75517
G1 X112.461 Y40.959 E1.77871
G1 X114.252 Y41.521 E1.87344
G1 X119.553 Y42.978 E2.15088
G1 X124.934 Y44.137 E2.42866
G1 X129.287 Y44.848 E2.65124
G1 X129.778 Y44.969 E2.67676
G1 X130.244 Y45.165 E2.70228
G1 X130.673 Y45.432 E2.72778
G1 X131.054 Y45.764 E2.75328
G1 X131.379 Y46.152 E2.77882
G1 X131.638 Y46.586 E2.80433
G1 X131.826 Y47.055 E2.82983
G1 X131.938 Y47.548 E2.85534
G1 X131.971 Y48.005 E2.87846
G1 X131.991 Y165.99 E8.83261
G1 X131.951 Y166.494 E8.85813
G1 X131.832 Y166.986 E8.88367
G1 X131.638 Y167.452 E8.90914
G1 X131.372 Y167.883 E8.9347
G1 X131.042 Y168.265 E8.96018
G1 X130.656 Y168.592 E8.98571
G1 X130.223 Y168.853 E9.01122
G1 X129.754 Y169.043 E9.03676
G1 X129.262 Y169.156 E9.06223
G1 X128.791 Y169.191 E9.08607
G1 X81.209 Y169.191 E11.48731
G1 X80.705 Y169.151 E11.51282
G1 X80.214 Y169.032 E11.53832
G1 X79.747 Y168.838 E11.56384
G1 X79.317 Y168.572 E11.58936
G1 X78.934 Y168.242 E11.61487
G1 X78.608 Y167.855 E11.6404
G1 X78.347 Y167.422 E11.66592
G1 X78.157 Y166.954 E11.69141
G1 X78.044 Y166.461 E11.71693
G1 X78.009 Y165.991 E11.74072
G1 X78.01 Y48.008 E17.69476
G1 X78.05 Y47.504 E17.72028
G1 X78.169 Y47.013 E17.74578
G1 X78.363 Y46.546 E17.7713
G1 F1500 E11.2713
G0 F3600 X80.535 Y48.614
G0 X81.814 Y48.614
G0 X124.67 Y65.33
G0 X124.6 Y65.4
;TYPE:WALL-INNER
G1 F1500 E17.7713
G1 F1800 X121.4 Y65.4 E17.93278
G1 X121.4 Y165.4 E22.97931
G1 X112.6 Y165.4 E23.42341
G1 X112.6 Y65.4 E28.46994
G1 X109.4 Y65.4 E28.63143
G1 X109.4 Y165.4 E33.67796
G1 X100.6 Y165.4 E34.12205
G1 X100.6 Y65.4 E39.16858
G1 X97.4 Y65.4 E39.33007
G1 X97.4 Y165.4 E44.3766
G1 X88.6 Y165.4 E44.8207
G1 X88.6 Y65.4 E49.86723
G1 X85.4 Y65.4 E50.02872
G1 X85.4 Y165.4 E55.07525
G1 X81.8 Y165.4 E55.25692
G1 X81.8 Y48.6 E61.15127
G1 X101.049 Y48.599 E62.12267
G1 X101.555 Y48.53 E62.14845
G1 X102.062 Y48.316 E62.17622
G1 X102.494 Y47.981 E62.20381
G1 X102.826 Y47.546 E62.23142
G1 X103.035 Y47.041 E62.259
G1 X103.1 Y46.539 E62.28455
G1 X103.1 Y45.961 E62.31372
G1 X103.052 Y45.587 E62.33275
G1 X102.887 Y45.193 E62.3543
G1 X102.717 Y44.973 E62.36833
G1 X102.633 Y44.864 E62.37528
G1 X102.303 Y44.61 E62.39629
G1 X102.279 Y44.6 E62.39761
G1 X102.303 Y44.6
G1 X102.633 Y44.6
G1 X102.771 Y44.6 E62.40351
G1 X107.23 Y44.6 E62.62853
G1 X107.364 Y44.6 E62.6353
G1 X107.692 Y44.6 E62.65185
G1 X107.723 Y44.6 E62.65341
G1 X107.692 Y44.613
G1 X107.364 Y44.868 E62.66019
G1 X107.282 Y44.974 E62.66595
G1 X107.11 Y45.197 E62.68016
G1 X106.951 Y45.582 E62.70118
G1 X106.9 Y45.972 E62.72103
G1 X106.901 Y46.546 E62.75
G1 X106.967 Y47.048 E62.77555
G1 X107.178 Y47.554 E62.80322
G1 X107.511 Y47.989 E62.83086
G1 X107.948 Y48.324 E62.85865
G1 X108.456 Y48.534 E62.88639
G1 X108.961 Y48.6 E62.91209
G1 X128.2 Y48.6 E63.883
G1 X128.2 Y165.4 E69.77734
G1 X124.6 Y165.4 E69.95902
G1 X124.6 Y65.4 E75.00555
G0 F3600 X124.2 Y65.8
;TYPE:WALL-OUTER
G1 F1800 X121.8 Y65.8 E75.12667
G1 X121.8 Y165.8 E80.1732
G1 X112.2 Y165.8 E80.65766
G1 X112.2 Y65.8 E85.70419
G1 X109.8 Y65.8 E85.82531
G1 X109.8 Y165.8 E90.87184
G1 X100.2 Y165.8 E91.35631
G1 X100.2 Y65.8 E96.40284
G1 X97.8 Y65.8 E96.52395
G1 X97.8 Y165.8 E101.57048
G1 X88.2 Y165.8 E102.05495
G1 X88.2 Y65.8 E107.10148
G1 X85.8 Y65.8 E107.2226
G1 X85.8 Y165.8 E112.26913
G1 X81.4 Y165.8 E112.49117
G1 X81.4 Y48.2 E118.42589
G1 X101.022 Y48.199 E119.41612
G1 X101.448 Y48.141 E119.43782
G1 X101.858 Y47.968 E119.46028
G1 X102.208 Y47.697 E119.48262
G1 X102.476 Y47.345 E119.50494
G1 X102.645 Y46.937 E119.52723
G1 X102.7 Y46.513 E119.54881
G1 X102.7 Y45.987 E119.57535
G1 X102.662 Y45.692 E119.59036
G1 X102.538 Y45.396 E119.60656
G1 X102.348 Y45.149 E119.62228
G1 X102.101 Y44.959 E119.63801
G1 X101.813 Y44.84 E119.65373
G1 X101.517 Y44.801 E119.6688
G1 X98.7 Y44.8 E119.81096
G1 X98.7 Y44.2 E119.84124
G1 X111.3 Y44.2 E120.4771
G1 X111.3 Y44.8 E120.50738
G1 X108.487 Y44.8 E120.64934
G1 X108.192 Y44.838 E120.66435
G1 X107.895 Y44.962 E120.68059
G1 X107.649 Y45.153 E120.69631
G1 X107.459 Y45.399 E120.712
G1 X107.341 Y45.686 E120.72766
G1 X107.3 Y45.998 E120.74354
G1 X107.301 Y46.519 E120.76983
G1 X107.357 Y46.943 E120.79141
G1 X107.527 Y47.352 E120.81377
G1 X107.796 Y47.704 E120.83612
G1 X108.149 Y47.974 E120.85855
G1 X108.56 Y48.144 E120.881
G1 X108.987 Y48.2 E120.90273
G1 X128.6 Y48.2 E121.8925
G1 X128.6 Y165.8 E127.82722
G1 X124.2 Y165.8 E128.04927
G1 X124.2 Y65.8 E133.0958
G0 F3600 X124 Y65.8
G0 X124 Y65.3
G0 X124.99 Y65.01
;TYPE:SKIN
G1 F1800 X121.01 Y65.01 E133.29665
G1 X121.01 Y165.01 E138.34318
G1 X112.99 Y165.01 E138.74792
G1 X112.99 Y65.01 E143.79445
G1 X109.01 Y65.01 E143.9953
G1 X109.01 Y165.01 E149.04183
G1 X100.99 Y165.01 E149.44656
G1 X100.99 Y65.01 E154.49309
G1 X97.01 Y65.01 E154.69394
G1 X97.01 Y165.01 E159.74047
G1 X88.99 Y165.01 E160.1452
G1 X88.99 Y65.01 E165.19173
G1 X85.01 Y65.01 E165.39259
G1 X85.01 Y165.01 E170.43912
G1 X82.19 Y165.01 E170.58143
G1 X82.19 Y48.99 E176.43641
G1 X101.076 Y48.989 E177.3895
G1 X101.659 Y48.91 E177.41919
G1 X102.261 Y48.655 E177.45218
G1 X102.773 Y48.258 E177.48488
G1 X103.167 Y47.743 E177.5176
G1 X103.415 Y47.142 E177.55041
G1 X103.49 Y46.564 E177.57983
G1 X103.49 Y45.936 E177.61152
G1 X103.432 Y45.485 E177.63446
G1 X103.222 Y44.99 E177.6616
G1 X106.777 Y44.99 E177.841
G1 X106.571 Y45.481 E177.86788
G1 X106.51 Y45.947 E177.89159
G1 X106.511 Y46.572 E177.92313
G1 X106.587 Y47.15 E177.95255
G1 X106.837 Y47.751 E177.9854
G1 X107.232 Y48.267 E178.0182
G1 X107.751 Y48.665 E178.0512
G1 X108.355 Y48.914 E178.08417
G1 X108.936 Y48.99 E178.11374
G1 X127.81 Y48.99 E179.06622
G1 X127.81 Y165.01 E184.92121
G1 X124.99 Y165.01 E185.06352
G1 X124.99 Y65.01 E190.11005
G0 F3600 X127.629 Y49.565
G1 F1800 X127.234 Y49.17 E190.13824
G0 F3600 X126.668 Y49.17
G1 F1800 X127.629 Y50.131 E190.20683
G1 X127.699 Y50.201
G0 F3600 X127.629 Y50.696
G1 F1800 X126.103 Y49.17 E190.31574
G1 X126.033 Y49.1
G0 F3600 X125.537 Y49.17
G1 F1800 X127.629 Y51.262 E190.46504
G1 X127.699 Y51.332
G0 F3600 X127.629 Y51.828
G1 F1800 X124.971 Y49.17 E190.65474
G1 X124.901 Y49.1
G0 F3600 X124.406 Y49.17
G1 F1800 X127.629 Y52.393 E190.88476
G1 X127.699 Y52.463
G0 F3600 X127.629 Y52.959
G1 F1800 X123.84 Y49.17 E191.15517
G1 X123.77 Y49.1
G0 F3600 X123.274 Y49.17
G1 F1800 X127.629 Y53.525 E191.46599
G1 X127.699 Y53.595
G0 F3600 X127.629 Y54.09
G1 F1800 X122.709 Y49.17 E191.81712
G1 X122.639 Y49.1
G0 F3600 X122.143 Y49.17
G1 F1800 X127.629 Y54.656 E192.20865
G1 X127.699 Y54.726
G0 F3600 X127.629 Y55.222
G1 F1800 X121.577 Y49.17 E192.64057
G1 X121.507 Y49.1
G0 F3600 X121.012 Y49.17
G1 F1800 X127.629 Y55.787 E193.11282
G1 X127.699 Y55.857
G0 F3600 X127.629 Y56.353
G1 F1800 X120.446 Y49.17 E193.62546
G1 X120.376 Y49.1
G0 F3600 X119.88 Y49.17
G1 F1800 X127.629 Y56.919 E194.1785
G1 X127.699 Y56.989
G0 F3600 X127.629 Y57.484
G1 F1800 X119.315 Y49.17 E194.77186
G1 X119.245 Y49.1
G0 F3600 X118.749 Y49.17
G1 F1800 X127.629 Y58.05 E195.40561
G1 X127.699 Y58.12
G0 F3600 X127.629 Y58.616
G1 F1800 X118.183 Y49.17 E196.07976
G1 X118.113 Y49.1
G0 F3600 X117.618 Y49.17
G1 F1800 X127.629 Y59.182 E196.79427
G1 X127.699 Y59.252
G0 F3600 X127.629 Y59.747
G1 F1800 X117.052 Y49.17 E197.54913
G1 X116.982 Y49.1
G0 F3600 X116.486 Y49.17
G1 F1800 X127.629 Y60.313 E198.34439
G1 X127.699 Y60.383
G0 F3600 X127.629 Y60.879
G1 F1800 X115.92 Y49.17 E199.18005
G1 X115.85 Y49.1
G0 F3600 X115.355 Y49.17
G1 F1800 X127.629 Y61.444 E200.05603
G1 X127.699 Y61.514
G0 F3600 X127.629 Y62.01
G1 F1800 X114.789 Y49.17 E200.9724
G1 X114.719 Y49.1
G0 F3600 X114.223 Y49.17
G1 F1800 X127.629 Y62.576 E201.92917
G1 X127.699 Y62.646
G0 F3600 X127.629 Y63.141
G1 F1800 X113.658 Y49.17 E202.92627
G1 X113.588 Y49.1
G0 F3600 X113.092 Y49.17
G1 F1800 X127.629 Y63.707 E203.96375
G1 X127.699 Y63.777
G0 F3600 X127.629 Y64.273
G1 F1800 X112.526 Y49.17 E205.04163
G1 X112.456 Y49.1
G0 F3600 X111.961 Y49.17
G1 F1800 X127.629 Y64.838 E206.15984
G1 X127.699 Y64.908
G0 F3600 X127.629 Y65.404
G1 F1800 X111.395 Y49.17 E207.31844
G1 X111.325 Y49.1
G0 F3600 X110.829 Y49.17
G1 F1800 X127.629 Y65.97 E208.51743
G1 X127.699 Y66.04
G0 F3600 X127.629 Y66.535
G1 F1800 X110.264 Y49.17 E209.75675
G1 X110.194 Y49.1
G0 F3600 X109.698 Y49.17
G1 F1800 X127.629 Y67.101 E211.03646
G1 X127.699 Y67.171
G0 F3600 X127.629 Y67.667
G1 F1800 X125.169 Y65.206 E211.21207
G1 X125.099 Y65.136
G0 F3600 X124.793 Y64.83
G1 F1800 X109.132 Y49.17 E212.32974
G1 X109.062 Y49.1
G0 F3600 X108.514 Y49.117
G1 F1800 X124.227 Y64.83 E213.45115
G1 X124.297 Y64.9
G0 F3600 X123.661 Y64.83
G1 F1800 X107.635 Y48.804 E214.59491
G1 X107.565 Y48.734
G0 F3600 X106.696 Y47.864
G1 F1800 X104.001 Y45.169 E214.78725
G1 X103.931 Y45.099
G0 F3600 X103.535 Y45.27
G1 F1800 X123.095 Y64.83 E216.18322
G1 X123.165 Y64.9
G0 F3600 X122.53 Y64.83
G1 F1800 X103.668 Y45.969 E217.52934
G1 X103.598 Y45.899
G0 F3600 X103.668 Y46.534
G1 F1800 X121.964 Y64.83 E218.8351
G1 X122.034 Y64.9
G0 F3600 X121.398 Y64.83
G1 F1800 X103.608 Y47.04 E220.10475
G1 X103.538 Y46.97
G0 F3600 X103.473 Y47.47
G1 F1800 X120.833 Y64.83 E221.34371
G1 X120.903 Y64.9
G0 F3600 X120.829 Y65.392
G1 F1800 X103.3 Y47.863 E222.59473
G1 X103.23 Y47.793
G0 F3600 X103.055 Y48.183
G1 F1800 X120.829 Y65.958 E223.86328
G1 X120.899 Y66.028
G0 F3600 X120.829 Y66.523
G1 F1800 X102.783 Y48.477 E225.1512
G1 X102.713 Y48.407
G0 F3600 X102.464 Y48.724
G1 F1800 X120.829 Y67.089 E226.46188
G1 X120.899 Y67.159
G0 F3600 X120.829 Y67.655
G1 F1800 X102.095 Y48.921 E227.7989
G1 X102.025 Y48.851
G0 F3600 X101.696 Y49.087
G1 F1800 X120.829 Y68.22 E229.1644
G1 X120.899 Y68.29
G0 F3600 X120.829 Y68.786
G1 F1800 X101.197 Y49.154 E230.56551
G1 X101.127 Y49.084
G0 F3600 X100.647 Y49.17
G1 F1800 X120.829 Y69.352 E232.00588
G1 X120.899 Y69.422
G0 F3600 X120.829 Y69.918
G1 F1800 X100.081 Y49.17 E233.48663
G1 X100.011 Y49.1
G0 F3600 X99.516 Y49.17
G1 F1800 X120.829 Y70.483 E235.00772
G1 X120.899 Y70.553
G0 F3600 X120.829 Y71.049
G1 F1800 X98.95 Y49.17 E236.56919
G1 X98.88 Y49.1
G0 F3600 X98.384 Y49.17
G1 F1800 X120.829 Y71.615 E238.17106
G1 X120.899 Y71.685
G0 F3600 X120.829 Y72.18
G1 F1800 X97.819 Y49.17 E239.81326
G1 X97.749 Y49.1
G0 F3600 X97.253 Y49.17
G1 F1800 X112.913 Y64.83 E240.93089
G1 X112.983 Y64.9
G0 F3600 X113.169 Y65.086
G1 F1800 X120.829 Y72.746 E241.47758
G1 X120.899 Y72.816
G0 F3600 X120.829 Y73.312
G1 F1800 X113.169 Y65.652 E242.02426
G1 X113.099 Y65.582
G0 F3600 X113.169 Y66.217
G1 F1800 X120.829 Y73.877 E242.57094
G1 X120.899 Y73.947
G0 F3600 X120.829 Y74.443
G1 F1800 X113.169 Y66.783 E243.11763
G1 X113.099 Y66.713
G0 F3600 X113.169 Y67.349
G1 F1800 X120.829 Y75.009 E243.66431
G1 X120.899 Y75.079
G0 F3600 X120.829 Y75.574
G1 F1800 X113.169 Y67.914 E244.211
G1 X113.099 Y67.844
G0 F3600 X113.169 Y68.48
G1 F1800 X120.829 Y76.14 E244.75768
G1 X120.899 Y76.21
G0 F3600 X120.829 Y76.706
G1 F1800 X113.169 Y69.046 E245.30437
G1 X113.099 Y68.976
G0 F3600 X113.169 Y69.611
G1 F1800 X120.829 Y77.271 E245.85105
G1 X120.899 Y77.341
G0 F3600 X120.829 Y77.837
G1 F1800 X113.169 Y70.177 E246.39773
G1 X113.099 Y70.107
G0 F3600 X113.169 Y70.743
G1 F1800 X120.829 Y78.403 E246.94442
G1 X120.899 Y78.473
G0 F3600 X120.829 Y78.968
G1 F1800 X113.169 Y71.308 E247.4911
G1 X113.099 Y71.238
G0 F3600 X113.169 Y71.874
G1 F1800 X120.829 Y79.534 E248.03779
G1 X120.899 Y79.604
G0 F3600 X120.829 Y80.1
G1 F1800 X113.169 Y72.44 E248.58447
G1 X113.099 Y72.37
G0 F3600 X113.169 Y73.005
G1 F1800 X120.829 Y80.666 E249.13119
G1 X120.899 Y80.736
G0 F3600 X120.829 Y81.231
G1 F1800 X113.169 Y73.571 E249.67788
G1 X113.099 Y73.501
G0 F3600 X113.169 Y74.137
G1 F1800 X120.829 Y81.797 E250.22456
G1 X120.899 Y81.867
G0 F3600 X120.829 Y82.363
G1 F1800 X113.169 Y74.703 E250.77124
G1 X113.099 Y74.633
G0 F3600 X113.169 Y75.268
G1 F1800 X120.829 Y82.928 E251.31793
G1 X120.899 Y82.998
G0 F3600 X120.829 Y83.494
G1 F1800 X113.169 Y75.834 E251.86461
G1 X113.099 Y75.764
G0 F3600 X113.169 Y76.4
G1 F1800 X120.829 Y84.06 E252.4113
G1 X120.899 Y84.13
G0 F3600 X120.829 Y84.625
G1 F1800 X113.169 Y76.965 E252.95798
G1 X113.099 Y76.895
G0 F3600 X113.169 Y77.531
G1 F1800 X120.829 Y85.191 E253.50467
G1 X120.899 Y85.261
G0 F3600 X120.829 Y85.757
G1 F1800 X113.169 Y78.097 E254.05135
G1 X113.099 Y78.027
G0 F3600 X113.169 Y78.662
G1 F1800 X120.829 Y86.322 E254.59804
G1 X120.899 Y86.392
G0 F3600 X120.829 Y86.888
G1 F1800 X113.169 Y79.228 E255.14472
G1 X113.099 Y79.158
G0 F3600 X113.169 Y79.794
G1 F1800 X120.829 Y87.454 E255.6914
G1 X120.899 Y87.524
G0 F3600 X120.829 Y88.019
G1 F1800 X113.169 Y80.359 E256.23809
G1 X113.099 Y80.289
G0 F3600 X113.169 Y80.925
G1 F1800 X120.829 Y88.585 E256.78477
G1 X120.899 Y88.655
G0 F3600 X120.829 Y89.151
G1 F1800 X113.169 Y81.491 E257.33146
G1 X113.099 Y81.421
G0 F3600 X113.169 Y82.056
G1 F1800 X120.829 Y89.717 E257.87818
G1 X120.899 Y89.787
G0 F3600 X120.829 Y90.282
G1 F1800 X113.169 Y82.622 E258.42486
G1 X113.099 Y82.552
G0 F3600 X113.169 Y83.188
G1 F1800 X120.829 Y90.848 E258.97155
G1 X120.899 Y90.918
G0 F3600 X120.829 Y91.414
G1 F1800 X113.169 Y83.753 E259.51827
G1 X113.099 Y83.683
G0 F3600 X113.169 Y84.319
G1 F1800 X120.829 Y91.979 E260.06495
G1 X120.899 Y92.049
G0 F3600 X120.829 Y92.545
G1 F1800 X113.169 Y84.885 E260.61163
G1 X113.099 Y84.815
G0 F3600 X113.169 Y85.451
G1 F1800 X120.829 Y93.111 E261.15832
G1 X120.899 Y93.181
G0 F3600 X120.829 Y93.676
G1 F1800 X113.169 Y86.016 E261.705
G1 X113.099 Y85.946
G0 F3600 X113.169 Y86.582
G1 F1800 X120.829 Y94.242 E262.25169
G1 X120.899 Y94.312
G0 F3600 X120.829 Y94.808
G1 F1800 X113.169 Y87.148 E262.79837
G1 X113.099 Y87.078
G0 F3600 X113.169 Y87.713
G1 F1800 X120.829 Y95.373 E263.34506
G1 X120.899 Y95.443
G0 F3600 X120.829 Y95.939
G1 F1800 X113.169 Y88.279 E263.89174
G1 X113.099 Y88.209
G0 F3600 X113.169 Y88.845
G1 F1800 X120.829 Y96.505 E264.43842
G1 X120.899 Y96.575
G0 F3600 X120.829 Y97.07
G1 F1800 X113.169 Y89.41 E264.98511
G1 X113.099 Y89.34
G0 F3600 X113.169 Y89.976
G1 F1800 X120.829 Y97.636 E265.53179
G1 X120.899 Y97.706
G0 F3600 X120.829 Y98.202
G1 F1800 X113.169 Y90.542 E266.07848
G1 X113.099 Y90.472
G0 F3600 X113.169 Y91.107
G1 F1800 X120.829 Y98.767 E266.62516
G1 X120.899 Y98.837
G0 F3600 X120.829 Y99.333
G1 F1800 X113.169 Y91.673 E267.17185
G1 X113.099 Y91.603
G0 F3600 X113.169 Y92.239
G1 F1800 X120.829 Y99.899 E267.71853
G1 X120.899 Y99.969
G0 F3600 X120.829 Y100.465
G1 F1800 X113.169 Y92.804 E268.26525
G1 X113.099 Y92.734
G0 F3600 X113.169 Y93.37
G1 F1800 X120.829 Y101.03 E268.81194
G1 X120.899 Y101.1
G0 F3600 X120.829 Y101.596
G1 F1800 X113.169 Y93.936 E269.35862
G1 X113.099 Y93.866
G0 F3600 X113.169 Y94.501
G1 F1800 X120.829 Y102.162 E269.90534
G1 X120.899 Y102.232
G0 F3600 X120.829 Y102.727
G1 F1800 X113.169 Y95.067 E270.45202
G1 X113.099 Y94.997
G0 F3600 X113.169 Y95.633
G1 F1800 X120.829 Y103.293 E270.99871
G1 X120.899 Y103.363
G0 F3600 X120.829 Y103.859
G1 F1800 X113.169 Y96.199 E271.54539
G1 X113.099 Y96.129
G0 F3600 X113.169 Y96.764
G1 F1800 X120.829 Y104.424 E272.09208
G1 X120.899 Y104.494
G0 F3600 X120.829 Y104.99
G1 F1800 X113.169 Y97.33 E272.63876
G1 X113.099 Y97.26
G0 F3600 X113.169 Y97.896
G1 F1800 X120.829 Y105.556 E273.18545
G1 X120.899 Y105.626
G0 F3600 X120.829 Y106.121
G1 F1800 X113.169 Y98.461 E273.73213
G1 X113.099 Y98.391
G0 F3600 X113.169 Y99.027
G1 F1800 X120.829 Y106.687 E274.27881
G1 X120.899 Y106.757
G0 F3600 X120.829 Y107.253
G1 F1800 X113.169 Y99.593 E274.8255
G1 X113.099 Y99.523
G0 F3600 X113.169 Y100.158
G1 F1800 X120.829 Y107.818 E275.37218
G1 X120.899 Y107.888
