;FLAVOR:Marlin
;TIME:4410
;Filament used: 3.22498m
;Layer height: 0.2
;Generated with Cura_SteamEngine 3.2.1
M190 S50
M104 S200
M109 S200
M82 ;absolute extrusion mode
G28 ;Home
G1 Z15.0 F6000 ;Move the platform down 15mm
;Prime the extruder
G92 E0
G1 F200 E3
G92 E0
;LAYER_COUNT:98
;LAYER:0
M107
G0 F4500 X96.38 Y39.797 Z0.3
;TYPE:SKIRT
G1 F1800 X96.602 Y39.342 E0.02526
G1 X96.797 Y39.048 E0.04286
G1 X97.074 Y38.678 E0.06592
G1 X97.408 Y38.299 E0.09112
G1 X97.653 Y38.085 E0.10735
G1 X98.062 Y37.762 E0.13335
G1 X98.482 Y37.481 E0.15856
G1 X98.785 Y37.331 E0.17543
G1 X99.224 Y37.143 E0.19926
G1 X99.703 Y36.982 E0.22447
G1 X100.133 Y36.904 E0.24627
G1 X100.877 Y36.822 E0.28361
G1 X101.236 Y36.803 E0.30155
G1 X109.155 Y36.824 E0.69663
G1 X109.659 Y36.865 E0.72186
G1 X110.019 Y36.945 E0.74026
G1 X110.718 Y37.143 E0.7765
G1 X111.192 Y37.319 E0.80173
G1 X111.613 Y37.554 E0.82578
G1 X111.974 Y37.793 E0.84738
G1 X112.372 Y38.104 E0.87258
G1 X112.624 Y38.363 E0.89061
G1 X113.045 Y38.848 E0.92265
G1 X113.345 Y39.255 E0.94788
G1 X113.571 Y39.69 E0.97233
G1 X113.758 Y40.128 E0.99609
G1 X113.919 Y40.607 E1.0213
G1 X113.994 Y41.02 E1.04225
G1 X114.076 Y41.737 E1.07825
G1 X114.097 Y42.101 E1.09644
G1 X114.09 Y169.991 E7.4769
G1 X114.05 Y170.495 E7.50212
G1 X113.931 Y170.987 E7.52738
G1 X113.736 Y171.453 E7.55258
G1 X113.471 Y171.883 E7.57778
G1 X113.14 Y172.266 E7.60303
G1 X112.754 Y172.592 E7.62824
G1 X112.321 Y172.853 E7.65346
G1 X111.852 Y173.043 E7.67871
G1 X111.36 Y173.156 E7.70389
G1 X110.89 Y173.191 E7.72741
G1 X99.109 Y173.191 E8.31516
G1 X98.605 Y173.151 E8.34039
G1 X98.114 Y173.032 E8.36559
G1 X97.647 Y172.838 E8.39082
G1 X97.217 Y172.572 E8.41605
G1 X96.834 Y172.242 E8.44127
G1 X96.508 Y171.855 E8.46651
G1 X96.247 Y171.422 E8.49174
G1 X96.057 Y170.954 E8.51694
G1 X95.944 Y170.461 E8.54217
G1 X95.909 Y169.991 E8.56568
G1 X95.913 Y41.876 E14.95737
G1 X95.94 Y41.459 E14.97822
G1 X95.996 Y41.033 E14.99965
G1 X96.102 Y40.538 E15.02491
G1 X96.19 Y40.281 E15.03846
G1 X96.38 Y39.797 E15.0644
G1 F2400 E8.0644
G0 F4500 X98.446 Y41.786
G0 X99.719 Y41.95
G0 X99.861 Y50.04
G0 X99.939 Y50.656
G0 X100.203 Y51.309
G0 X100.615 Y51.854
G0 X100.924 Y52.094
G0 X101.789 Y52.609
G0 X101.815 Y52.513
;TYPE:WALL-INNER
G1 F2400 E15.0644
G1 F1800 X102.46 Y52.6 E15.09687
G1 X107.54 Y52.6 E15.35031
G1 X108.185 Y52.513 E15.38278
G1 X108.817 Y52.247 E15.41699
G1 X109.356 Y51.827 E15.45108
G1 X109.761 Y51.292 E15.48456
G1 X109.905 Y50.946 E15.50326
G1 X110.016 Y50.678 E15.51773
G1 X110.097 Y50.068 E15.54843
G1 X110.1 Y43.861 E15.8581
G1 X110.02 Y43.252 E15.88874
G1 X109.905 Y42.974 E15.90375
G1 X109.77 Y42.648 E15.92136
G1 X109.372 Y42.128 E15.95403
G1 X108.852 Y41.73 E15.9867
G1 X108.248 Y41.48 E16.01931
G1 X107.639 Y41.4 E16.04995
G1 X102.361 Y41.4 E16.31327
G1 X101.752 Y41.48 E16.34392
G1 X101.148 Y41.73 E16.37653
G1 X100.628 Y42.128 E16.4092
G1 X100.23 Y42.648 E16.44187
G1 X100.095 Y42.974 E16.45947
G1 X99.98 Y43.252 E16.47448
G1 X99.9 Y43.861 E16.50513
G1 X99.9 Y50.038 E16.8133
G1 X99.977 Y50.646 E16.84387
G1 X100.095 Y50.939 E16.85963
G1 X100.237 Y51.29 E16.87852
G1 X100.643 Y51.826 E16.91207
G1 X101.182 Y52.246 E16.94616
G1 X101.815 Y52.513 E16.98043
G0 F4500 X101.789 Y52.609
G0 X106.67 Y59.33
G0 X106.6 Y59.4
G1 F1800 X103.4 Y59.4 E17.14008
G1 X103.4 Y169.4 E22.62801
G1 X99.7 Y169.4 E22.8126
G1 X99.7 Y50.962 E28.7215
G1 X99.7 Y50.646 E28.73488
G1 X99.7 Y50.038 E28.75295
G1 X99.7 Y43.861 E28.90703
G1 X99.7 Y43.252 E28.92524
G1 X99.7 Y42.951 E28.93805
G1 X99.7 Y41.949 E28.98804
G1 X99.75 Y41.564 E29.00741
G1 X99.879 Y41.253 E29.02421
G1 X100.084 Y40.984 E29.04108
G1 X100.353 Y40.779 E29.05796
G1 X100.664 Y40.65 E29.07476
G1 X101.04 Y40.6 E29.09368
G1 X108.96 Y40.6 E29.48881
G1 X109.336 Y40.65 E29.50773
G1 X109.647 Y40.779 E29.52453
G1 X109.916 Y40.984 E29.5414
G1 X110.121 Y41.253 E29.55828
G1 X110.251 Y41.564 E29.57509
G1 X110.3 Y41.939 E29.59396
G1 X110.3 Y42.951 E29.64445
G1 X110.3 Y43.252 E29.65726
G1 X110.3 Y43.861 E29.67547
G1 X110.3 Y50.068 E29.83147
G1 X110.3 Y50.678 E29.84997
G1 X110.3 Y50.968 E29.86239
G1 X110.3 Y169.4 E35.77098
G1 X106.6 Y169.4 E35.95558
G1 X106.6 Y59.4 E41.4435
G0 F4500 X106.2 Y59.8
;TYPE:WALL-OUTER
G1 F1800 X103.8 Y59.8 E41.56324
G1 X103.8 Y169.8 E47.05116
G1 X99.3 Y169.8 E47.27566
G1 X99.3 Y41.921 E53.65557
G1 X99.359 Y41.463 E53.67861
G1 X99.531 Y41.049 E53.70098
G1 X99.799 Y40.699 E53.72297
G1 X100.149 Y40.431 E53.74496
G1 X100.563 Y40.259 E53.76733
G1 X101.011 Y40.2 E53.78987
G1 X108.989 Y40.2 E54.1879
G1 X109.437 Y40.259 E54.21044
G1 X109.851 Y40.431 E54.23281
G1 X110.201 Y40.699 E54.2548
G1 X110.469 Y41.049 E54.27679
G1 X110.641 Y41.463 E54.29916
G1 X110.7 Y41.91 E54.32165
G1 X110.7 Y169.8 E60.70211
G1 X106.2 Y169.8 E60.92662
G1 X106.2 Y59.8 E66.41454
G0 F4500 X106 Y59.8
G0 X106 Y59.3
G0 X100.203 Y51.309
G0 X99.939 Y50.656
G0 X99.861 Y50.04
G0 X99.861 Y43.859
G0 X99.942 Y43.242
G0 X100.085 Y42.896
G0 X100.517 Y42.11
G0 X100.913 Y42.413
G1 F1800 X100.58 Y42.849 E66.44191
G1 X100.37 Y43.356 E66.46929
G1 X100.3 Y43.887 E66.49601
G1 X100.3 Y50.013 E66.80164
G1 X100.367 Y50.544 E66.82834
G1 X100.588 Y51.091 E66.85777
G1 X100.93 Y51.543 E66.88605
G1 X101.386 Y51.898 E66.91488
G1 X101.921 Y52.124 E66.94386
G1 X102.487 Y52.2 E66.97235
G1 X107.513 Y52.2 E67.22309
G1 X108.079 Y52.124 E67.25159
G1 X108.613 Y51.899 E67.2805
G1 X109.069 Y51.544 E67.30933
G1 X109.411 Y51.092 E67.33761
G1 X109.626 Y50.573 E67.36563
G1 X109.697 Y50.041 E67.39241
G1 X109.7 Y43.887 E67.69943
G1 X109.63 Y43.356 E67.72615
G1 X109.42 Y42.849 E67.75353
G1 X109.087 Y42.413 E67.7809
G1 X108.651 Y42.08 E67.80827
G1 X108.144 Y41.87 E67.83565
G1 X107.613 Y41.8 E67.86237
G1 X102.387 Y41.8 E68.1231
G1 X101.856 Y41.87 E68.14982
G1 X101.349 Y42.08 E68.1772
G1 X100.913 Y42.413 E68.20457
G0 F4500 X100.792 Y42.572
G0 X100.396 Y42.269
G0 X100.09 Y42.188
;TYPE:SKIN
G1 F1800 X100.09 Y41.969 E68.2155
G1 X100.129 Y41.669 E68.23059
G1 X100.22 Y41.448 E68.24251
G1 X100.362 Y41.262 E68.25419
G1 X100.548 Y41.12 E68.26586
G1 X100.769 Y41.029 E68.27779
G1 X101.061 Y40.99 E68.29248
G1 X108.939 Y40.99 E68.68552
G1 X109.231 Y41.029 E68.70022
G1 X109.452 Y41.12 E68.71214
G1 X109.638 Y41.262 E68.72381
G1 X109.78 Y41.448 E68.73549
G1 X109.872 Y41.669 E68.74743
G1 X109.91 Y41.959 E68.76202
G1 X109.91 Y42.188 E68.77345
G1 X109.651 Y41.849 E68.79473
G1 X109.049 Y41.389 E68.83253
G1 X108.349 Y41.1 E68.87031
G1 X107.664 Y41.01 E68.90478
G1 X102.336 Y41.01 E69.1706
G1 X101.651 Y41.1 E69.20506
G1 X100.951 Y41.389 E69.24285
G1 X100.349 Y41.849 E69.28065
G1 X100.09 Y42.188 E69.30193
G0 F4500 X100.664 Y41.267
G1 F1800 X100.728 Y41.331 E69.30645
G0 F4500 X99.942 Y43.242
G0 X99.861 Y43.859
G0 X99.861 Y50.04
G0 X100.09 Y51.743
G1 F1800 X100.363 Y52.103 E69.32899
G1 X100.983 Y52.585 E69.36817
G1 X101.712 Y52.893 E69.40765
G1 X102.434 Y52.99 E69.44399
G1 X107.566 Y52.99 E69.70003
G1 X108.288 Y52.893 E69.73637
G1 X109.016 Y52.586 E69.77579
G1 X109.636 Y52.104 E69.81497
G1 X109.91 Y51.741 E69.83766
G1 X109.91 Y169.01 E75.68824
G1 X106.99 Y169.01 E75.83391
G1 X106.99 Y59.01 E81.32184
G1 X103.01 Y59.01 E81.5204
G1 X103.01 Y169.01 E87.00832
G1 X100.09 Y169.01 E87.154
G1 X100.09 Y51.743 E93.00448
G0 F4500 X101.805 Y52.551
G0 X102.458 Y52.639
G0 X107.542 Y52.639
G0 X109.54 Y52.406
G0 X109.634 Y52.5
G1 F1800 X109.475 Y52.906 E93.02895
G0 F4500 X109.729 Y53.726
G1 F1800 X108.853 Y52.85 E93.09075
G1 X108.783 Y52.78
G0 F4500 X108.456 Y53.018
G1 F1800 X109.729 Y54.292 E93.18061
G1 X109.799 Y54.362
G0 F4500 X109.729 Y54.858
G1 F1800 X107.987 Y53.115 E93.30355
G1 X107.917 Y53.045
G0 F4500 X107.475 Y53.17
G1 F1800 X109.729 Y55.423 E93.46255
G1 X109.799 Y55.493
G0 F4500 X109.729 Y55.989
G1 F1800 X106.91 Y53.17 E93.66144
G1 X106.84 Y53.1
G0 F4500 X106.344 Y53.17
G1 F1800 X109.729 Y56.555 E93.90027
G1 X109.799 Y56.625
G0 F4500 X109.729 Y57.12
G1 F1800 X105.778 Y53.17 E94.179
G1 X105.708 Y53.1
G0 F4500 X105.213 Y53.17
G1 F1800 X109.729 Y57.686 E94.49763
G1 X109.799 Y57.756
G0 F4500 X109.729 Y58.252
G1 F1800 X104.647 Y53.17 E94.85619
G1 X104.577 Y53.1
G0 F4500 X104.081 Y53.17
G1 F1800 X109.729 Y58.817 E95.25465
G1 X109.799 Y58.887
G0 F4500 X109.729 Y59.383
G1 F1800 X103.516 Y53.17 E95.69301
G1 X103.446 Y53.1
G0 F4500 X102.95 Y53.17
G1 F1800 X109.729 Y59.949 E96.17131
G1 X109.799 Y60.019
G0 F4500 X109.729 Y60.514
G1 F1800 X102.379 Y53.164 E96.68989
G1 X102.309 Y53.094
G0 F4500 X101.725 Y53.076
G1 F1800 X109.729 Y61.08 E97.25462
G1 X109.799 Y61.15
G0 F4500 X109.729 Y61.646
G1 F1800 X107.169 Y59.085 E97.43527
G1 X107.099 Y59.015
G0 F4500 X106.913 Y58.829
G1 F1800 X100.594 Y52.511 E97.88108
G1 X100.524 Y52.441
G0 F4500 X100.269 Y52.752
G1 F1800 X106.347 Y58.829 E98.30988
G1 X106.417 Y58.899
G0 F4500 X105.781 Y58.829
G1 F1800 X100.269 Y53.317 E98.69878
G1 X100.199 Y53.247
G0 F4500 X100.269 Y53.883
G1 F1800 X105.216 Y58.829 E99.04778
G1 X105.286 Y58.899
G0 F4500 X104.65 Y58.829
G1 F1800 X100.269 Y54.449 E99.35685
G1 X100.199 Y54.379
G0 F4500 X100.269 Y55.015
G1 F1800 X104.084 Y58.829 E99.62598
G1 X104.154 Y58.899
G0 F4500 X103.519 Y58.829
G1 F1800 X100.269 Y55.58 E99.85525
G1 X100.199 Y55.51
G0 F4500 X100.269 Y56.146
G1 F1800 X102.953 Y58.829 E100.04459
G1 X103.023 Y58.899
G0 F4500 X102.829 Y59.271
G1 F1800 X100.269 Y56.712 E100.22518
G1 X100.199 Y56.642
G0 F4500 X100.269 Y57.277
G1 F1800 X102.829 Y59.837 E100.4058
G1 X102.899 Y59.907
G0 F4500 X102.829 Y60.403
G1 F1800 X100.269 Y57.843 E100.58642
G1 X100.199 Y57.773
G0 F4500 X100.269 Y58.409
G1 F1800 X102.829 Y60.968 E100.76701
G1 X102.899 Y61.038
G0 F4500 X102.829 Y61.534
G1 F1800 X100.269 Y58.974 E100.94763
G1 X100.199 Y58.904
G0 F4500 X100.269 Y59.54
G1 F1800 X102.829 Y62.1 E101.12825
G1 X102.899 Y62.17
G0 F4500 X102.829 Y62.665
G1 F1800 X100.269 Y60.106 E101.30884
G1 X100.199 Y60.036
G0 F4500 X100.269 Y60.671
G1 F1800 X102.829 Y63.231 E101.48946
G1 X102.899 Y63.301
G0 F4500 X102.829 Y63.797
G1 F1800 X100.269 Y61.237 E101.67008
G1 X100.199 Y61.167
G0 F4500 X100.269 Y61.803
G1 F1800 X102.829 Y64.362 E101.85067
G1 X102.899 Y64.432
G0 F4500 X102.829 Y64.928
G1 F1800 X100.269 Y62.368 E102.03129
G1 X100.199 Y62.298
G0 F4500 X100.269 Y62.934
G1 F1800 X102.829 Y65.494 E102.21191
G1 X102.899 Y65.564
G0 F4500 X102.829 Y66.06
G1 F1800 X100.269 Y63.5 E102.39253
G1 X100.199 Y63.43
G0 F4500 X100.269 Y64.065
G1 F1800 X102.829 Y66.625 E102.57315
G1 X102.899 Y66.695
G0 F4500 X102.829 Y67.191
G1 F1800 X100.269 Y64.631 E102.75378
G1 X100.199 Y64.561
G0 F4500 X100.269 Y65.197
G1 F1800 X102.829 Y67.757 E102.9344
G1 X102.899 Y67.827
G0 F4500 X102.829 Y68.322
G1 F1800 X100.269 Y65.763 E103.11498
G1 X100.199 Y65.693
G0 F4500 X100.269 Y66.328
G1 F1800 X102.829 Y68.888 E103.29561
G1 X102.899 Y68.958
G0 F4500 X102.829 Y69.454
G1 F1800 X100.269 Y66.894 E103.47623
G1 X100.199 Y66.824
G0 F4500 X100.269 Y67.46
G1 F1800 X102.829 Y70.019 E103.65681
G1 X102.899 Y70.089
G0 F4500 X102.829 Y70.585
G1 F1800 X100.269 Y68.025 E103.83744
G1 X100.199 Y67.955
G0 F4500 X100.269 Y68.591
G1 F1800 X102.829 Y71.151 E104.01806
G1 X102.899 Y71.221
G0 F4500 X102.829 Y71.716
G1 F1800 X100.269 Y69.157 E104.19864
G1 X100.199 Y69.087
G0 F4500 X100.269 Y69.722
G1 F1800 X102.829 Y72.282 E104.37927
G1 X102.899 Y72.352
G0 F4500 X102.829 Y72.848
G1 F1800 X100.269 Y70.288 E104.55989
G1 X100.199 Y70.218
G0 F4500 X100.269 Y70.854
G1 F1800 X102.829 Y73.413 E104.74047
G1 X102.899 Y73.483
G0 F4500 X102.829 Y73.979
G1 F1800 X100.269 Y71.419 E104.9211
G1 X100.199 Y71.349
G0 F4500 X100.269 Y71.985
G1 F1800 X102.829 Y74.545 E105.10172
G1 X102.899 Y74.615
G0 F4500 X102.829 Y75.111
G1 F1800 X100.269 Y72.551 E105.28234
G1 X100.199 Y72.481
G0 F4500 X100.269 Y73.116
G1 F1800 X102.829 Y75.676 E105.46296
G1 X102.899 Y75.746
G0 F4500 X102.829 Y76.242
G1 F1800 X100.269 Y73.682 E105.64358
G1 X100.199 Y73.612
G0 F4500 X100.269 Y74.248
G1 F1800 X102.829 Y76.808 E105.82421
G1 X102.899 Y76.878
G0 F4500 X102.829 Y77.373
G1 F1800 X100.269 Y74.814 E106.00479
G1 X100.199 Y74.744
G0 F4500 X100.269 Y75.379
G1 F1800 X102.829 Y77.939 E106.18541
G1 X102.899 Y78.009
G0 F4500 X102.829 Y78.505
G1 F1800 X100.269 Y75.945 E106.36604
G1 X100.199 Y75.875
G0 F4500 X100.269 Y76.511
G1 F1800 X102.829 Y79.07 E106.54662
G1 X102.899 Y79.14
G0 F4500 X102.829 Y79.636
G1 F1800 X100.269 Y77.076 E106.72724
G1 X100.199 Y77.006
G0 F4500 X100.269 Y77.642
G1 F1800 X102.829 Y80.202 E106.90787
G1 X102.899 Y80.272
G0 F4500 X102.829 Y80.767
G1 F1800 X100.269 Y78.208 E107.08845
G1 X100.199 Y78.138
G0 F4500 X100.269 Y78.773
G1 F1800 X102.829 Y81.333 E107.26907
G1 X102.899 Y81.403
G0 F4500 X102.829 Y81.899
G1 F1800 X100.269 Y79.339 E107.4497
G1 X100.199 Y79.269
G0 F4500 X100.269 Y79.905
G1 F1800 X102.829 Y82.464 E107.63028
G1 X102.899 Y82.534
G0 F4500 X102.829 Y83.03
G1 F1800 X100.269 Y80.47 E107.8109
G1 X100.199 Y80.4
G0 F4500 X100.269 Y81.036
G1 F1800 X102.829 Y83.596 E107.99153
G1 X102.899 Y83.666
G0 F4500 X102.829 Y84.161
G1 F1800 X100.269 Y81.602 E108.17211
G1 X100.199 Y81.532
G0 F4500 X100.269 Y82.167
G1 F1800 X102.829 Y84.727 E108.35273
G1 X102.899 Y84.797
G0 F4500 X102.829 Y85.293
G1 F1800 X100.269 Y82.733 E108.53336
G1 X100.199 Y82.663
G0 F4500 X100.269 Y83.299
G1 F1800 X102.829 Y85.859 E108.71398
G1 X102.899 Y85.929
G0 F4500 X102.829 Y86.424
G1 F1800 X100.269 Y83.864 E108.8946
G1 X100.199 Y83.794
G0 F4500 X100.269 Y84.43
G1 F1800 X102.829 Y86.99 E109.07522
G1 X102.899 Y87.06
G0 F4500 X102.829 Y87.556
G1 F1800 X100.269 Y84.996 E109.25584
G1 X100.199 Y84.926
G0 F4500 X100.269 Y85.562
G1 F1800 X102.829 Y88.121 E109.43643
G1 X102.899 Y88.191
G0 F4500 X102.829 Y88.687
G1 F1800 X100.269 Y86.127 E109.61705
G1 X100.199 Y86.057
G0 F4500 X100.269 Y86.693
G1 F1800 X102.829 Y89.253 E109.79767
G1 X102.899 Y89.323
G0 F4500 X102.829 Y89.818
G1 F1800 X100.269 Y87.259 E109.97826
G1 X100.199 Y87.189
G0 F4500 X100.269 Y87.824
G1 F1800 X102.829 Y90.384 E110.15888
G1 X102.899 Y90.454
G0 F4500 X102.829 Y90.95
G1 F1800 X100.269 Y88.39 E110.3395
G1 X100.199 Y88.32
G0 F4500 X100.269 Y88.956
G1 F1800 X102.829 Y91.515 E110.52009
G1 X102.899 Y91.585
G0 F4500 X102.829 Y92.081
G1 F1800 X100.269 Y89.521 E110.70071
G1 X100.199 Y89.451
G0 F4500 X100.269 Y90.087
G1 F1800 X102.829 Y92.647 E110.88133
G1 X102.899 Y92.717
G0 F4500 X102.829 Y93.212
G1 F1800 X100.269 Y90.653 E111.06192
G1 X100.199 Y90.583
G0 F4500 X100.269 Y91.218
G1 F1800 X102.829 Y93.778 E111.24254
G1 X102.899 Y93.848
G0 F4500 X102.829 Y94.344
G1 F1800 X100.269 Y91.784 E111.42316
G1 X100.199 Y91.714
G0 F4500 X100.269 Y92.35
G1 F1800 X102.829 Y94.909 E111.60375
G1 X102.899 Y94.979
G0 F4500 X102.829 Y95.475
G1 F1800 X100.269 Y92.915 E111.78437
G1 X100.199 Y92.845
G0 F4500 X100.269 Y93.481
G1 F1800 X102.829 Y96.041 E111.965
G1 X102.899 Y96.111
G0 F4500 X102.829 Y96.607
G1 F1800 X100.269 Y94.047 E112.14562
G1 X100.199 Y93.977
G0 F4500 X100.269 Y94.613
G1 F1800 X102.829 Y97.172 E112.3262
G1 X102.899 Y97.242
G0 F4500 X102.829 Y97.738
G1 F1800 X100.269 Y95.178 E112.50683
G1 X100.199 Y95.108
G0 F4500 X100.269 Y95.744
G1 F1800 X102.829 Y98.304 E112.68745
G1 X102.899 Y98.374
G0 F4500 X102.829 Y98.869
G1 F1800 X100.269 Y96.31 E112.86803
G1 X100.199 Y96.24
G0 F4500 X100.269 Y96.875
G1 F1800 X102.829 Y99.435 E113.04866
G1 X102.899 Y99.505
G0 F4500 X102.829 Y100.001
G1 F1800 X100.269 Y97.441 E113.22928
G1 X100.199 Y97.371
G0 F4500 X100.269 Y98.007
G1 F1800 X102.829 Y100.566 E113.40986
G1 X102.899 Y100.636
G0 F4500 X102.829 Y101.132
G1 F1800 X100.269 Y98.572 E113.59049
G1 X100.199 Y98.502
G0 F4500 X100.269 Y99.138
G1 F1800 X102.829 Y101.698 E113.77111
G1 X102.899 Y101.768
G0 F4500 X102.829 Y102.263
G1 F1800 X100.269 Y99.704 E113.95169
G1 X100.199 Y99.634
G0 F4500 X100.269 Y100.269
G1 F1800 X102.829 Y102.829 E114.13232
G1 X102.899 Y102.899
G0 F4500 X102.829 Y103.395
G1 F1800 X100.269 Y100.835 E114.31294
G1 X100.199 Y100.765
G0 F4500 X100.269 Y101.401
G1 F1800 X102.829 Y103.96 E114.49352
G1 X102.899 Y104.03
G0 F4500 X102.829 Y104.526
G1 F1800 X100.269 Y101.966 E114.67415
G1 X100.199 Y101.896
G0 F4500 X100.269 Y102.532
G1 F1800 X102.829 Y105.092 E114.85477
G1 X102.899 Y105.162
G0 F4500 X102.829 Y105.658
G1 F1800 X100.269 Y103.098 E115.03539
