;FLAVOR:Marlin
;TIME:6093
;Filament used: 3.1696m
;Layer height: 0.2
;Generated with Cura_SteamEngine 3.2.1
M190 S50
M104 S200
M109 S200
M82 ;absolute extrusion mode
G28 ;Home
G1 Z15.0 F6000 ;Move the platform down 15mm
;Prime the extruder
G92 E0
G1 F200 E3
G92 E0
;LAYER_COUNT:98
;LAYER:0
M107
G0 F4500 X99.455 Y38.775 Z0.3
;TYPE:SKIRT
G1 F1200 X99.687 Y38.325 E0.02526
G1 X99.986 Y37.918 E0.05045
G1 X100.345 Y37.562 E0.07568
G1 X100.756 Y37.268 E0.10089
G1 X101.209 Y37.042 E0.12615
G1 X101.691 Y36.89 E0.15136
G1 X102.409 Y36.809 E0.18741
G1 X107.595 Y36.81 E0.44614
G1 X108.099 Y36.85 E0.47136
G1 X108.59 Y36.969 E0.49657
G1 X109.057 Y37.164 E0.52182
G1 X109.487 Y37.43 E0.54704
G1 X109.869 Y37.76 E0.57223
G1 X110.195 Y38.146 E0.59743
G1 X110.456 Y38.579 E0.62266
G1 X110.709 Y39.277 E0.6597
G1 X111.817 Y43.984 E0.90095
G1 X113.954 Y51.082 E1.27077
G1 X114.061 Y51.577 E1.29604
G1 X114.09 Y52.005 E1.31744
G1 X114.091 Y169.991 E7.20378
G1 X114.051 Y170.495 E7.22901
G1 X113.932 Y170.986 E7.25421
G1 X113.738 Y171.453 E7.27944
G1 X113.472 Y171.883 E7.30467
G1 X113.142 Y172.266 E7.32989
G1 X112.755 Y172.592 E7.35514
G1 X112.322 Y172.853 E7.38036
G1 X111.854 Y173.043 E7.40556
G1 X111.361 Y173.156 E7.43079
G1 X110.891 Y173.191 E7.45431
G1 X99.109 Y173.191 E8.04211
G1 X98.605 Y173.151 E8.06734
G1 X98.114 Y173.032 E8.09254
G1 X97.647 Y172.838 E8.11777
G1 X97.217 Y172.572 E8.143
G1 X96.834 Y172.242 E8.16822
G1 X96.508 Y171.855 E8.19346
G1 X96.247 Y171.422 E8.21869
G1 X96.057 Y170.954 E8.24389
G1 X95.944 Y170.461 E8.26912
G1 X95.909 Y169.991 E8.29263
G1 X95.911 Y51.999 E14.17928
G1 X95.951 Y51.495 E14.2045
G1 X96.053 Y51.055 E14.22704
G1 X97.849 Y45.235 E14.53091
G1 X99.298 Y39.256 E14.83784
G1 X99.455 Y38.775 E14.86308
G1 F1800 E8.36308
G0 F4500 X103.021 Y50.161
G0 X104.142 Y50.808
G0 X106.67 Y59.33
G0 X106.6 Y59.4
;TYPE:WALL-INNER
G1 F1800 E14.86308
G1 F1200 X103.4 Y59.4 E15.02273
G1 X103.4 Y169.4 E20.51065
G1 X99.7 Y169.4 E20.69524
G1 X99.7 Y52.6 E26.52242
G1 X101.039 Y52.6 E26.58922
G1 X101.938 Y52.482 E26.63446
G1 X102.81 Y52.117 E26.68162
G1 X103.555 Y51.542 E26.72857
G1 X104.125 Y50.799 E26.77529
G1 X104.483 Y49.932 E26.82209
G1 X104.598 Y49.051 E26.86641
G1 X104.6 Y43.461 E27.1453
G1 X104.534 Y42.956 E27.17071
G1 X104.324 Y42.448 E27.19813
G1 X103.989 Y42.011 E27.2256
G1 X103.552 Y41.676 E27.25308
G1 X103.044 Y41.466 E27.2805
G1 X103 Y41.46 E27.28272
G1 X103 Y40.6 E27.32562
G1 X107 Y40.6 E27.52518
G1 X107 Y41.46 E27.56809
G1 X106.956 Y41.466 E27.5703
G1 X106.448 Y41.676 E27.59773
G1 X106.011 Y42.011 E27.6252
G1 X105.676 Y42.448 E27.65267
G1 X105.466 Y42.956 E27.68009
G1 X105.4 Y43.461 E27.7055
G1 X105.4 Y49.039 E27.98379
G1 X105.514 Y49.922 E28.02821
G1 X105.886 Y50.813 E28.07638
G1 X106.461 Y51.557 E28.12329
G1 X107.211 Y52.128 E28.17032
G1 X108.084 Y52.485 E28.21737
G1 X108.961 Y52.6 E28.2615
G1 X110.3 Y52.6 E28.32831
G1 X110.3 Y169.4 E34.15548
G1 X106.6 Y169.4 E34.34007
G1 X106.6 Y59.4 E39.828
G0 F4500 X106.2 Y59.8
;TYPE:WALL-OUTER
G1 F1200 X103.8 Y59.8 E39.94773
G1 X103.8 Y169.8 E45.43566
G1 X99.3 Y169.8 E45.66016
G1 X99.3 Y52.2 E51.52725
G1 X101.013 Y52.2 E51.61271
G1 X101.833 Y52.092 E51.65397
G1 X102.607 Y51.768 E51.69584
G1 X103.269 Y51.257 E51.73756
G1 X103.775 Y50.597 E51.77905
G1 X104.093 Y49.828 E51.82057
G1 X104.198 Y49.025 E51.86097
G1 X104.2 Y43.487 E52.13726
G1 X104.144 Y43.06 E52.15875
G1 X103.974 Y42.649 E52.18094
G1 X103.704 Y42.296 E52.20311
G1 X103.351 Y42.026 E52.22528
G1 X102.94 Y41.856 E52.24747
G1 X102.6 Y41.811 E52.26458
G1 X102.6 Y40.2 E52.34495
G1 X107.4 Y40.2 E52.58443
G1 X107.4 Y41.811 E52.6648
G1 X107.06 Y41.856 E52.68191
G1 X106.649 Y42.026 E52.7041
G1 X106.296 Y42.296 E52.72627
G1 X106.026 Y42.649 E52.74844
G1 X105.856 Y43.06 E52.77063
G1 X105.8 Y43.487 E52.79212
G1 X105.8 Y49.013 E53.06781
G1 X105.904 Y49.817 E53.10826
G1 X106.235 Y50.61 E53.15113
G1 X106.745 Y51.271 E53.19278
G1 X107.411 Y51.778 E53.23454
G1 X108.187 Y52.095 E53.27636
G1 X108.987 Y52.2 E53.31662
G1 X110.7 Y52.2 E53.40208
G1 X110.7 Y169.8 E59.26917
G1 X106.2 Y169.8 E59.49367
G1 X106.2 Y59.8 E64.98159
G0 F4500 X106 Y59.8
G0 X106 Y59.3
G0 X106.99 Y59.01
;TYPE:SKIN
G1 F1200 X103.01 Y59.01 E65.18016
G1 X103.01 Y169.01 E70.66808
G1 X100.09 Y169.01 E70.81376
G1 X100.09 Y52.99 E76.60202
G1 X101.064 Y52.99 E76.65061
G1 X102.041 Y52.862 E76.69977
G1 X103.007 Y52.457 E76.75203
G1 X103.834 Y51.819 E76.80414
G1 X104.466 Y50.996 E76.85591
G1 X104.863 Y50.033 E76.90788
G1 X104.988 Y49.076 E76.95603
G1 X104.99 Y43.436 E77.23741
G1 X104.914 Y42.855 E77.26664
G1 X104.665 Y42.251 E77.29924
G1 X104.268 Y41.732 E77.33184
G1 X103.749 Y41.335 E77.36444
G1 X103.39 Y41.187 E77.38381
G1 X103.39 Y40.99 E77.39364
G1 X106.61 Y40.99 E77.55428
G1 X106.61 Y41.187 E77.56411
G1 X106.251 Y41.335 E77.58348
G1 X105.732 Y41.732 E77.61608
G1 X105.335 Y42.251 E77.64868
G1 X105.086 Y42.855 E77.68128
G1 X105.01 Y43.436 E77.71051
G1 X105.01 Y49.064 E77.99129
G1 X105.134 Y50.024 E78.03959
G1 X105.546 Y51.01 E78.0929
G1 X106.184 Y51.836 E78.14497
G1 X107.016 Y52.469 E78.19713
G1 X107.983 Y52.865 E78.24926
G1 X108.936 Y52.99 E78.29721
G1 X109.91 Y52.99 E78.3458
G1 X109.91 Y169.01 E84.13407
G1 X106.99 Y169.01 E84.27974
G1 X106.99 Y59.01 E89.76767
G0 F4500 X105.361 Y49.041
G0 X105.361 Y43.459
G0 X105.398 Y43.17
G0 X105.879 Y41.391
G0 X105.768 Y41.28
G1 F1200 X105.33 Y41.408 E89.79237
G0 F4500 X104.526 Y41.169
G1 F1200 X105.324 Y41.967 E89.84867
G1 X105.394 Y42.037
G0 F4500 X105.11 Y42.319
G1 F1200 X104.405 Y41.613 E89.89845
G1 X104.335 Y41.543
G0 F4500 X104.384 Y41.593
G1 F1200 X103.96 Y41.169 E89.92836
G0 F4500 X104.572 Y42.946
G0 X104.59 Y43.09
G0 X104.847 Y50.541
G1 F1200 X105.375 Y51.07 E89.96565
G0 F4500 X104.682 Y50.942
G1 F1200 X109.729 Y55.989 E90.32175
G1 X109.799 Y56.059
G0 F4500 X109.729 Y56.555
G1 F1200 X104.465 Y51.29 E90.69318
G1 X104.395 Y51.22
G0 F4500 X104.219 Y51.611
G1 F1200 X109.729 Y57.12 E91.08191
G1 X109.799 Y57.19
G0 F4500 X109.729 Y57.686
G1 F1200 X103.974 Y51.931 E91.48796
G1 X103.904 Y51.861
G0 F4500 X103.659 Y52.181
G1 F1200 X109.729 Y58.252 E91.91626
G1 X109.799 Y58.322
G0 F4500 X109.729 Y58.817
G1 F1200 X103.339 Y52.427 E92.36711
G1 X103.269 Y52.357
G0 F4500 X103 Y52.654
G1 F1200 X109.729 Y59.383 E92.84188
G1 X109.799 Y59.453
G0 F4500 X109.729 Y59.949
G1 F1200 X102.602 Y52.822 E93.34473
G1 X102.532 Y52.752
G0 F4500 X102.204 Y52.989
G1 F1200 X109.729 Y60.514 E93.87566
G1 X109.799 Y60.584
G0 F4500 X109.729 Y61.08
G1 F1200 X101.732 Y53.083 E94.43989
G1 X101.662 Y53.013
G0 F4500 X101.232 Y53.148
G1 F1200 X106.913 Y58.829 E94.84071
G1 X106.983 Y58.899
G0 F4500 X107.169 Y59.085
G1 F1200 X109.729 Y61.646 E95.02137
G1 X109.799 Y61.716
G0 F4500 X109.729 Y62.211
G1 F1200 X107.169 Y59.651 E95.20199
G1 X107.099 Y59.581
G0 F4500 X107.169 Y60.217
G1 F1200 X109.729 Y62.777 E95.38261
G1 X109.799 Y62.847
G0 F4500 X109.729 Y63.343
G1 F1200 X107.169 Y60.782 E95.56327
G1 X107.099 Y60.712
G0 F4500 X107.169 Y61.348
G1 F1200 X109.729 Y63.909 E95.74393
G1 X109.799 Y63.979
G0 F4500 X109.729 Y64.474
G1 F1200 X107.169 Y61.914 E95.92455
G1 X107.099 Y61.844
G0 F4500 X107.169 Y62.479
G1 F1200 X109.729 Y65.04 E96.10521
G1 X109.799 Y65.11
G0 F4500 X109.729 Y65.606
G1 F1200 X107.169 Y63.045 E96.28586
G1 X107.099 Y62.975
G0 F4500 X107.169 Y63.611
G1 F1200 X109.729 Y66.171 E96.46649
G1 X109.799 Y66.241
G0 F4500 X109.729 Y66.737
G1 F1200 X107.169 Y64.177 E96.64711
G1 X107.099 Y64.107
G0 F4500 X107.169 Y64.742
G1 F1200 X109.729 Y67.303 E96.82776
G1 X109.799 Y67.373
G0 F4500 X109.729 Y67.868
G1 F1200 X107.169 Y65.308 E97.00839
G1 X107.099 Y65.238
G0 F4500 X107.169 Y65.874
G1 F1200 X109.729 Y68.434 E97.18901
G1 X109.799 Y68.504
G0 F4500 X109.729 Y69
G1 F1200 X107.169 Y66.439 E97.36967
G1 X107.099 Y66.369
G0 F4500 X107.169 Y67.005
G1 F1200 X109.729 Y69.565 E97.55029
G1 X109.799 Y69.635
G0 F4500 X109.729 Y70.131
G1 F1200 X107.169 Y67.571 E97.73091
G1 X107.099 Y67.501
G0 F4500 X107.169 Y68.136
G1 F1200 X109.729 Y70.697 E97.91157
G1 X109.799 Y70.767
G0 F4500 X109.729 Y71.262
G1 F1200 X107.169 Y68.702 E98.09219
G1 X107.099 Y68.632
G0 F4500 X107.169 Y69.268
G1 F1200 X109.729 Y71.828 E98.27281
G1 X109.799 Y71.898
G0 F4500 X109.729 Y72.394
G1 F1200 X107.169 Y69.833 E98.45347
G1 X107.099 Y69.763
G0 F4500 X107.169 Y70.399
G1 F1200 X109.729 Y72.959 E98.63409
G1 X109.799 Y73.029
G0 F4500 X109.729 Y73.525
G1 F1200 X107.169 Y70.965 E98.81471
G1 X107.099 Y70.895
G0 F4500 X107.169 Y71.53
G1 F1200 X109.729 Y74.091 E98.99537
G1 X109.799 Y74.161
G0 F4500 X109.729 Y74.657
G1 F1200 X107.169 Y72.096 E99.17602
G1 X107.099 Y72.026
G0 F4500 X107.169 Y72.662
G1 F1200 X109.729 Y75.222 E99.35665
G1 X109.799 Y75.292
G0 F4500 X109.729 Y75.788
G1 F1200 X107.169 Y73.227 E99.5373
G1 X107.099 Y73.157
G0 F4500 X107.169 Y73.793
G1 F1200 X109.729 Y76.354 E99.71796
G1 X109.799 Y76.424
G0 F4500 X109.729 Y76.919
G1 F1200 X107.169 Y74.359 E99.89858
G1 X107.099 Y74.289
G0 F4500 X107.169 Y74.925
G1 F1200 X109.729 Y77.485 E100.0792
G1 X109.799 Y77.555
G0 F4500 X109.729 Y78.051
G1 F1200 X107.169 Y75.49 E100.25986
G1 X107.099 Y75.42
G0 F4500 X107.169 Y76.056
G1 F1200 X109.729 Y78.616 E100.44048
G1 X109.799 Y78.686
G0 F4500 X109.729 Y79.182
G1 F1200 X107.169 Y76.622 E100.62111
G1 X107.099 Y76.552
G0 F4500 X107.169 Y77.187
G1 F1200 X109.729 Y79.748 E100.80176
G1 X109.799 Y79.818
G0 F4500 X109.729 Y80.313
G1 F1200 X107.169 Y77.753 E100.98238
G1 X107.099 Y77.683
G0 F4500 X107.169 Y78.319
G1 F1200 X109.729 Y80.879 E101.16301
G1 X109.799 Y80.949
G0 F4500 X109.729 Y81.445
G1 F1200 X107.169 Y78.884 E101.34366
G1 X107.099 Y78.814
G0 F4500 X107.169 Y79.45
G1 F1200 X109.729 Y82.01 E101.52428
G1 X109.799 Y82.08
G0 F4500 X109.729 Y82.576
G1 F1200 X107.169 Y80.016 E101.70491
G1 X107.099 Y79.946
G0 F4500 X107.169 Y80.581
G1 F1200 X109.729 Y83.142 E101.88556
G1 X109.799 Y83.212
G0 F4500 X109.729 Y83.708
G1 F1200 X107.169 Y81.147 E102.06622
G1 X107.099 Y81.077
G0 F4500 X107.169 Y81.713
G1 F1200 X109.729 Y84.273 E102.24684
G1 X109.799 Y84.343
G0 F4500 X109.729 Y84.839
G1 F1200 X107.169 Y82.278 E102.4275
G1 X107.099 Y82.208
G0 F4500 X107.169 Y82.844
G1 F1200 X109.729 Y85.405 E102.60816
G1 X109.799 Y85.475
G0 F4500 X109.729 Y85.97
G1 F1200 X107.169 Y83.41 E102.78878
G1 X107.099 Y83.34
G0 F4500 X107.169 Y83.976
G1 F1200 X109.729 Y86.536 E102.9694
G1 X109.799 Y86.606
G0 F4500 X109.729 Y87.102
G1 F1200 X107.169 Y84.541 E103.15006
G1 X107.099 Y84.471
G0 F4500 X107.169 Y85.107
G1 F1200 X109.729 Y87.667 E103.33068
G1 X109.799 Y87.737
G0 F4500 X109.729 Y88.233
G1 F1200 X107.169 Y85.673 E103.5113
G1 X107.099 Y85.603
G0 F4500 X107.169 Y86.238
G1 F1200 X109.729 Y88.799 E103.69196
G1 X109.799 Y88.869
G0 F4500 X109.729 Y89.364
G1 F1200 X107.169 Y86.804 E103.87258
G1 X107.099 Y86.734
G0 F4500 X107.169 Y87.37
G1 F1200 X109.729 Y89.93 E104.0532
G1 X109.799 Y90
G0 F4500 X109.729 Y90.496
G1 F1200 X107.169 Y87.935 E104.23386
G1 X107.099 Y87.865
G0 F4500 X107.169 Y88.501
G1 F1200 X109.729 Y91.061 E104.41448
G1 X109.799 Y91.131
G0 F4500 X109.729 Y91.627
G1 F1200 X107.169 Y89.067 E104.5951
G1 X107.099 Y88.997
G0 F4500 X107.169 Y89.632
G1 F1200 X109.729 Y92.193 E104.77576
G1 X109.799 Y92.263
G0 F4500 X109.729 Y92.758
G1 F1200 X107.169 Y90.198 E104.95638
G1 X107.099 Y90.128
G0 F4500 X107.169 Y90.764
G1 F1200 X109.729 Y93.324 E105.137
G1 X109.799 Y93.394
G0 F4500 X109.729 Y93.89
G1 F1200 X107.169 Y91.329 E105.31766
G1 X107.099 Y91.259
G0 F4500 X107.169 Y91.895
G1 F1200 X109.729 Y94.456 E105.49832
G1 X109.799 Y94.526
G0 F4500 X109.729 Y95.021
G1 F1200 X107.169 Y92.461 E105.67894
G1 X107.099 Y92.391
G0 F4500 X107.169 Y93.026
G1 F1200 X109.729 Y95.587 E105.8596
G1 X109.799 Y95.657
G0 F4500 X109.729 Y96.153
G1 F1200 X107.169 Y93.592 E106.04025
G1 X107.099 Y93.522
G0 F4500 X107.169 Y94.158
G1 F1200 X109.729 Y96.718 E106.22088
G1 X109.799 Y96.788
G0 F4500 X109.729 Y97.284
G1 F1200 X107.169 Y94.724 E106.4015
G1 X107.099 Y94.654
G0 F4500 X107.169 Y95.289
G1 F1200 X109.729 Y97.85 E106.58215
G1 X109.799 Y97.92
G0 F4500 X109.729 Y98.415
G1 F1200 X107.169 Y95.855 E106.76278
G1 X107.099 Y95.785
G0 F4500 X107.169 Y96.421
G1 F1200 X109.729 Y98.981 E106.9434
G1 X109.799 Y99.051
G0 F4500 X109.729 Y99.547
G1 F1200 X107.169 Y96.986 E107.12406
G1 X107.099 Y96.916
G0 F4500 X107.169 Y97.552
G1 F1200 X109.729 Y100.112 E107.30468
G1 X109.799 Y100.182
G0 F4500 X109.729 Y100.678
G1 F1200 X107.169 Y98.118 E107.4853
G1 X107.099 Y98.048
G0 F4500 X107.169 Y98.683
G1 F1200 X109.729 Y101.244 E107.66596
G1 X109.799 Y101.314
G0 F4500 X109.729 Y101.809
G1 F1200 X107.169 Y99.249 E107.84658
G1 X107.099 Y99.179
G0 F4500 X107.169 Y99.815
G1 F1200 X109.729 Y102.375 E108.0272
G1 X109.799 Y102.445
G0 F4500 X109.729 Y102.941
G1 F1200 X107.169 Y100.38 E108.20786
G1 X107.099 Y100.31
G0 F4500 X107.169 Y100.946
G1 F1200 X109.729 Y103.506 E108.38848
G1 X109.799 Y103.576
G0 F4500 X109.729 Y104.072
G1 F1200 X107.169 Y101.512 E108.5691
G1 X107.099 Y101.442
G0 F4500 X107.169 Y102.077
G1 F1200 X109.729 Y104.638 E108.74976
G1 X109.799 Y104.708
G0 F4500 X109.729 Y105.204
G1 F1200 X107.169 Y102.643 E108.93041
G1 X107.099 Y102.573
G0 F4500 X107.169 Y103.209
G1 F1200 X109.729 Y105.769 E109.11104
G1 X109.799 Y105.839
G0 F4500 X109.729 Y106.335
G1 F1200 X107.169 Y103.774 E109.29169
G1 X107.099 Y103.704
G0 F4500 X107.169 Y104.34
G1 F1200 X109.729 Y106.901 E109.47235
G1 X109.799 Y106.971
G0 F4500 X109.729 Y107.466
G1 F1200 X107.169 Y104.906 E109.65297
G1 X107.099 Y104.836
G0 F4500 X107.169 Y105.472
G1 F1200 X109.729 Y108.032 E109.83359
G1 X109.799 Y108.102
G0 F4500 X109.729 Y108.598
G1 F1200 X107.169 Y106.037 E110.01425
G1 X107.099 Y105.967
G0 F4500 X107.169 Y106.603
G1 F1200 X109.729 Y109.163 E110.19487
G1 X109.799 Y109.233
G0 F4500 X109.729 Y109.729
G1 F1200 X107.169 Y107.169 E110.3755
G1 X107.099 Y107.099
G0 F4500 X107.169 Y107.734
G1 F1200 X109.729 Y110.295 E110.55615
G1 X109.799 Y110.365
G0 F4500 X109.729 Y110.86
G1 F1200 X107.169 Y108.3 E110.73677
G1 X107.099 Y108.23
G0 F4500 X107.169 Y108.866
G1 F1200 X109.729 Y111.426 E110.9174
G1 X109.799 Y111.496
G0 F4500 X109.729 Y111.992
G1 F1200 X107.169 Y109.431 E111.09805
G1 X107.099 Y109.361
G0 F4500 X107.169 Y109.997
G1 F1200 X109.729 Y112.557 E111.27867
G1 X109.799 Y112.627
G0 F4500 X109.729 Y113.123
G1 F1200 X107.169 Y110.563 E111.4593
G1 X107.099 Y110.493
G0 F4500 X107.169 Y111.128
G1 F1200 X109.729 Y113.689 E111.63995
G1 X109.799 Y113.759
G0 F4500 X109.729 Y114.255
G1 F1200 X107.169 Y111.694 E111.82061
G1 X107.099 Y111.624
G0 F4500 X107.169 Y112.26
G1 F1200 X109.729 Y114.82 E112.00123
G1 X109.799 Y114.89
G0 F4500 X109.729 Y115.386
G1 F1200 X107.169 Y112.825 E112.18189
G1 X107.099 Y112.755
G0 F4500 X107.169 Y113.391
G1 F1200 X109.729 Y115.952 E112.36255
G1 X109.799 Y116.022
G0 F4500 X109.729 Y116.517
G1 F1200 X107.169 Y113.957 E112.54317
G1 X107.099 Y113.887
G0 F4500 X107.169 Y114.523
G1 F1200 X109.729 Y117.083 E112.72379
G1 X109.799 Y117.153
G0 F4500 X109.729 Y117.649
G1 F1200 X107.169 Y115.088 E112.90445
G1 X107.099 Y115.018
G0 F4500 X107.169 Y115.654
G1 F1200 X109.729 Y118.214 E113.08507
G1 X109.799 Y118.284
G0 F4500 X109.729 Y118.78
G1 F1200 X107.169 Y116.22 E113.26569
G1 X107.099 Y116.15
G0 F4500 X107.169 Y116.785
G1 F1200 X109.729 Y119.346 E113.44635
G1 X109.799 Y119.416
G0 F4500 X109.729 Y119.911
G1 F1200 X107.169 Y117.351 E113.62697
G1 X107.099 Y117.281
G0 F4500 X107.169 Y117.917
G1 F1200 X109.729 Y120.477 E113.80759
G1 X109.799 Y120.547
G0 F4500 X109.729 Y121.043
G1 F1200 X107.169 Y118.482 E113.98825
G1 X107.099 Y118.412
G0 F4500 X107.169 Y119.048
G1 F1200 X109.729 Y121.608 E114.16887
G1 X109.799 Y121.678
G0 F4500 X109.729 Y122.174
G1 F1200 X107.169 Y119.614 E114.34949
G1 X107.099 Y119.544
G0 F4500 X107.169 Y120.179
G1 F1200 X109.729 Y122.74 E114.53015
G1 X109.799 Y122.81
G0 F4500 X109.729 Y123.305
G1 F1200 X107.169 Y120.745 E114.71077
G1 X107.099 Y120.675
G0 F4500 X107.169 Y121.311
G1 F1200 X109.729 Y123.871 E114.89139
G1 X109.799 Y123.941
G0 F4500 X109.729 Y124.437
G1 F1200 X107.169 Y121.876 E115.07205
G1 X107.099 Y121.806
G0 F4500 X107.169 Y122.442
G1 F1200 X109.729 Y125.003 E115.25271
G1 X109.799 Y125.073
G0 F4500 X109.729 Y125.568
