;FLAVOR:Marlin
;TIME:3625
;Filament used: 2.70561m
;Layer height: 0.2
;Generated with Cura_SteamEngine 3.2.1
M190 S50
M104 S210
M109 S210
M82 ;absolute extrusion mode
G28 ;Home
G1 Z15.0 F6000 ;Move the platform down 15mm
;Prime the extruder
G92 E0
G1 F200 E3
G92 E0
;LAYER_COUNT:98
;LAYER:0
M107
G0 F3600 X96.263 Y46.543 Z0.3
;TYPE:SKIRT
G1 F1800 X96.672 Y45.933 E0.03706
G1 X100.067 Y41.938 E0.30164
G1 X100.423 Y41.58 E0.32712
G1 X100.832 Y41.282 E0.35265
G1 X101.283 Y41.053 E0.37818
G1 X101.764 Y40.897 E0.4037
G1 X102.505 Y40.81 E0.44135
G1 X107.495 Y40.81 E0.69317
G1 X107.999 Y40.85 E0.71869
G1 X108.49 Y40.969 E0.74418
G1 X108.957 Y41.163 E0.7697
G1 X109.387 Y41.429 E0.79522
G1 X109.933 Y41.937 E0.83286
G1 X113.328 Y45.93 E1.09735
G1 X113.624 Y46.34 E1.12287
G1 X113.852 Y46.791 E1.14838
G1 X114.006 Y47.273 E1.17391
G1 X114.09 Y48.003 E1.21099
G1 X114.091 Y165.991 E7.16529
G1 X114.051 Y166.495 E7.19081
G1 X113.932 Y166.986 E7.2163
G1 X113.738 Y167.453 E7.24182
G1 X113.472 Y167.883 E7.26734
G1 X113.142 Y168.266 E7.29285
G1 X112.755 Y168.592 E7.31839
G1 X112.322 Y168.853 E7.3439
G1 X111.854 Y169.043 E7.36939
G1 X111.361 Y169.156 E7.39492
G1 X110.891 Y169.191 E7.4187
G1 X99.109 Y169.191 E8.01329
G1 X98.605 Y169.151 E8.0388
G1 X98.114 Y169.032 E8.0643
G1 X97.647 Y168.838 E8.08982
G1 X97.217 Y168.572 E8.11533
G1 X96.834 Y168.242 E8.14084
G1 X96.508 Y167.855 E8.16638
G1 X96.247 Y167.422 E8.19189
G1 X96.057 Y166.954 E8.21738
G1 X95.944 Y166.461 E8.24291
G1 X95.909 Y165.991 E8.26669
G1 X95.91 Y48.005 E14.22089
G1 X95.95 Y47.501 E14.24641
G1 X96.069 Y47.01 E14.2719
G1 X96.263 Y46.543 E14.29742
G1 F1500 E7.79742
G0 F3600 X103.587 Y45.682
G0 X104.3 Y44.602
G0 X104.436 Y44.65
G0 X104.298 Y44.607
;TYPE:WALL-INNER
G1 F1500 E14.29742
G1 F1800 X104.281 Y44.6 E14.29835
G1 X104.298 Y44.6
G1 X104.637 Y44.6 E14.31543
G1 X105.364 Y44.6 E14.35212
G1 X105.692 Y44.6 E14.36867
G1 X105.723 Y44.6 E14.37024
G1 X105.692 Y44.613
G1 X105.364 Y44.868 E14.37701
G1 X105.11 Y45.197 E14.39798
G1 X105.078 Y45.274 E14.40219
G1 X105 Y45.463 E14.41251
G1 X104.922 Y45.274
G1 X104.89 Y45.197
G1 X104.637 Y44.868 E14.43345
G1 X104.298 Y44.607 E14.43512
G1 F1500 E7.93512
G0 F3600 X104.436 Y44.65
G0 X104.907 Y45.187
G0 X105 Y47.557
G0 X105.02 Y47.846
G0 X105.106 Y47.797
G1 F1500 E14.43512
G1 F1800 X105.179 Y47.893 E14.4412
G1 X105.36 Y48.128 E14.45617
G1 X105.689 Y48.384 E14.47721
G1 X106.076 Y48.547 E14.4984
G1 X106.454 Y48.598 E14.51765
G1 X110.3 Y48.6 E14.71174
G1 X110.3 Y165.4 E20.60609
G1 X99.7 Y165.4 E21.14102
G1 X99.7 Y48.6 E27.03537
G1 X103.545 Y48.599 E27.2294
G1 X103.923 Y48.548 E27.24865
G1 X104.31 Y48.385 E27.26984
G1 X104.639 Y48.129 E27.29088
G1 X104.82 Y47.894 E27.30585
G1 X104.893 Y47.798 E27.31194
G1 X104.923 Y47.724 E27.31597
G1 X105 Y47.537 E27.32617
G1 X105.076 Y47.723
G1 X105.106 Y47.797
G1 F1500 E20.82617
G0 F3600 X105.02 Y47.846
G0 X105 Y47.557
G0 X105 Y45.443
G0 X104.998 Y45.208
G0 X105.459 Y45.399
;TYPE:WALL-OUTER
G1 F1500 E27.32617
G1 F1800 X105.341 Y45.686 E27.34183
G1 X105.301 Y45.981 E27.35686
G1 X105.3 Y47.015 E27.40904
G1 X105.339 Y47.309 E27.424
G1 X105.456 Y47.596 E27.43965
G1 X105.646 Y47.844 E27.45541
G1 X105.893 Y48.036 E27.4712
G1 X106.182 Y48.158 E27.48703
G1 X106.481 Y48.198 E27.50225
G1 X110.7 Y48.2 E27.71517
G1 X110.7 Y165.8 E33.64989
G1 X99.3 Y165.8 E34.22519
G1 X99.3 Y48.2 E40.15991
G1 X103.518 Y48.199 E40.37277
G1 X103.817 Y48.159 E40.388
G1 X104.106 Y48.037 E40.40383
G1 X104.353 Y47.845 E40.41961
G1 X104.543 Y47.597 E40.43538
G1 X104.661 Y47.308 E40.45113
G1 X104.7 Y46.99 E40.4673
G1 X104.7 Y45.982 E40.51817
G1 X104.66 Y45.686 E40.53324
G1 X104.541 Y45.399 E40.54892
G1 X104.352 Y45.153 E40.56458
G1 X104.097 Y44.957 E40.58081
G1 X103.809 Y44.839 E40.59652
G1 X103.513 Y44.8 E40.61158
G1 X102.7 Y44.8 E40.65261
G1 X102.7 Y44.2 E40.68289
G1 X107.3 Y44.2 E40.91503
G1 X107.3 Y44.8 E40.94531
G1 X106.487 Y44.8 E40.98634
G1 X106.192 Y44.838 E41.00135
G1 X105.895 Y44.962 E41.01759
G1 X105.649 Y45.153 E41.03331
G1 X105.459 Y45.399 E41.04899
G0 F3600 X105.383 Y45.584
G1 F1500 E34.54899
G0 F3600 X105.01 Y45.357
G0 X105 Y45.443
G0 X105 Y47.557
G0 X105 Y48.299
;TYPE:SKIN
G1 F1500 E41.04899
G1 F1800 X105.081 Y48.405 E41.05573
G1 X105.49 Y48.723 E41.08187
G1 X105.973 Y48.927 E41.10833
G1 X106.428 Y48.988 E41.1315
G1 X109.91 Y48.99 E41.30722
G1 X109.91 Y165.01 E47.1622
G1 X100.09 Y165.01 E47.65777
G1 X100.09 Y48.99 E53.51276
G1 X103.571 Y48.989 E53.68843
G1 X104.026 Y48.928 E53.71159
G1 X104.509 Y48.724 E53.73805
G1 X104.918 Y48.406 E53.7642
G1 X105 Y48.299 E53.771
G0 F3600 X109.73 Y49.767
G1 F1800 X109.132 Y49.17 E53.81364
G1 X109.062 Y49.1
G0 F3600 X108.566 Y49.169
G1 F1800 X109.73 Y50.333 E53.89672
G1 X109.8 Y50.403
G0 F3600 X109.73 Y50.898
G1 F1800 X108 Y49.169 E54.02015
G1 X107.93 Y49.099
G0 F3600 X107.434 Y49.168
G1 F1800 X109.73 Y51.464 E54.18401
G1 X109.8 Y51.534
G0 F3600 X109.73 Y52.03
G1 F1800 X106.868 Y49.168 E54.38827
G1 X106.798 Y49.098
G0 F3600 X106.285 Y49.15
G1 F1800 X109.73 Y52.596 E54.63417
G1 X109.8 Y52.666
G0 F3600 X109.73 Y53.161
G1 F1800 X105.486 Y48.917 E54.93706
G1 X105.416 Y48.847
G0 F3600 X104.759 Y48.757
G1 F1800 X109.73 Y53.727 E55.2918
G1 X109.8 Y53.797
G0 F3600 X109.73 Y54.293
G1 F1800 X104.402 Y48.965 E55.67205
G1 X104.332 Y48.895
G0 F3600 X103.986 Y49.114
G1 F1800 X109.73 Y54.858 E56.08199
G1 X109.8 Y54.928
G0 F3600 X109.73 Y55.424
G1 F1800 X103.475 Y49.169 E56.5284
G1 X103.405 Y49.099
G0 F3600 X102.909 Y49.169
G1 F1800 X109.73 Y55.99 E57.01521
G1 X109.8 Y56.06
G0 F3600 X109.73 Y56.555
G1 F1800 X102.343 Y49.169 E57.54237
G1 X102.273 Y49.099
G0 F3600 X101.778 Y49.17
G1 F1800 X109.73 Y57.121 E58.10986
G1 X109.8 Y57.191
G0 F3600 X109.73 Y57.687
G1 F1800 X101.213 Y49.17 E58.71771
G1 X101.143 Y49.1
G0 F3600 X100.647 Y49.17
G1 F1800 X109.73 Y58.252 E59.36592
G1 X109.8 Y58.322
G0 F3600 X109.73 Y58.818
G1 F1800 X100.269 Y49.358 E60.0411
G1 X100.199 Y49.288
G0 F3600 X100.269 Y49.923
G1 F1800 X109.73 Y59.384 E60.71632
G1 X109.8 Y59.454
G0 F3600 X109.73 Y59.949
G1 F1800 X100.269 Y50.489 E61.3915
G1 X100.199 Y50.419
G0 F3600 X100.269 Y51.055
G1 F1800 X109.73 Y60.515 E62.06669
G1 X109.8 Y60.585
G0 F3600 X109.73 Y61.081
G1 F1800 X100.269 Y51.62 E62.74191
G1 X100.199 Y51.55
G0 F3600 X100.269 Y52.186
G1 F1800 X109.73 Y61.646 E63.41709
G1 X109.8 Y61.716
G0 F3600 X109.73 Y62.212
G1 F1800 X100.269 Y52.752 E64.09227
G1 X100.199 Y52.682
G0 F3600 X100.269 Y53.317
G1 F1800 X109.73 Y62.778 E64.76749
G1 X109.8 Y62.848
G0 F3600 X109.73 Y63.344
G1 F1800 X100.269 Y53.883 E65.44271
G1 X100.199 Y53.813
G0 F3600 X100.269 Y54.449
G1 F1800 X109.73 Y63.909 E66.1179
G1 X109.8 Y63.979
G0 F3600 X109.73 Y64.475
G1 F1800 X100.269 Y55.015 E66.79308
G1 X100.199 Y54.945
G0 F3600 X100.269 Y55.58
G1 F1800 X109.73 Y65.041 E67.4683
G1 X109.8 Y65.111
G0 F3600 X109.73 Y65.606
G1 F1800 X100.269 Y56.146 E68.14348
G1 X100.199 Y56.076
G0 F3600 X100.269 Y56.712
G1 F1800 X109.73 Y66.172 E68.81867
G1 X109.8 Y66.242
G0 F3600 X109.73 Y66.738
G1 F1800 X100.269 Y57.277 E69.49389
G1 X100.199 Y57.207
G0 F3600 X100.269 Y57.843
G1 F1800 X109.73 Y67.303 E70.16907
G1 X109.8 Y67.373
G0 F3600 X109.73 Y67.869
G1 F1800 X100.269 Y58.409 E70.84425
G1 X100.199 Y58.339
G0 F3600 X100.269 Y58.974
G1 F1800 X109.73 Y68.435 E71.51947
G1 X109.8 Y68.505
G0 F3600 X109.73 Y69
G1 F1800 X100.269 Y59.54 E72.19466
G1 X100.199 Y59.47
G0 F3600 X100.269 Y60.106
G1 F1800 X109.73 Y69.566 E72.86984
G1 X109.8 Y69.636
G0 F3600 X109.73 Y70.132
G1 F1800 X100.269 Y60.671 E73.54506
G1 X100.199 Y60.601
G0 F3600 X100.269 Y61.237
G1 F1800 X109.73 Y70.697 E74.22024
G1 X109.8 Y70.767
G0 F3600 X109.73 Y71.263
G1 F1800 X100.269 Y61.803 E74.89543
G1 X100.199 Y61.733
G0 F3600 X100.269 Y62.368
G1 F1800 X109.73 Y71.829 E75.57065
G1 X109.8 Y71.899
G0 F3600 X109.73 Y72.395
G1 F1800 X100.269 Y62.934 E76.24587
G1 X100.199 Y62.864
G0 F3600 X100.269 Y63.5
G1 F1800 X109.73 Y72.96 E76.92105
G1 X109.8 Y73.03
G0 F3600 X109.73 Y73.526
G1 F1800 X100.269 Y64.065 E77.59627
G1 X100.199 Y63.995
G0 F3600 X100.269 Y64.631
G1 F1800 X109.73 Y74.092 E78.27149
G1 X109.8 Y74.162
G0 F3600 X109.73 Y74.657
G1 F1800 X100.269 Y65.197 E78.94667
G1 X100.199 Y65.127
G0 F3600 X100.269 Y65.763
G1 F1800 X109.73 Y75.223 E79.62186
G1 X109.8 Y75.293
G0 F3600 X109.73 Y75.789
G1 F1800 X100.269 Y66.328 E80.29707
G1 X100.199 Y66.258
G0 F3600 X100.269 Y66.894
G1 F1800 X109.73 Y76.354 E80.97226
G1 X109.8 Y76.424
G0 F3600 X109.73 Y76.92
G1 F1800 X100.269 Y67.46 E81.64744
G1 X100.199 Y67.39
G0 F3600 X100.269 Y68.025
G1 F1800 X109.73 Y77.486 E82.32266
G1 X109.8 Y77.556
G0 F3600 X109.73 Y78.051
G1 F1800 X100.269 Y68.591 E82.99785
G1 X100.199 Y68.521
G0 F3600 X100.269 Y69.157
G1 F1800 X109.73 Y78.617 E83.67303
G1 X109.8 Y78.687
G0 F3600 X109.73 Y79.183
G1 F1800 X100.269 Y69.722 E84.34825
G1 X100.199 Y69.652
G0 F3600 X100.269 Y70.288
G1 F1800 X109.73 Y79.748 E85.02343
G1 X109.8 Y79.818
G0 F3600 X109.73 Y80.314
G1 F1800 X100.269 Y70.854 E85.69862
G1 X100.199 Y70.784
G0 F3600 X100.269 Y71.419
G1 F1800 X109.73 Y80.88 E86.37384
G1 X109.8 Y80.95
G0 F3600 X109.73 Y81.445
G1 F1800 X100.269 Y71.985 E87.04902
G1 X100.199 Y71.915
G0 F3600 X100.269 Y72.551
G1 F1800 X109.73 Y82.011 E87.7242
G1 X109.8 Y82.081
G0 F3600 X109.73 Y82.577
G1 F1800 X100.269 Y73.116 E88.39942
G1 X100.199 Y73.046
G0 F3600 X100.269 Y73.682
G1 F1800 X109.73 Y83.143 E89.07464
G1 X109.8 Y83.213
G0 F3600 X109.73 Y83.708
G1 F1800 X100.269 Y74.248 E89.74983
G1 X100.199 Y74.178
G0 F3600 X100.269 Y74.814
G1 F1800 X109.73 Y84.274 E90.42501
G1 X109.8 Y84.344
G0 F3600 X109.73 Y84.84
G1 F1800 X100.269 Y75.379 E91.10023
G1 X100.199 Y75.309
G0 F3600 X100.269 Y75.945
G1 F1800 X109.73 Y85.405 E91.77541
G1 X109.8 Y85.475
G0 F3600 X109.73 Y85.971
G1 F1800 X100.269 Y76.511 E92.4506
G1 X100.199 Y76.441
G0 F3600 X100.269 Y77.076
G1 F1800 X109.73 Y86.537 E93.12582
G1 X109.8 Y86.607
G0 F3600 X109.73 Y87.102
G1 F1800 X100.269 Y77.642 E93.801
G1 X100.199 Y77.572
G0 F3600 X100.269 Y78.208
G1 F1800 X109.73 Y87.668 E94.47618
G1 X109.8 Y87.738
G0 F3600 X109.73 Y88.234
G1 F1800 X100.269 Y78.773 E95.1514
G1 X100.199 Y78.703
G0 F3600 X100.269 Y79.339
G1 F1800 X109.73 Y88.799 E95.82659
G1 X109.8 Y88.869
G0 F3600 X109.73 Y89.365
G1 F1800 X100.269 Y79.905 E96.50177
G1 X100.199 Y79.835
G0 F3600 X100.269 Y80.47
G1 F1800 X109.73 Y89.931 E97.17699
G1 X109.8 Y90.001
G0 F3600 X109.73 Y90.496
G1 F1800 X100.269 Y81.036 E97.85217
G1 X100.199 Y80.966
G0 F3600 X100.269 Y81.602
G1 F1800 X109.73 Y91.062 E98.52736
G1 X109.8 Y91.132
G0 F3600 X109.73 Y91.628
G1 F1800 X100.269 Y82.167 E99.20258
G1 X100.199 Y82.097
G0 F3600 X100.269 Y82.733
G1 F1800 X109.73 Y92.193 E99.87776
G1 X109.8 Y92.263
G0 F3600 X109.73 Y92.759
G1 F1800 X100.269 Y83.299 E100.55294
G1 X100.199 Y83.229
G0 F3600 X100.269 Y83.864
G1 F1800 X109.73 Y93.325 E101.22816
G1 X109.8 Y93.395
G0 F3600 X109.73 Y93.891
G1 F1800 X100.269 Y84.43 E101.90338
G1 X100.199 Y84.36
G0 F3600 X100.269 Y84.996
G1 F1800 X109.73 Y94.456 E102.57857
G1 X109.8 Y94.526
G0 F3600 X109.73 Y95.022
G1 F1800 X100.269 Y85.562 E103.25375
G1 X100.199 Y85.492
G0 F3600 X100.269 Y86.127
G1 F1800 X109.73 Y95.588 E103.92897
G1 X109.8 Y95.658
G0 F3600 X109.73 Y96.153
G1 F1800 X100.269 Y86.693 E104.60415
G1 X100.199 Y86.623
G0 F3600 X100.269 Y87.259
G1 F1800 X109.73 Y96.719 E105.27934
G1 X109.8 Y96.789
G0 F3600 X109.73 Y97.285
G1 F1800 X100.269 Y87.824 E105.95456
G1 X100.199 Y87.754
G0 F3600 X100.269 Y88.39
G1 F1800 X109.73 Y97.85 E106.62974
G1 X109.8 Y97.92
G0 F3600 X109.73 Y98.416
G1 F1800 X100.269 Y88.956 E107.30492
G1 X100.199 Y88.886
G0 F3600 X100.269 Y89.521
G1 F1800 X109.73 Y98.982 E107.98014
G1 X109.8 Y99.052
G0 F3600 X109.73 Y99.547
G1 F1800 X100.269 Y90.087 E108.65533
G1 X100.199 Y90.017
G0 F3600 X100.269 Y90.653
G1 F1800 X109.73 Y100.113 E109.33051
G1 X109.8 Y100.183
G0 F3600 X109.73 Y100.679
G1 F1800 X100.269 Y91.218 E110.00573
G1 X100.199 Y91.148
G0 F3600 X100.269 Y91.784
G1 F1800 X109.73 Y101.244 E110.68091
G1 X109.8 Y101.314
G0 F3600 X109.73 Y101.81
G1 F1800 X100.269 Y92.35 E111.3561
G1 X100.199 Y92.28
G0 F3600 X100.269 Y92.915
G1 F1800 X109.73 Y102.376 E112.03132
G1 X109.8 Y102.446
G0 F3600 X109.73 Y102.942
G1 F1800 X100.269 Y93.481 E112.70654
G1 X100.199 Y93.411
G0 F3600 X100.269 Y94.047
G1 F1800 X109.73 Y103.507 E113.38172
G1 X109.8 Y103.577
G0 F3600 X109.73 Y104.073
G1 F1800 X100.269 Y94.613 E114.0569
G1 X100.199 Y94.543
G0 F3600 X100.269 Y95.178
G1 F1800 X109.73 Y104.639 E114.73212
G1 X109.8 Y104.709
G0 F3600 X109.73 Y105.204
G1 F1800 X100.269 Y95.744 E115.40731
G1 X100.199 Y95.674
G0 F3600 X100.269 Y96.31
G1 F1800 X109.73 Y105.77 E116.08249
G1 X109.8 Y105.84
G0 F3600 X109.73 Y106.336
G1 F1800 X100.269 Y96.875 E116.75771
G1 X100.199 Y96.805
G0 F3600 X100.269 Y97.441
G1 F1800 X109.73 Y106.901 E117.43289
G1 X109.8 Y106.971
G0 F3600 X109.73 Y107.467
G1 F1800 X100.269 Y98.007 E118.10808
G1 X100.199 Y97.937
G0 F3600 X100.269 Y98.572
G1 F1800 X109.73 Y108.033 E118.7833
G1 X109.8 Y108.103
G0 F3600 X109.73 Y108.598
G1 F1800 X100.269 Y99.138 E119.45848
G1 X100.199 Y99.068
G0 F3600 X100.269 Y99.704
G1 F1800 X109.73 Y109.164 E120.13366
G1 X109.8 Y109.234
G0 F3600 X109.73 Y109.73
G1 F1800 X100.269 Y100.269 E120.80888
G1 X100.199 Y100.199
G0 F3600 X100.269 Y100.835
G1 F1800 X109.73 Y110.295 E121.48407
G1 X109.8 Y110.365
G0 F3600 X109.73 Y110.861
G1 F1800 X100.269 Y101.401 E122.15925
G1 X100.199 Y101.331
G0 F3600 X100.269 Y101.966
G1 F1800 X109.73 Y111.427 E122.83447
G1 X109.8 Y111.497
G0 F3600 X109.73 Y111.992
G1 F1800 X100.269 Y102.532 E123.50965
G1 X100.199 Y102.462
G0 F3600 X100.269 Y103.098
G1 F1800 X109.73 Y112.558 E124.18484
G1 X109.8 Y112.628
G0 F3600 X109.73 Y113.124
G1 F1800 X100.269 Y103.663 E124.86006
G1 X100.199 Y103.593
G0 F3600 X100.269 Y104.229
G1 F1800 X109.73 Y113.69 E125.53528
G1 X109.8 Y113.76
G0 F3600 X109.73 Y114.255
G1 F1800 X100.269 Y104.795 E126.21046
G1 X100.199 Y104.725
G0 F3600 X100.269 Y105.361
G1 F1800 X109.73 Y114.821 E126.88564
G1 X109.8 Y114.891
G0 F3600 X109.73 Y115.387
G1 F1800 X100.269 Y105.926 E127.56086
G1 X100.199 Y105.856
G0 F3600 X100.269 Y106.492
G1 F1800 X109.73 Y115.952 E128.23605
G1 X109.8 Y116.022
G0 F3600 X109.73 Y116.518
G1 F1800 X100.269 Y107.058 E128.91123
G1 X100.199 Y106.988
G0 F3600 X100.269 Y107.623
G1 F1800 X109.73 Y117.084 E129.58645
G1 X109.8 Y117.154
G0 F3600 X109.73 Y117.649
G1 F1800 X100.269 Y108.189 E130.26163
G1 X100.199 Y108.119
G0 F3600 X100.269 Y108.755
G1 F1800 X109.73 Y118.215 E130.93682
G1 X109.8 Y118.285
G0 F3600 X109.73 Y118.781
G1 F1800 X100.269 Y109.32 E131.61204
G1 X100.199 Y109.25
G0 F3600 X100.269 Y109.886
G1 F1800 X109.73 Y119.346 E132.28722
G1 X109.8 Y119.416
G0 F3600 X109.73 Y119.912
G1 F1800 X100.269 Y110.452 E132.9624
G1 X100.199 Y110.382
G0 F3600 X100.269 Y111.017
G1 F1800 X109.73 Y120.478 E133.63762
G1 X109.8 Y120.548
G0 F3600 X109.73 Y121.043
G1 F1800 X100.269 Y111.583 E134.31281
G1 X100.199 Y111.513
G0 F3600 X100.269 Y112.149
G1 F1800 X109.73 Y121.609 E134.98799
G1 X109.8 Y121.679
G0 F3600 X109.73 Y122.175
G1 F1800 X100.269 Y112.714 E135.66321
G1 X100.199 Y112.644
G0 F3600 X100.269 Y113.28
G1 F1800 X109.73 Y122.741 E136.33843
G1 X109.8 Y122.811
G0 F3600 X109.73 Y123.306
G1 F1800 X100.269 Y113.846 E137.01361
G1 X100.199 Y113.776
G0 F3600 X100.269 Y114.411
G1 F1800 X109.73 Y123.872 E137.68883
G1 X109.8 Y123.942
G0 F3600 X109.73 Y124.438
G1 F1800 X100.269 Y114.977 E138.36405
G1 X100.199 Y114.907
G0 F3600 X100.269 Y115.543
G1 F1800 X109.73 Y125.003 E139.03924
G1 X109.8 Y125.073
G0 F3600 X109.73 Y125.569
G1 F1800 X100.269 Y116.109 E139.71442
G1 X100.199 Y116.039
G0 F3600 X100.269 Y116.674
G1 F1800 X109.73 Y126.135 E140.38964
G1 X109.8 Y126.205
G0 F3600 X109.73 Y126.7
G1 F1800 X100.269 Y117.24 E141.06482
G1 X100.199 Y117.17
G0 F3600 X100.269 Y117.806
G1 F1800 X109.73 Y127.266 E141.74001
G1 X109.8 Y127.336
G0 F3600 X109.73 Y127.832
G1 F1800 X100.269 Y118.371 E142.41523
G1 X100.199 Y118.301
G0 F3600 X100.269 Y118.937
G1 F1800 X109.73 Y128.397 E143.09041
G1 X109.8 Y128.467
G0 F3600 X109.73 Y128.963
G1 F1800 X100.269 Y119.503 E143.76559
G1 X100.199 Y119.433
G0 F3600 X100.269 Y120.068
G1 F1800 X109.73 Y129.529 E144.44081
