;FLAVOR:Marlin
;TIME:6202
;Filament used: 5.27634m
;Layer height: 0.2
;Generated with Cura_SteamEngine 3.2.1
M190 S50
M104 S210
M109 S210
M82 ;absolute extrusion mode
G28 ;Home
G1 Z15.0 F6000 ;Move the platform down 15mm
;Prime the extruder
G92 E0
G1 F200 E3
G92 E0
;LAYER_COUNT:98
;LAYER:0
M107
G0 F3600 X78.363 Y46.546 Z0.3
;TYPE:SKIRT
G1 F1800 X78.629 Y46.116 E0.02552
G1 X78.959 Y45.733 E0.05103
G1 X79.346 Y45.407 E0.07657
G1 X79.779 Y45.146 E0.10208
G1 X80.247 Y44.956 E0.12757
G1 X80.673 Y44.853 E0.14969
G1 X86.548 Y43.852 E0.45044
G1 X91.865 Y42.624 E0.72583
G1 X97.595 Y40.942 E1.0272
G1 X98.09 Y40.838 E1.05272
G1 X98.496 Y40.812 E1.07325
G1 X111.503 Y40.812 E1.72966
G1 X112.007 Y40.852 E1.75517
G1 X112.461 Y40.959 E1.77871
G1 X114.252 Y41.521 E1.87344
G1 X119.553 Y42.978 E2.15088
G1 X124.934 Y44.137 E2.42866
G1 X129.287 Y44.848 E2.65124
G1 X129.778 Y44.969 E2.67676
G1 X130.244 Y45.165 E2.70228
G1 X130.673 Y45.432 E2.72778
G1 X131.054 Y45.764 E2.75328
G1 X131.379 Y46.152 E2.77882
G1 X131.638 Y46.586 E2.80433
G1 X131.826 Y47.055 E2.82983
G1 X131.938 Y47.548 E2.85534
G1 X131.971 Y48.005 E2.87846
G1 X131.991 Y165.99 E8.83261
G1 X131.951 Y166.494 E8.85813
G1 X131.832 Y166.986 E8.88367
G1 X131.638 Y167.452 E8.90914
G1 X131.372 Y167.883 E8.9347
G1 X131.042 Y168.265 E8.96018
G1 X130.656 Y168.592 E8.98571
G1 X130.223 Y168.853 E9.01122
G1 X129.754 Y169.043 E9.03676
G1 X129.262 Y169.156 E9.06223
G1 X128.791 Y169.191 E9.08607
G1 X81.209 Y169.191 E11.48731
G1 X80.705 Y169.151 E11.51282
G1 X80.214 Y169.032 E11.53832
G1 X79.747 Y168.838 E11.56384
G1 X79.317 Y168.572 E11.58936
G1 X78.934 Y168.242 E11.61487
G1 X78.608 Y167.855 E11.6404
G1 X78.347 Y167.422 E11.66592
G1 X78.157 Y166.954 E11.69141
G1 X78.044 Y166.461 E11.71693
G1 X78.009 Y165.991 E11.74072
G1 X78.01 Y48.008 E17.69476
G1 X78.05 Y47.504 E17.72028
G1 X78.169 Y47.013 E17.74578
G1 X78.363 Y46.546 E17.7713
G1 F1500 E11.2713
G0 F3600 X101.665 Y45.713
G0 X102.348 Y44.62
G0 X102.629 Y44.814
G0 X103.148 Y45.562
G0 X103.052 Y45.587
;TYPE:WALL-INNER
G1 F1500 E17.7713
G1 F1800 X102.887 Y45.193 E17.79285
G1 X102.717 Y44.973 E17.80688
G1 X102.633 Y44.864 E17.81383
G1 X102.303 Y44.61 E17.83484
G1 X102.279 Y44.6 E17.83615
G1 X102.303 Y44.6
G1 X102.633 Y44.6
G1 X102.771 Y44.6 E17.84206
G1 X107.23 Y44.6 E18.06708
G1 X107.364 Y44.6 E18.07385
G1 X107.692 Y44.6 E18.0904
G1 X107.723 Y44.6 E18.09196
G1 X107.692 Y44.613
G1 X107.364 Y44.868 E18.09874
G1 X107.282 Y44.974 E18.1045
G1 X107.11 Y45.197 E18.11871
G1 X106.951 Y45.582 E18.13973
G1 X106.9 Y45.972 E18.15958
G1 X106.901 Y46.546 E18.18855
G1 X106.967 Y47.048 E18.2141
G1 X107.178 Y47.554 E18.24177
G1 X107.511 Y47.989 E18.26941
G1 X107.948 Y48.324 E18.2972
G1 X108.456 Y48.534 E18.32494
G1 X108.961 Y48.6 E18.35064
G1 X128.2 Y48.6 E19.32155
G1 X128.2 Y165.4 E25.21589
G1 X81.8 Y165.4 E27.55748
G1 X81.8 Y48.6 E33.45183
G1 X101.049 Y48.599 E34.42324
G1 X101.555 Y48.53 E34.44901
G1 X102.062 Y48.316 E34.47678
G1 X102.494 Y47.981 E34.50437
G1 X102.826 Y47.546 E34.53198
G1 X103.035 Y47.041 E34.55956
G1 X103.1 Y46.539 E34.58511
G1 X103.1 Y45.961 E34.61428
G1 X103.052 Y45.587 E34.63331
G0 F3600 X102.662 Y45.692
;TYPE:WALL-OUTER
G1 F1800 X102.538 Y45.396 E34.6495
G1 X102.348 Y45.149 E34.66523
G1 X102.101 Y44.959 E34.68096
G1 X101.813 Y44.84 E34.69668
G1 X101.517 Y44.801 E34.71175
G1 X98.7 Y44.8 E34.85391
G1 X98.7 Y44.2 E34.88419
G1 X111.3 Y44.2 E35.52005
G1 X111.3 Y44.8 E35.55033
G1 X108.487 Y44.8 E35.69229
G1 X108.192 Y44.838 E35.7073
G1 X107.895 Y44.962 E35.72354
G1 X107.649 Y45.153 E35.73926
G1 X107.459 Y45.399 E35.75494
G1 X107.341 Y45.686 E35.7706
G1 X107.3 Y45.998 E35.78648
G1 X107.301 Y46.519 E35.81278
G1 X107.357 Y46.943 E35.83436
G1 X107.527 Y47.352 E35.85671
G1 X107.796 Y47.704 E35.87907
G1 X108.149 Y47.974 E35.9015
G1 X108.56 Y48.144 E35.92394
G1 X108.987 Y48.2 E35.94568
G1 X128.6 Y48.2 E36.93545
G1 X128.6 Y165.8 E42.87017
G1 X81.4 Y165.8 E45.25213
G1 X81.4 Y48.2 E51.18685
G1 X101.022 Y48.199 E52.17708
G1 X101.448 Y48.141 E52.19878
G1 X101.858 Y47.968 E52.22124
G1 X102.208 Y47.697 E52.24358
G1 X102.476 Y47.345 E52.2659
G1 X102.645 Y46.937 E52.28819
G1 X102.7 Y46.513 E52.30977
G1 X102.7 Y45.987 E52.33631
G1 X102.662 Y45.692 E52.35132
G0 F3600 X102.585 Y45.507
G0 X103.046 Y45.315
G0 X103.222 Y44.99
;TYPE:SKIN
G1 F1800 X106.777 Y44.99 E52.53072
G1 X106.571 Y45.481 E52.5576
G1 X106.51 Y45.947 E52.58131
G1 X106.511 Y46.572 E52.61285
G1 X106.587 Y47.15 E52.64227
G1 X106.837 Y47.751 E52.67512
G1 X107.232 Y48.267 E52.70792
G1 X107.751 Y48.665 E52.74092
G1 X108.355 Y48.914 E52.77389
G1 X108.936 Y48.99 E52.80346
G1 X127.81 Y48.99 E53.75594
G1 X127.81 Y165.01 E59.61093
G1 X82.19 Y165.01 E61.91316
G1 X82.19 Y48.99 E67.76814
G1 X101.076 Y48.989 E68.72123
G1 X101.659 Y48.91 E68.75092
G1 X102.261 Y48.655 E68.78391
G1 X102.773 Y48.258 E68.81661
G1 X103.167 Y47.743 E68.84933
G1 X103.415 Y47.142 E68.88214
G1 X103.49 Y46.564 E68.91155
G1 X103.49 Y45.936 E68.94325
G1 X103.432 Y45.485 E68.96619
G1 X103.222 Y44.99 E68.99333
G0 F3600 X107.929 Y48.358
G0 X108.446 Y48.572
G0 X108.59 Y48.59
G0 X127.629 Y49.565
G1 F1800 X127.234 Y49.17 E69.02152
G0 F3600 X126.668 Y49.17
G1 F1800 X127.629 Y50.131 E69.0901
G1 X127.699 Y50.201
G0 F3600 X127.629 Y50.696
G1 F1800 X126.103 Y49.17 E69.19901
G1 X126.033 Y49.1
G0 F3600 X125.537 Y49.17
G1 F1800 X127.629 Y51.262 E69.34832
G1 X127.699 Y51.332
G0 F3600 X127.629 Y51.828
G1 F1800 X124.971 Y49.17 E69.53801
G1 X124.901 Y49.1
G0 F3600 X124.406 Y49.17
G1 F1800 X127.629 Y52.393 E69.76804
G1 X127.699 Y52.463
G0 F3600 X127.629 Y52.959
G1 F1800 X123.84 Y49.17 E70.03845
G1 X123.77 Y49.1
G0 F3600 X123.274 Y49.17
G1 F1800 X127.629 Y53.525 E70.34926
G1 X127.699 Y53.595
G0 F3600 X127.629 Y54.09
G1 F1800 X122.709 Y49.17 E70.7004
G1 X122.639 Y49.1
G0 F3600 X122.143 Y49.17
G1 F1800 X127.629 Y54.656 E71.09193
G1 X127.699 Y54.726
G0 F3600 X127.629 Y55.222
G1 F1800 X121.577 Y49.17 E71.52385
G1 X121.507 Y49.1
G0 F3600 X121.012 Y49.17
G1 F1800 X127.629 Y55.787 E71.9961
G1 X127.699 Y55.857
G0 F3600 X127.629 Y56.353
G1 F1800 X120.446 Y49.17 E72.50874
G1 X120.376 Y49.1
G0 F3600 X119.88 Y49.17
G1 F1800 X127.629 Y56.919 E73.06177
G1 X127.699 Y56.989
G0 F3600 X127.629 Y57.484
G1 F1800 X119.315 Y49.17 E73.65513
G1 X119.245 Y49.1
G0 F3600 X118.749 Y49.17
G1 F1800 X127.629 Y58.05 E74.28889
G1 X127.699 Y58.12
G0 F3600 X127.629 Y58.616
G1 F1800 X118.183 Y49.17 E74.96304
G1 X118.113 Y49.1
G0 F3600 X117.618 Y49.17
G1 F1800 X127.629 Y59.182 E75.67754
G1 X127.699 Y59.252
G0 F3600 X127.629 Y59.747
G1 F1800 X117.052 Y49.17 E76.43241
G1 X116.982 Y49.1
G0 F3600 X116.486 Y49.17
G1 F1800 X127.629 Y60.313 E77.22767
G1 X127.699 Y60.383
G0 F3600 X127.629 Y60.879
G1 F1800 X115.92 Y49.17 E78.06333
G1 X115.85 Y49.1
G0 F3600 X115.355 Y49.17
G1 F1800 X127.629 Y61.444 E78.93931
G1 X127.699 Y61.514
G0 F3600 X127.629 Y62.01
G1 F1800 X114.789 Y49.17 E79.85568
G1 X114.719 Y49.1
G0 F3600 X114.223 Y49.17
G1 F1800 X127.629 Y62.576 E80.81245
G1 X127.699 Y62.646
G0 F3600 X127.629 Y63.141
G1 F1800 X113.658 Y49.17 E81.80954
G1 X113.588 Y49.1
G0 F3600 X113.092 Y49.17
G1 F1800 X127.629 Y63.707 E82.84703
G1 X127.699 Y63.777
G0 F3600 X127.629 Y64.273
G1 F1800 X112.526 Y49.17 E83.92491
G1 X112.456 Y49.1
G0 F3600 X111.961 Y49.17
G1 F1800 X127.629 Y64.838 E85.04312
G1 X127.699 Y64.908
G0 F3600 X127.629 Y65.404
G1 F1800 X111.395 Y49.17 E86.20172
G1 X111.325 Y49.1
G0 F3600 X110.829 Y49.17
G1 F1800 X127.629 Y65.97 E87.40071
G1 X127.699 Y66.04
G0 F3600 X127.629 Y66.535
G1 F1800 X110.264 Y49.17 E88.64003
G1 X110.194 Y49.1
G0 F3600 X109.698 Y49.17
G1 F1800 X127.629 Y67.101 E89.91974
G1 X127.699 Y67.171
G0 F3600 X127.629 Y67.667
G1 F1800 X109.132 Y49.17 E91.23985
G1 X109.062 Y49.1
G0 F3600 X108.514 Y49.117
G1 F1800 X127.629 Y68.232 E92.60406
G1 X127.699 Y68.302
G0 F3600 X127.629 Y68.798
G1 F1800 X107.635 Y48.804 E94.03101
G1 X107.565 Y48.734
G0 F3600 X106.696 Y47.864
G1 F1800 X104.001 Y45.169 E94.22335
G1 X103.931 Y45.099
G0 F3600 X103.535 Y45.27
G1 F1800 X127.629 Y69.364 E95.9429
G1 X127.699 Y69.434
G0 F3600 X127.629 Y69.93
G1 F1800 X103.668 Y45.969 E97.65297
G1 X103.598 Y45.899
G0 F3600 X103.668 Y46.534
G1 F1800 X127.629 Y70.495 E99.36304
G1 X127.699 Y70.565
G0 F3600 X127.629 Y71.061
G1 F1800 X103.608 Y47.04 E101.07738
G1 X103.538 Y46.97
G0 F3600 X103.473 Y47.47
G1 F1800 X127.629 Y71.627 E102.8014
G1 X127.699 Y71.697
G0 F3600 X127.629 Y72.192
G1 F1800 X103.3 Y47.863 E104.53773
G1 X103.23 Y47.793
G0 F3600 X103.055 Y48.183
G1 F1800 X127.629 Y72.758 E106.29158
G1 X127.699 Y72.828
G0 F3600 X127.629 Y73.324
G1 F1800 X102.783 Y48.477 E108.06484
G1 X102.713 Y48.407
G0 F3600 X102.464 Y48.724
G1 F1800 X127.629 Y73.889 E109.86084
G1 X127.699 Y73.959
G0 F3600 X127.629 Y74.455
G1 F1800 X102.095 Y48.921 E111.68317
G1 X102.025 Y48.851
G0 F3600 X101.696 Y49.087
G1 F1800 X127.629 Y75.021 E113.53401
G1 X127.699 Y75.091
G0 F3600 X127.629 Y75.586
G1 F1800 X101.197 Y49.154 E115.42042
G1 X101.127 Y49.084
G0 F3600 X100.647 Y49.17
G1 F1800 X127.629 Y76.152 E117.3461
G1 X127.699 Y76.222
G0 F3600 X127.629 Y76.718
G1 F1800 X100.081 Y49.17 E119.31216
G1 X100.011 Y49.1
G0 F3600 X99.516 Y49.17
G1 F1800 X127.629 Y77.283 E121.31855
G1 X127.699 Y77.353
G0 F3600 X127.629 Y77.849
G1 F1800 X98.95 Y49.17 E123.36533
G1 X98.88 Y49.1
G0 F3600 X98.384 Y49.17
G1 F1800 X127.629 Y78.415 E125.45251
G1 X127.699 Y78.485
G0 F3600 X127.629 Y78.98
G1 F1800 X97.819 Y49.17 E127.58001
G1 X97.749 Y49.1
G0 F3600 X97.253 Y49.17
G1 F1800 X127.629 Y79.546 E129.74791
G1 X127.699 Y79.616
G0 F3600 X127.629 Y80.112
G1 F1800 X96.687 Y49.17 E131.9562
G1 X96.617 Y49.1
G0 F3600 X96.121 Y49.17
G1 F1800 X127.629 Y80.678 E134.20488
G1 X127.699 Y80.748
G0 F3600 X127.629 Y81.243
G1 F1800 X95.556 Y49.17 E136.49389
G1 X95.486 Y49.1
G0 F3600 X94.99 Y49.17
G1 F1800 X127.629 Y81.809 E138.8233
G1 X127.699 Y81.879
G0 F3600 X127.629 Y82.375
G1 F1800 X94.424 Y49.17 E141.19309
G1 X94.354 Y49.1
G0 F3600 X93.859 Y49.17
G1 F1800 X127.629 Y82.94 E143.60322
G1 X127.699 Y83.01
G0 F3600 X127.629 Y83.506
G1 F1800 X93.293 Y49.17 E146.05373
G1 X93.223 Y49.1
G0 F3600 X92.727 Y49.17
G1 F1800 X127.629 Y84.072 E148.54464
G1 X127.699 Y84.142
G0 F3600 X127.629 Y84.637
G1 F1800 X92.162 Y49.17 E151.07588
G1 X92.092 Y49.1
G0 F3600 X91.596 Y49.17
G1 F1800 X127.629 Y85.203 E153.64751
G1 X127.699 Y85.273
G0 F3600 X127.629 Y85.769
G1 F1800 X91.03 Y49.17 E156.25953
G1 X90.96 Y49.1
G0 F3600 X90.465 Y49.17
G1 F1800 X127.629 Y86.334 E158.91188
G1 X127.699 Y86.404
G0 F3600 X127.629 Y86.9
G1 F1800 X89.899 Y49.17 E161.60462
G1 X89.829 Y49.1
G0 F3600 X89.333 Y49.17
G1 F1800 X127.629 Y87.466 E164.33775
G1 X127.699 Y87.536
G0 F3600 X127.629 Y88.031
G1 F1800 X88.768 Y49.17 E167.11121
G1 X88.698 Y49.1
G0 F3600 X88.202 Y49.17
G1 F1800 X127.629 Y88.597 E169.92507
G1 X127.699 Y88.667
G0 F3600 X127.629 Y89.163
G1 F1800 X87.636 Y49.17 E172.77932
G1 X87.566 Y49.1
G0 F3600 X87.071 Y49.17
G1 F1800 X127.629 Y89.729 E175.67392
G1 X127.699 Y89.799
G0 F3600 X127.629 Y90.294
G1 F1800 X86.505 Y49.17 E178.60889
G1 X86.435 Y49.1
G0 F3600 X85.939 Y49.17
G1 F1800 X127.629 Y90.86 E181.58425
G1 X127.699 Y90.93
G0 F3600 X127.629 Y91.426
G1 F1800 X85.373 Y49.17 E184.60001
G1 X85.303 Y49.1
G0 F3600 X84.808 Y49.17
G1 F1800 X127.629 Y91.991 E187.65609
G1 X127.699 Y92.061
G0 F3600 X127.629 Y92.557
G1 F1800 X84.242 Y49.17 E190.75256
G1 X84.172 Y49.1
G0 F3600 X83.676 Y49.17
G1 F1800 X127.629 Y93.123 E193.88943
G1 X127.699 Y93.193
G0 F3600 X127.629 Y93.688
G1 F1800 X83.111 Y49.17 E197.06663
G1 X83.041 Y49.1
G0 F3600 X82.545 Y49.17
G1 F1800 X127.629 Y94.254 E200.28421
G1 X127.699 Y94.324
G0 F3600 X127.629 Y94.82
G1 F1800 X82.368 Y49.558 E203.51447
G1 X82.298 Y49.488
G0 F3600 X82.368 Y50.124
G1 F1800 X127.629 Y95.385 E206.74469
G1 X127.699 Y95.455
G0 F3600 X127.629 Y95.951
G1 F1800 X82.368 Y50.69 E209.97491
G1 X82.298 Y50.62
G0 F3600 X82.368 Y51.256
G1 F1800 X127.629 Y96.517 E213.20513
G1 X127.699 Y96.587
G0 F3600 X127.629 Y97.082
G1 F1800 X82.368 Y51.821 E216.43534
G1 X82.298 Y51.751
G0 F3600 X82.368 Y52.387
G1 F1800 X127.629 Y97.648 E219.66556
G1 X127.699 Y97.718
G0 F3600 X127.629 Y98.214
G1 F1800 X82.368 Y52.953 E222.89578
G1 X82.298 Y52.883
G0 F3600 X82.368 Y53.518
G1 F1800 X127.629 Y98.779 E226.126
G1 X127.699 Y98.849
G0 F3600 X127.629 Y99.345
G1 F1800 X82.368 Y54.084 E229.35622
G1 X82.298 Y54.014
G0 F3600 X82.368 Y54.65
G1 F1800 X127.629 Y99.911 E232.58644
G1 X127.699 Y99.981
G0 F3600 X127.629 Y100.477
G1 F1800 X82.368 Y55.215 E235.8167
G1 X82.298 Y55.145
G0 F3600 X82.368 Y55.781
G1 F1800 X127.629 Y101.042 E239.04692
G1 X127.699 Y101.112
G0 F3600 X127.629 Y101.608
G1 F1800 X82.368 Y56.347 E242.27713
G1 X82.298 Y56.277
G0 F3600 X82.368 Y56.912
G1 F1800 X127.629 Y102.174 E245.50739
G1 X127.699 Y102.244
G0 F3600 X127.629 Y102.739
G1 F1800 X82.368 Y57.478 E248.73761
G1 X82.298 Y57.408
G0 F3600 X82.368 Y58.044
G1 F1800 X127.629 Y103.305 E251.96783
G1 X127.699 Y103.375
G0 F3600 X127.629 Y103.871
G1 F1800 X82.368 Y58.609 E255.19808
G1 X82.298 Y58.539
G0 F3600 X82.368 Y59.175
G1 F1800 X127.629 Y104.436 E258.4283
G1 X127.699 Y104.506
G0 F3600 X127.629 Y105.002
G1 F1800 X82.368 Y59.741 E261.65852
G1 X82.298 Y59.671
G0 F3600 X82.368 Y60.307
G1 F1800 X127.629 Y105.568 E264.88874
G1 X127.699 Y105.638
G0 F3600 X127.629 Y106.133
G1 F1800 X82.368 Y60.872 E268.11896
G1 X82.298 Y60.802
G0 F3600 X82.368 Y61.438
G1 F1800 X127.629 Y106.699 E271.34918
G1 X127.699 Y106.769
G0 F3600 X127.629 Y107.265
G1 F1800 X82.368 Y62.004 E274.5794
G1 X82.298 Y61.934
G0 F3600 X82.368 Y62.569
G1 F1800 X127.629 Y107.83 E277.80962
G1 X127.699 Y107.9
G0 F3600 X127.629 Y108.396
G1 F1800 X82.368 Y63.135 E281.03984
G1 X82.298 Y63.065
G0 F3600 X82.368 Y63.701
G1 F1800 X127.629 Y108.962 E284.27006
G1 X127.699 Y109.032
G0 F3600 X127.629 Y109.528
G1 F1800 X82.368 Y64.266 E287.50031
G1 X82.298 Y64.196
G0 F3600 X82.368 Y64.832
G1 F1800 X127.629 Y110.093 E290.73053
G1 X127.699 Y110.163
G0 F3600 X127.629 Y110.659
G1 F1800 X82.368 Y65.398 E293.96075
G1 X82.298 Y65.328
G0 F3600 X82.368 Y65.963
G1 F1800 X127.629 Y111.225 E297.19101
G1 X127.699 Y111.295
G0 F3600 X127.629 Y111.79
G1 F1800 X82.368 Y66.529 E300.42123
G1 X82.298 Y66.459
G0 F3600 X82.368 Y67.095
G1 F1800 X127.629 Y112.356 E303.65144
G1 X127.699 Y112.426
G0 F3600 X127.629 Y112.922
G1 F1800 X82.368 Y67.66 E306.8817
G1 X82.298 Y67.59
G0 F3600 X82.368 Y68.226
G1 F1800 X127.629 Y113.487 E310.11192
G1 X127.699 Y113.557
G0 F3600 X127.629 Y114.053
G1 F1800 X82.368 Y68.792 E313.34214
G1 X82.298 Y68.722
G0 F3600 X82.368 Y69.357
G1 F1800 X127.629 Y114.619 E316.57239
G1 X127.699 Y114.689
G0 F3600 X127.629 Y115.184
G1 F1800 X82.368 Y69.923 E319.80261
G1 X82.298 Y69.853
G0 F3600 X82.368 Y70.489
G1 F1800 X127.629 Y115.75 E323.03283
G1 X127.699 Y115.82
G0 F3600 X127.629 Y116.316
G1 F1800 X82.368 Y71.055 E326.26305
G1 X82.298 Y70.985
G0 F3600 X82.368 Y71.62
G1 F1800 X127.629 Y116.881 E329.49327
G1 X127.699 Y116.951
G0 F3600 X127.629 Y117.447
G1 F1800 X82.368 Y72.186 E332.72349
G1 X82.298 Y72.116
G0 F3600 X82.368 Y72.752
G1 F1800 X127.629 Y118.013 E335.95371
G1 X127.699 Y118.083
G0 F3600 X127.629 Y118.578
G1 F1800 X82.368 Y73.317 E339.18393
G1 X82.298 Y73.247
G0 F3600 X82.368 Y73.883
G1 F1800 X127.629 Y119.144 E342.41415
G1 X127.699 Y119.214
G0 F3600 X127.629 Y119.71
G1 F1800 X82.368 Y74.449 E345.64437
G1 X82.298 Y74.379
G0 F3600 X82.368 Y75.014
G1 F1800 X127.629 Y120.276 E348.87462
G1 X127.699 Y120.346
G0 F3600 X127.629 Y120.841
G1 F1800 X82.368 Y75.58 E352.10484
G1 X82.298 Y75.51
G0 F3600 X82.368 Y76.146
G1 F1800 X127.629 Y121.407 E355.33506
G1 X127.699 Y121.477
G0 F3600 X127.629 Y121.973
G1 F1800 X82.368 Y76.711 E358.56532
G1 X82.298 Y76.641
G0 F3600 X82.368 Y77.277
G1 F1800 X127.629 Y122.538 E361.79554
G1 X127.699 Y122.608
G0 F3600 X127.629 Y123.104
G1 F1800 X82.368 Y77.843 E365.02575
G1 X82.298 Y77.773
G0 F3600 X82.368 Y78.408
G1 F1800 X127.629 Y123.67 E368.25601
G1 X127.699 Y123.74
G0 F3600 X127.629 Y124.235
G1 F1800 X82.368 Y78.974 E371.48623
G1 X82.298 Y78.904
G0 F3600 X82.368 Y79.54
G1 F1800 X127.629 Y124.801 E374.71645
G1 X127.699 Y124.871
G0 F3600 X127.629 Y125.367
G1 F1800 X82.368 Y80.106 E377.94667
