;FLAVOR:Marlin
;TIME:6048
;Filament used: 3.17474m
;Layer height: 0.2
;Generated with Cura_SteamEngine 3.2.1
M190 S50
M104 S200
M109 S200
M82 ;absolute extrusion mode
G28 ;Home
G1 Z15.0 F6000 ;Move the platform down 15mm
;Prime the extruder
G92 E0
G1 F200 E3
G92 E0
;LAYER_COUNT:98
;LAYER:0
M107
G0 F4500 X99.438 Y38.817 Z0.3
;TYPE:SKIRT
G1 F1200 X99.663 Y38.364 E0.02523
G1 X99.956 Y37.952 E0.05046
G1 X100.311 Y37.592 E0.07568
G1 X100.718 Y37.292 E0.10091
G1 X101.167 Y37.06 E0.12612
G1 X101.647 Y36.901 E0.15135
G1 X102.146 Y36.82 E0.17657
G1 X102.409 Y36.809 E0.1897
G1 X107.595 Y36.81 E0.44843
G1 X108.099 Y36.85 E0.47366
G1 X108.59 Y36.969 E0.49886
G1 X109.057 Y37.164 E0.52411
G1 X109.487 Y37.43 E0.54934
G1 X109.869 Y37.76 E0.57452
G1 X110.195 Y38.146 E0.59973
G1 X110.456 Y38.579 E0.62495
G1 X110.709 Y39.277 E0.66199
G1 X111.826 Y44.021 E0.90514
G1 X113.952 Y51.082 E1.27304
G1 X114.059 Y51.576 E1.29825
G1 X114.088 Y52.005 E1.31971
G1 X114.09 Y169.991 E7.20605
G1 X114.05 Y170.495 E7.23128
G1 X113.931 Y170.986 E7.25648
G1 X113.737 Y171.453 E7.28171
G1 X113.471 Y171.883 E7.30694
G1 X113.141 Y172.266 E7.33216
G1 X112.754 Y172.592 E7.3574
G1 X112.321 Y172.853 E7.38263
G1 X111.853 Y173.043 E7.40783
G1 X111.36 Y173.156 E7.43306
G1 X110.89 Y173.191 E7.45657
G1 X99.109 Y173.19 E8.04433
G1 X98.605 Y173.15 E8.06955
G1 X98.113 Y173.031 E8.09481
G1 X97.647 Y172.836 E8.12001
G1 X97.217 Y172.571 E8.14521
G1 X96.834 Y172.24 E8.17046
G1 X96.508 Y171.854 E8.19567
G1 X96.247 Y171.421 E8.22089
G1 X96.057 Y170.952 E8.24614
G1 X95.944 Y170.46 E8.27132
G1 X95.909 Y169.99 E8.29484
G1 X95.912 Y52.01 E14.18088
G1 X95.952 Y51.506 E14.20611
G1 X96.067 Y51.025 E14.23078
G1 X97.076 Y47.906 E14.39433
G1 X98.54 Y42.59 E14.66942
G1 X99.288 Y39.3 E14.83775
G1 X99.438 Y38.817 E14.86298
G1 F2400 E7.86298
G0 F4500 X103.021 Y50.161
G0 X104.142 Y50.808
G0 X106.67 Y59.33
G0 X106.6 Y59.4
;TYPE:WALL-INNER
G1 F2400 E14.86298
G1 F1200 X103.4 Y59.4 E15.02263
G1 X103.4 Y169.4 E20.51055
G1 X99.9 Y169.4 E20.68517
G1 X99.7 Y169.4 E20.69514
G1 X99.7 Y169.2 E20.7016
G1 X99.702 Y52.6 E26.5188
G1 X101.039 Y52.6 E26.5855
G1 X101.938 Y52.482 E26.63074
G1 X102.81 Y52.117 E26.6779
G1 X103.555 Y51.542 E26.72485
G1 X104.125 Y50.799 E26.77157
G1 X104.483 Y49.932 E26.81837
G1 X104.598 Y49.051 E26.8627
G1 X104.6 Y43.461 E27.14158
G1 X104.534 Y42.956 E27.16699
G1 X104.324 Y42.448 E27.19442
G1 X103.989 Y42.011 E27.22189
G1 X103.552 Y41.676 E27.24936
G1 X103.044 Y41.466 E27.27678
G1 X103 Y41.46 E27.279
G1 X103 Y40.6 E27.3219
G1 X107 Y40.6 E27.52146
G1 X107 Y41.46 E27.56437
G1 X106.956 Y41.466 E27.56659
G1 X106.448 Y41.676 E27.59401
G1 X106.011 Y42.011 E27.62148
G1 X105.676 Y42.448 E27.64895
G1 X105.466 Y42.956 E27.67638
G1 X105.4 Y43.461 E27.70179
G1 X105.4 Y49.039 E27.98007
G1 X105.514 Y49.922 E28.02449
G1 X105.886 Y50.813 E28.07266
G1 X106.461 Y51.557 E28.11957
G1 X107.211 Y52.128 E28.1666
G1 X108.084 Y52.485 E28.21366
G1 X108.961 Y52.6 E28.25779
G1 X110.298 Y52.6 E28.32449
G1 X110.3 Y169.2 E34.14169
G1 X110.3 Y169.4 E34.15166
G1 X110.1 Y169.4 E34.15813
G1 X106.6 Y169.4 E34.33274
G1 X106.6 Y59.4 E39.82066
G0 F4500 X106.2 Y59.8
;TYPE:WALL-OUTER
G1 F1200 X103.8 Y59.8 E39.9404
G1 X103.8 Y169.8 E45.42832
G1 X99.5 Y169.8 E45.64285
G1 X99.3 Y169.8 E45.65283
G1 X99.3 Y169.6 E45.65929
G1 X99.302 Y52.2 E51.5164
G1 X101.013 Y52.2 E51.60176
G1 X101.833 Y52.092 E51.64302
G1 X102.607 Y51.768 E51.68489
G1 X103.269 Y51.257 E51.72661
G1 X103.775 Y50.597 E51.7681
G1 X104.093 Y49.828 E51.80962
G1 X104.198 Y49.025 E51.85002
G1 X104.2 Y43.487 E52.12631
G1 X104.144 Y43.06 E52.1478
G1 X103.974 Y42.649 E52.16999
G1 X103.704 Y42.296 E52.19216
G1 X103.351 Y42.026 E52.21433
G1 X102.94 Y41.856 E52.23652
G1 X102.6 Y41.811 E52.25363
G1 X102.6 Y40.2 E52.334
G1 X107.4 Y40.2 E52.57348
G1 X107.4 Y41.811 E52.65385
G1 X107.06 Y41.856 E52.67096
G1 X106.649 Y42.026 E52.69315
G1 X106.296 Y42.296 E52.71532
G1 X106.026 Y42.649 E52.73749
G1 X105.856 Y43.06 E52.75968
G1 X105.8 Y43.487 E52.78117
G1 X105.8 Y49.013 E53.05686
G1 X105.904 Y49.817 E53.09731
G1 X106.235 Y50.61 E53.14018
G1 X106.745 Y51.271 E53.18183
G1 X107.411 Y51.778 E53.22359
G1 X108.187 Y52.095 E53.26541
G1 X108.987 Y52.2 E53.30567
G1 X110.698 Y52.2 E53.39103
G1 X110.7 Y169.6 E59.24814
G1 X110.7 Y169.8 E59.25812
G1 X110.5 Y169.8 E59.26458
G1 X106.2 Y169.8 E59.4791
G1 X106.2 Y59.8 E64.96703
G0 F4500 X106 Y59.8
G0 X106 Y59.3
G0 X106.99 Y59.01
;TYPE:SKIN
G1 F1200 X103.01 Y59.01 E65.16559
G1 X103.01 Y169.01 E70.65351
G1 X100.09 Y169.01 E70.79919
G1 X100.092 Y52.99 E76.58745
G1 X101.064 Y52.99 E76.63595
G1 X102.041 Y52.862 E76.68511
G1 X103.007 Y52.457 E76.73736
G1 X103.834 Y51.819 E76.78947
G1 X104.466 Y50.996 E76.84124
G1 X104.863 Y50.033 E76.89321
G1 X104.988 Y49.076 E76.94136
G1 X104.99 Y43.436 E77.22274
G1 X104.914 Y42.855 E77.25197
G1 X104.665 Y42.251 E77.28457
G1 X104.268 Y41.732 E77.31717
G1 X103.749 Y41.335 E77.34977
G1 X103.39 Y41.187 E77.36914
G1 X103.39 Y40.99 E77.37897
G1 X106.61 Y40.99 E77.53962
G1 X106.61 Y41.187 E77.54944
G1 X106.251 Y41.335 E77.56882
G1 X105.732 Y41.732 E77.60142
G1 X105.335 Y42.251 E77.63402
G1 X105.086 Y42.855 E77.66661
G1 X105.01 Y43.436 E77.69584
G1 X105.01 Y49.064 E77.97662
G1 X105.134 Y50.024 E78.02492
G1 X105.546 Y51.01 E78.07823
G1 X106.184 Y51.836 E78.1303
G1 X107.016 Y52.469 E78.18246
G1 X107.983 Y52.865 E78.23459
G1 X108.936 Y52.99 E78.28254
G1 X109.908 Y52.99 E78.33104
G1 X109.91 Y169.01 E84.1193
G1 X106.99 Y169.01 E84.26498
G1 X106.99 Y59.01 E89.7529
G0 F4500 X105.361 Y49.041
G0 X105.361 Y43.459
G0 X105.398 Y43.17
G0 X105.879 Y41.391
G0 X105.768 Y41.28
G1 F1200 X105.33 Y41.408 E89.7776
G0 F4500 X104.526 Y41.169
G1 F1200 X105.324 Y41.967 E89.8339
G1 X105.394 Y42.037
G0 F4500 X105.11 Y42.319
G1 F1200 X104.405 Y41.613 E89.88368
G1 X104.335 Y41.543
G0 F4500 X104.384 Y41.593
G1 F1200 X103.96 Y41.169 E89.9136
G0 F4500 X104.572 Y42.946
G0 X104.59 Y43.09
G0 X104.847 Y50.541
G1 F1200 X105.375 Y51.07 E89.95088
G0 F4500 X104.682 Y50.942
G1 F1200 X109.728 Y55.988 E90.30691
G1 X109.798 Y56.058
G0 F4500 X109.728 Y56.553
G1 F1200 X104.465 Y51.29 E90.67824
G1 X104.395 Y51.22
G0 F4500 X104.219 Y51.611
G1 F1200 X109.728 Y57.119 E91.06689
G1 X109.798 Y57.189
G0 F4500 X109.728 Y57.685
G1 F1200 X103.974 Y51.931 E91.47287
G1 X103.904 Y51.861
G0 F4500 X103.659 Y52.181
G1 F1200 X109.728 Y58.25 E91.90107
G1 X109.798 Y58.32
G0 F4500 X109.728 Y58.816
G1 F1200 X103.339 Y52.427 E92.35185
G1 X103.269 Y52.357
G0 F4500 X103 Y52.654
G1 F1200 X109.728 Y59.382 E92.82655
G1 X109.798 Y59.452
G0 F4500 X109.728 Y59.947
G1 F1200 X102.602 Y52.822 E93.32929
G1 X102.532 Y52.752
G0 F4500 X102.204 Y52.989
G1 F1200 X109.728 Y60.513 E93.86015
G1 X109.798 Y60.583
G0 F4500 X109.728 Y61.079
G1 F1200 X101.732 Y53.083 E94.42431
G1 X101.662 Y53.013
G0 F4500 X101.232 Y53.148
G1 F1200 X106.913 Y58.829 E94.82513
G1 X106.983 Y58.899
G0 F4500 X107.169 Y59.085
G1 F1200 X109.728 Y61.644 E95.00568
G1 X109.798 Y61.714
G0 F4500 X109.728 Y62.21
G1 F1200 X107.169 Y59.651 E95.18624
G1 X107.099 Y59.581
G0 F4500 X107.169 Y60.217
G1 F1200 X109.728 Y62.776 E95.36679
G1 X109.798 Y62.846
G0 F4500 X109.728 Y63.341
G1 F1200 X107.169 Y60.782 E95.54734
G1 X107.099 Y60.712
G0 F4500 X107.169 Y61.348
G1 F1200 X109.728 Y63.907 E95.72789
G1 X109.798 Y63.977
G0 F4500 X109.728 Y64.473
G1 F1200 X107.169 Y61.914 E95.90844
G1 X107.099 Y61.844
G0 F4500 X107.169 Y62.479
G1 F1200 X109.728 Y65.038 E96.08899
G1 X109.798 Y65.108
G0 F4500 X109.728 Y65.604
G1 F1200 X107.169 Y63.045 E96.26954
G1 X107.099 Y62.975
G0 F4500 X107.169 Y63.611
G1 F1200 X109.728 Y66.17 E96.4501
G1 X109.798 Y66.24
G0 F4500 X109.728 Y66.736
G1 F1200 X107.169 Y64.177 E96.63065
G1 X107.099 Y64.107
G0 F4500 X107.169 Y64.742
G1 F1200 X109.728 Y67.301 E96.8112
G1 X109.798 Y67.371
G0 F4500 X109.728 Y67.867
G1 F1200 X107.169 Y65.308 E96.99175
G1 X107.099 Y65.238
G0 F4500 X107.169 Y65.874
G1 F1200 X109.728 Y68.433 E97.1723
G1 X109.798 Y68.503
G0 F4500 X109.728 Y68.998
G1 F1200 X107.169 Y66.439 E97.35285
G1 X107.099 Y66.369
G0 F4500 X107.169 Y67.005
G1 F1200 X109.728 Y69.564 E97.5334
G1 X109.798 Y69.634
G0 F4500 X109.728 Y70.13
G1 F1200 X107.169 Y67.571 E97.71395
G1 X107.099 Y67.501
G0 F4500 X107.169 Y68.136
G1 F1200 X109.728 Y70.695 E97.89451
G1 X109.798 Y70.765
G0 F4500 X109.728 Y71.261
G1 F1200 X107.169 Y68.702 E98.07506
G1 X107.099 Y68.632
G0 F4500 X107.169 Y69.268
G1 F1200 X109.728 Y71.827 E98.25561
G1 X109.798 Y71.897
G0 F4500 X109.728 Y72.392
G1 F1200 X107.169 Y69.833 E98.43616
G1 X107.099 Y69.763
G0 F4500 X107.169 Y70.399
G1 F1200 X109.728 Y72.958 E98.61671
G1 X109.798 Y73.028
G0 F4500 X109.728 Y73.524
G1 F1200 X107.169 Y70.965 E98.79726
G1 X107.099 Y70.895
G0 F4500 X107.169 Y71.53
G1 F1200 X109.728 Y74.089 E98.97781
G1 X109.798 Y74.159
G0 F4500 X109.728 Y74.655
G1 F1200 X107.169 Y72.096 E99.15836
G1 X107.099 Y72.026
G0 F4500 X107.169 Y72.662
G1 F1200 X109.728 Y75.221 E99.33892
G1 X109.798 Y75.291
G0 F4500 X109.728 Y75.786
G1 F1200 X107.169 Y73.227 E99.51947
G1 X107.099 Y73.157
G0 F4500 X107.169 Y73.793
G1 F1200 X109.728 Y76.352 E99.70002
G1 X109.798 Y76.422
G0 F4500 X109.728 Y76.918
G1 F1200 X107.169 Y74.359 E99.88057
G1 X107.099 Y74.289
G0 F4500 X107.169 Y74.925
G1 F1200 X109.728 Y77.484 E100.06112
G1 X109.798 Y77.554
G0 F4500 X109.728 Y78.049
G1 F1200 X107.169 Y75.49 E100.24167
G1 X107.099 Y75.42
G0 F4500 X107.169 Y76.056
G1 F1200 X109.728 Y78.615 E100.42222
G1 X109.798 Y78.685
G0 F4500 X109.728 Y79.181
G1 F1200 X107.169 Y76.622 E100.60277
G1 X107.099 Y76.552
G0 F4500 X107.169 Y77.187
G1 F1200 X109.728 Y79.746 E100.78333
G1 X109.798 Y79.816
G0 F4500 X109.728 Y80.312
G1 F1200 X107.169 Y77.753 E100.96388
G1 X107.099 Y77.683
G0 F4500 X107.169 Y78.319
G1 F1200 X109.728 Y80.878 E101.14443
G1 X109.798 Y80.948
G0 F4500 X109.728 Y81.443
G1 F1200 X107.169 Y78.884 E101.32498
G1 X107.099 Y78.814
G0 F4500 X107.169 Y79.45
G1 F1200 X109.728 Y82.009 E101.50553
G1 X109.798 Y82.079
G0 F4500 X109.728 Y82.575
G1 F1200 X107.169 Y80.016 E101.68608
G1 X107.099 Y79.946
G0 F4500 X107.169 Y80.581
G1 F1200 X109.728 Y83.14 E101.86663
G1 X109.798 Y83.21
G0 F4500 X109.728 Y83.706
G1 F1200 X107.169 Y81.147 E102.04718
G1 X107.099 Y81.077
G0 F4500 X107.169 Y81.713
G1 F1200 X109.728 Y84.272 E102.22774
G1 X109.798 Y84.342
G0 F4500 X109.728 Y84.837
G1 F1200 X107.169 Y82.278 E102.40829
G1 X107.099 Y82.208
G0 F4500 X107.169 Y82.844
G1 F1200 X109.728 Y85.403 E102.58884
G1 X109.798 Y85.473
G0 F4500 X109.728 Y85.969
G1 F1200 X107.169 Y83.41 E102.76939
G1 X107.099 Y83.34
G0 F4500 X107.169 Y83.976
G1 F1200 X109.728 Y86.535 E102.94994
G1 X109.798 Y86.605
G0 F4500 X109.728 Y87.1
G1 F1200 X107.169 Y84.541 E103.13049
G1 X107.099 Y84.471
G0 F4500 X107.169 Y85.107
G1 F1200 X109.728 Y87.666 E103.31104
G1 X109.798 Y87.736
G0 F4500 X109.728 Y88.232
G1 F1200 X107.169 Y85.673 E103.49159
G1 X107.099 Y85.603
G0 F4500 X107.169 Y86.238
G1 F1200 X109.728 Y88.797 E103.67215
G1 X109.798 Y88.867
G0 F4500 X109.728 Y89.363
G1 F1200 X107.169 Y86.804 E103.8527
G1 X107.099 Y86.734
G0 F4500 X107.169 Y87.37
G1 F1200 X109.728 Y89.929 E104.03325
G1 X109.798 Y89.999
G0 F4500 X109.728 Y90.494
G1 F1200 X107.169 Y87.935 E104.2138
G1 X107.099 Y87.865
G0 F4500 X107.169 Y88.501
G1 F1200 X109.728 Y91.06 E104.39435
G1 X109.798 Y91.13
G0 F4500 X109.728 Y91.626
G1 F1200 X107.169 Y89.067 E104.5749
G1 X107.099 Y88.997
G0 F4500 X107.169 Y89.632
G1 F1200 X109.728 Y92.192 E104.75549
G1 X109.798 Y92.262
G0 F4500 X109.728 Y92.758
G1 F1200 X107.169 Y90.198 E104.93608
G1 X107.099 Y90.128
G0 F4500 X107.169 Y90.764
G1 F1200 X109.728 Y93.323 E105.11663
G1 X109.798 Y93.393
G0 F4500 X109.728 Y93.889
G1 F1200 X107.169 Y91.329 E105.29721
G1 X107.099 Y91.259
G0 F4500 X107.169 Y91.895
G1 F1200 X109.728 Y94.455 E105.4778
G1 X109.798 Y94.525
G0 F4500 X109.728 Y95.021
G1 F1200 X107.169 Y92.461 E105.65839
G1 X107.099 Y92.391
G0 F4500 X107.169 Y93.026
G1 F1200 X109.728 Y95.586 E105.83897
G1 X109.798 Y95.656
G0 F4500 X109.728 Y96.152
G1 F1200 X107.169 Y93.592 E106.01956
G1 X107.099 Y93.522
G0 F4500 X107.169 Y94.158
G1 F1200 X109.728 Y96.718 E106.20015
G1 X109.798 Y96.788
G0 F4500 X109.728 Y97.283
G1 F1200 X107.169 Y94.724 E106.3807
G1 X107.099 Y94.654
G0 F4500 X107.169 Y95.289
G1 F1200 X109.728 Y97.849 E106.56128
G1 X109.798 Y97.919
G0 F4500 X109.728 Y98.415
G1 F1200 X107.169 Y95.855 E106.74187
G1 X107.099 Y95.785
G0 F4500 X107.169 Y96.421
G1 F1200 X109.728 Y98.98 E106.92242
G1 X109.798 Y99.05
G0 F4500 X109.728 Y99.546
G1 F1200 X107.169 Y96.986 E107.10301
G1 X107.099 Y96.916
G0 F4500 X107.169 Y97.552
G1 F1200 X109.728 Y100.112 E107.28359
G1 X109.798 Y100.182
G0 F4500 X109.728 Y100.677
G1 F1200 X107.169 Y98.118 E107.46415
G1 X107.099 Y98.048
G0 F4500 X107.169 Y98.683
G1 F1200 X109.728 Y101.243 E107.64473
G1 X109.798 Y101.313
G0 F4500 X109.728 Y101.809
G1 F1200 X107.169 Y99.249 E107.82532
G1 X107.099 Y99.179
G0 F4500 X107.169 Y99.815
G1 F1200 X109.728 Y102.374 E108.00587
G1 X109.798 Y102.444
G0 F4500 X109.728 Y102.94
G1 F1200 X107.169 Y100.38 E108.18646
G1 X107.099 Y100.31
G0 F4500 X107.169 Y100.946
G1 F1200 X109.728 Y103.506 E108.36704
G1 X109.798 Y103.576
G0 F4500 X109.728 Y104.071
G1 F1200 X107.169 Y101.512 E108.54759
G1 X107.099 Y101.442
G0 F4500 X107.169 Y102.077
G1 F1200 X109.728 Y104.637 E108.72818
G1 X109.798 Y104.707
G0 F4500 X109.728 Y105.203
G1 F1200 X107.169 Y102.643 E108.90877
G1 X107.099 Y102.573
G0 F4500 X107.169 Y103.209
G1 F1200 X109.728 Y105.769 E109.08935
G1 X109.798 Y105.839
G0 F4500 X109.728 Y106.334
G1 F1200 X107.169 Y103.774 E109.26994
G1 X107.099 Y103.704
G0 F4500 X107.169 Y104.34
G1 F1200 X109.728 Y106.9 E109.45053
G1 X109.798 Y106.97
G0 F4500 X109.728 Y107.466
G1 F1200 X107.169 Y104.906 E109.63111
G1 X107.099 Y104.836
G0 F4500 X107.169 Y105.472
G1 F1200 X109.728 Y108.031 E109.81167
G1 X109.798 Y108.101
G0 F4500 X109.728 Y108.597
G1 F1200 X107.169 Y106.037 E109.99225
G1 X107.099 Y105.967
G0 F4500 X107.169 Y106.603
G1 F1200 X109.728 Y109.163 E110.17284
G1 X109.798 Y109.233
G0 F4500 X109.728 Y109.728
G1 F1200 X107.169 Y107.169 E110.35339
G1 X107.099 Y107.099
G0 F4500 X107.169 Y107.734
G1 F1200 X109.728 Y110.294 E110.53398
G1 X109.798 Y110.364
G0 F4500 X109.728 Y110.86
G1 F1200 X107.169 Y108.3 E110.71456
G1 X107.099 Y108.23
G0 F4500 X107.169 Y108.866
G1 F1200 X109.728 Y111.425 E110.89511
G1 X109.798 Y111.495
G0 F4500 X109.728 Y111.991
G1 F1200 X107.169 Y109.431 E111.0757
G1 X107.099 Y109.361
G0 F4500 X107.169 Y109.997
G1 F1200 X109.728 Y112.557 E111.25629
G1 X109.798 Y112.627
G0 F4500 X109.728 Y113.122
G1 F1200 X107.169 Y110.563 E111.43684
G1 X107.099 Y110.493
G0 F4500 X107.169 Y111.128
G1 F1200 X109.728 Y113.688 E111.61742
G1 X109.798 Y113.758
G0 F4500 X109.728 Y114.254
G1 F1200 X107.169 Y111.694 E111.79801
G1 X107.099 Y111.624
G0 F4500 X107.169 Y112.26
G1 F1200 X109.728 Y114.819 E111.97856
G1 X109.798 Y114.889
G0 F4500 X109.728 Y115.385
G1 F1200 X107.169 Y112.825 E112.15915
G1 X107.099 Y112.755
G0 F4500 X107.169 Y113.391
G1 F1200 X109.728 Y115.951 E112.33974
G1 X109.798 Y116.021
G0 F4500 X109.728 Y116.517
G1 F1200 X107.169 Y113.957 E112.52032
G1 X107.099 Y113.887
G0 F4500 X107.169 Y114.523
G1 F1200 X109.728 Y117.082 E112.70087
G1 X109.798 Y117.152
G0 F4500 X109.728 Y117.648
G1 F1200 X107.169 Y115.088 E112.88146
G1 X107.099 Y115.018
G0 F4500 X107.169 Y115.654
G1 F1200 X109.728 Y118.214 E113.06205
G1 X109.798 Y118.284
G0 F4500 X109.728 Y118.779
G1 F1200 X107.169 Y116.22 E113.2426
G1 X107.099 Y116.15
G0 F4500 X107.169 Y116.785
G1 F1200 X109.728 Y119.345 E113.42318
G1 X109.798 Y119.415
G0 F4500 X109.728 Y119.911
G1 F1200 X107.169 Y117.351 E113.60377
G1 X107.099 Y117.281
G0 F4500 X107.169 Y117.917
G1 F1200 X109.728 Y120.476 E113.78432
G1 X109.798 Y120.546
G0 F4500 X109.728 Y121.042
G1 F1200 X107.169 Y118.482 E113.96491
G1 X107.099 Y118.412
G0 F4500 X107.169 Y119.048
G1 F1200 X109.728 Y121.608 E114.1455
G1 X109.798 Y121.678
G0 F4500 X109.728 Y122.173
G1 F1200 X107.169 Y119.614 E114.32605
G1 X107.099 Y119.544
G0 F4500 X107.169 Y120.179
G1 F1200 X109.728 Y122.739 E114.50663
G1 X109.798 Y122.809
G0 F4500 X109.728 Y123.305
G1 F1200 X107.169 Y120.745 E114.68722
G1 X107.099 Y120.675
