;FLAVOR:Marlin
;TIME:4489
;Filament used: 3.1478m
;Layer height: 0.2
;Generated with Cura_SteamEngine 3.2.1
M190 S50
M104 S210
M109 S210
M82 ;absolute extrusion mode
G28 ;Home
G1 Z15.0 F6000 ;Move the platform down 15mm
;Prime the extruder
G92 E0
G1 F200 E3
G92 E0
;LAYER_COUNT:98
;LAYER:0
M107
G0 F3600 X96.263 Y46.543 Z0.3
;TYPE:SKIRT
G1 F1800 X96.672 Y45.933 E0.03706
G1 X100.067 Y41.938 E0.30164
G1 X100.423 Y41.58 E0.32712
G1 X100.832 Y41.282 E0.35265
G1 X101.283 Y41.053 E0.37818
G1 X101.764 Y40.897 E0.4037
G1 X102.505 Y40.81 E0.44135
G1 X107.495 Y40.81 E0.69317
G1 X107.999 Y40.85 E0.71869
G1 X108.49 Y40.969 E0.74418
G1 X108.957 Y41.163 E0.7697
G1 X109.387 Y41.429 E0.79522
G1 X109.933 Y41.937 E0.83286
G1 X113.328 Y45.93 E1.09735
G1 X113.624 Y46.34 E1.12287
G1 X113.852 Y46.791 E1.14838
G1 X114.006 Y47.273 E1.17391
G1 X114.09 Y48.003 E1.21099
G1 X114.091 Y165.991 E7.16529
G1 X114.051 Y166.495 E7.19081
G1 X113.932 Y166.986 E7.2163
G1 X113.738 Y167.453 E7.24182
G1 X113.472 Y167.883 E7.26734
G1 X113.142 Y168.266 E7.29285
G1 X112.755 Y168.592 E7.31839
G1 X112.322 Y168.853 E7.3439
G1 X111.854 Y169.043 E7.36939
G1 X111.361 Y169.156 E7.39492
G1 X110.891 Y169.191 E7.4187
G1 X99.109 Y169.191 E8.01329
G1 X98.605 Y169.151 E8.0388
G1 X98.114 Y169.032 E8.0643
G1 X97.647 Y168.838 E8.08982
G1 X97.217 Y168.572 E8.11533
G1 X96.834 Y168.242 E8.14084
G1 X96.508 Y167.855 E8.16638
G1 X96.247 Y167.422 E8.19189
G1 X96.057 Y166.954 E8.21738
G1 X95.944 Y166.461 E8.24291
G1 X95.909 Y165.991 E8.26669
G1 X95.91 Y48.005 E14.22089
G1 X95.95 Y47.501 E14.24641
G1 X96.069 Y47.01 E14.2719
G1 X96.263 Y46.543 E14.29742
G1 F1500 E7.79742
G0 F3600 X103.587 Y45.682
G0 X104.3 Y44.602
G0 X104.436 Y44.65
G0 X104.298 Y44.607
;TYPE:WALL-INNER
G1 F1500 E14.29742
G1 F1800 X104.281 Y44.6 E14.29835
G1 X104.298 Y44.6
G1 X104.637 Y44.6 E14.31543
G1 X105.364 Y44.6 E14.35212
G1 X105.692 Y44.6 E14.36867
G1 X105.723 Y44.6 E14.37024
G1 X105.692 Y44.613
G1 X105.364 Y44.868 E14.37701
G1 X105.11 Y45.197 E14.39798
G1 X105.078 Y45.274 E14.40219
G1 X105 Y45.463 E14.41251
G1 X104.922 Y45.274
G1 X104.89 Y45.197
G1 X104.637 Y44.868 E14.43345
G1 X104.298 Y44.607 E14.43512
G1 F1500 E7.93512
G0 F3600 X104.436 Y44.65
G0 X104.907 Y45.187
G0 X105.089 Y47.806
G0 X106.67 Y65.33
G0 X106.6 Y65.4
G1 F1500 E14.43512
G1 F1800 X103.4 Y65.4 E14.59661
G1 X103.4 Y165.4 E19.64314
G1 X99.7 Y165.4 E19.82986
G1 X99.7 Y48.6 E25.7242
G1 X103.545 Y48.599 E25.91824
G1 X103.923 Y48.548 E25.93749
G1 X104.31 Y48.385 E25.95868
G1 X104.639 Y48.129 E25.97972
G1 X104.82 Y47.894 E25.99469
G1 X104.893 Y47.798 E26.00078
G1 X104.923 Y47.724 E26.00481
G1 X105 Y47.537 E26.01501
G1 X105.076 Y47.723
G1 X105.106 Y47.797
G1 X105.179 Y47.893 E26.0211
G1 X105.36 Y48.128 E26.03607
G1 X105.689 Y48.384 E26.0571
G1 X106.076 Y48.547 E26.0783
G1 X106.454 Y48.598 E26.09754
G1 X110.3 Y48.6 E26.29163
G1 X110.3 Y165.4 E32.18598
G1 X106.6 Y165.4 E32.3727
G1 X106.6 Y65.4 E37.41923
G0 F3600 X106.2 Y65.8
;TYPE:WALL-OUTER
G1 F1800 X103.8 Y65.8 E37.54035
G1 X103.8 Y165.8 E42.58688
G1 X99.3 Y165.8 E42.81397
G1 X99.3 Y48.2 E48.74869
G1 X103.518 Y48.199 E48.96156
G1 X103.817 Y48.159 E48.97678
G1 X104.106 Y48.037 E48.99261
G1 X104.353 Y47.845 E49.0084
G1 X104.543 Y47.597 E49.02416
G1 X104.661 Y47.308 E49.03992
G1 X104.7 Y46.99 E49.05609
G1 X104.7 Y45.982 E49.10695
G1 X104.66 Y45.686 E49.12203
G1 X104.541 Y45.399 E49.13771
G1 X104.352 Y45.153 E49.15336
G1 X104.097 Y44.957 E49.16959
G1 X103.809 Y44.839 E49.1853
G1 X103.513 Y44.8 E49.20037
G1 X102.7 Y44.8 E49.2414
G1 X102.7 Y44.2 E49.27167
G1 X107.3 Y44.2 E49.50382
G1 X107.3 Y44.8 E49.53409
G1 X106.487 Y44.8 E49.57512
G1 X106.192 Y44.838 E49.59013
G1 X105.895 Y44.962 E49.60637
G1 X105.649 Y45.153 E49.62209
G1 X105.459 Y45.399 E49.63778
G1 X105.341 Y45.686 E49.65344
G1 X105.301 Y45.981 E49.66846
G1 X105.3 Y47.015 E49.72064
G1 X105.339 Y47.309 E49.73561
G1 X105.456 Y47.596 E49.75125
G1 X105.646 Y47.844 E49.76702
G1 X105.893 Y48.036 E49.7828
G1 X106.182 Y48.158 E49.79864
G1 X106.481 Y48.198 E49.81386
G1 X110.7 Y48.2 E50.02677
G1 X110.7 Y165.8 E55.96149
G1 X106.2 Y165.8 E56.18859
G1 X106.2 Y65.8 E61.23512
G0 F3600 X106 Y65.8
G0 X106 Y65.3
G0 X106.99 Y65.01
;TYPE:SKIN
G1 F1800 X103.01 Y65.01 E61.43597
G1 X103.01 Y165.01 E66.4825
G1 X100.09 Y165.01 E66.62986
G1 X100.09 Y48.99 E72.48484
G1 X103.571 Y48.989 E72.66051
G1 X104.026 Y48.928 E72.68368
G1 X104.509 Y48.724 E72.71014
G1 X104.918 Y48.406 E72.73628
G1 X105 Y48.299 E72.74308
G1 X105.081 Y48.405 E72.74982
G1 X105.49 Y48.723 E72.77596
G1 X105.973 Y48.927 E72.80242
G1 X106.428 Y48.988 E72.82559
G1 X109.91 Y48.99 E73.00131
G1 X109.91 Y165.01 E78.85629
G1 X106.99 Y165.01 E79.00365
G1 X106.99 Y65.01 E84.05018
G0 F3600 X109.73 Y49.767
G1 F1800 X109.132 Y49.17 E84.09282
G1 X109.062 Y49.1
G0 F3600 X108.566 Y49.169
G1 F1800 X109.73 Y50.333 E84.1759
G1 X109.8 Y50.403
G0 F3600 X109.73 Y50.898
G1 F1800 X108 Y49.169 E84.29933
G1 X107.93 Y49.099
G0 F3600 X107.434 Y49.168
G1 F1800 X109.73 Y51.464 E84.46319
G1 X109.8 Y51.534
G0 F3600 X109.73 Y52.03
G1 F1800 X106.868 Y49.168 E84.66745
G1 X106.798 Y49.098
G0 F3600 X106.285 Y49.15
G1 F1800 X109.73 Y52.596 E84.91335
G1 X109.8 Y52.666
G0 F3600 X109.73 Y53.161
G1 F1800 X105.486 Y48.917 E85.21624
G1 X105.416 Y48.847
G0 F3600 X104.759 Y48.757
G1 F1800 X109.73 Y53.727 E85.57098
G1 X109.8 Y53.797
G0 F3600 X109.73 Y54.293
G1 F1800 X104.402 Y48.965 E85.95123
G1 X104.332 Y48.895
G0 F3600 X103.986 Y49.114
G1 F1800 X109.73 Y54.858 E86.36117
G1 X109.8 Y54.928
G0 F3600 X109.73 Y55.424
G1 F1800 X103.475 Y49.169 E86.80758
G1 X103.405 Y49.099
G0 F3600 X102.909 Y49.169
G1 F1800 X109.73 Y55.99 E87.29439
G1 X109.8 Y56.06
G0 F3600 X109.73 Y56.555
G1 F1800 X102.343 Y49.169 E87.82155
G1 X102.273 Y49.099
G0 F3600 X101.778 Y49.17
G1 F1800 X109.73 Y57.121 E88.38904
G1 X109.8 Y57.191
G0 F3600 X109.73 Y57.687
G1 F1800 X101.213 Y49.17 E88.99689
G1 X101.143 Y49.1
G0 F3600 X100.647 Y49.17
G1 F1800 X109.73 Y58.252 E89.6451
G1 X109.8 Y58.322
G0 F3600 X109.73 Y58.818
G1 F1800 X100.269 Y49.358 E90.32028
G1 X100.199 Y49.288
G0 F3600 X100.269 Y49.923
G1 F1800 X109.73 Y59.384 E90.9955
G1 X109.8 Y59.454
G0 F3600 X109.73 Y59.949
G1 F1800 X100.269 Y50.489 E91.67068
G1 X100.199 Y50.419
G0 F3600 X100.269 Y51.055
G1 F1800 X109.73 Y60.515 E92.34587
G1 X109.8 Y60.585
G0 F3600 X109.73 Y61.081
G1 F1800 X100.269 Y51.62 E93.02109
G1 X100.199 Y51.55
G0 F3600 X100.269 Y52.186
G1 F1800 X109.73 Y61.646 E93.69627
G1 X109.8 Y61.716
G0 F3600 X109.73 Y62.212
G1 F1800 X100.269 Y52.752 E94.37145
G1 X100.199 Y52.682
G0 F3600 X100.269 Y53.317
G1 F1800 X109.73 Y62.778 E95.04667
G1 X109.8 Y62.848
G0 F3600 X109.73 Y63.344
G1 F1800 X100.269 Y53.883 E95.72189
G1 X100.199 Y53.813
G0 F3600 X100.269 Y54.449
G1 F1800 X109.73 Y63.909 E96.39708
G1 X109.8 Y63.979
G0 F3600 X109.73 Y64.475
G1 F1800 X100.269 Y55.015 E97.07226
G1 X100.199 Y54.945
G0 F3600 X100.269 Y55.58
G1 F1800 X109.73 Y65.041 E97.74748
G1 X109.8 Y65.111
G0 F3600 X109.73 Y65.606
G1 F1800 X100.269 Y56.146 E98.42266
G1 X100.199 Y56.076
G0 F3600 X100.269 Y56.712
G1 F1800 X109.73 Y66.172 E99.09785
G1 X109.8 Y66.242
G0 F3600 X109.73 Y66.738
G1 F1800 X100.269 Y57.277 E99.77307
G1 X100.199 Y57.207
G0 F3600 X100.269 Y57.843
G1 F1800 X109.73 Y67.303 E100.44825
G1 X109.8 Y67.373
G0 F3600 X109.73 Y67.869
G1 F1800 X107.169 Y65.308 E100.63103
G1 X107.099 Y65.238
G0 F3600 X107.169 Y65.874
G1 F1800 X109.73 Y68.435 E100.8138
G1 X109.8 Y68.505
G0 F3600 X109.73 Y69
G1 F1800 X107.169 Y66.439 E100.99658
G1 X107.099 Y66.369
G0 F3600 X107.169 Y67.005
G1 F1800 X109.73 Y69.566 E101.17935
G1 X109.8 Y69.636
G0 F3600 X109.73 Y70.132
G1 F1800 X107.169 Y67.571 E101.36213
G1 X107.099 Y67.501
G0 F3600 X107.169 Y68.136
G1 F1800 X109.73 Y70.697 E101.5449
G1 X109.8 Y70.767
G0 F3600 X109.73 Y71.263
G1 F1800 X107.169 Y68.702 E101.72768
G1 X107.099 Y68.632
G0 F3600 X107.169 Y69.268
G1 F1800 X109.73 Y71.829 E101.91045
G1 X109.8 Y71.899
G0 F3600 X109.73 Y72.395
G1 F1800 X107.169 Y69.833 E102.09326
G1 X107.099 Y69.763
G0 F3600 X107.169 Y70.399
G1 F1800 X109.73 Y72.96 E102.27604
G1 X109.8 Y73.03
G0 F3600 X109.73 Y73.526
G1 F1800 X107.169 Y70.965 E102.45881
G1 X107.099 Y70.895
G0 F3600 X107.169 Y71.53
G1 F1800 X109.73 Y74.092 E102.64162
G1 X109.8 Y74.162
G0 F3600 X109.73 Y74.657
G1 F1800 X107.169 Y72.096 E102.8244
G1 X107.099 Y72.026
G0 F3600 X107.169 Y72.662
G1 F1800 X109.73 Y75.223 E103.00718
G1 X109.8 Y75.293
G0 F3600 X109.73 Y75.789
G1 F1800 X107.169 Y73.227 E103.18999
G1 X107.099 Y73.157
G0 F3600 X107.169 Y73.793
G1 F1800 X109.73 Y76.354 E103.37276
G1 X109.8 Y76.424
G0 F3600 X109.73 Y76.92
G1 F1800 X107.169 Y74.359 E103.55554
G1 X107.099 Y74.289
G0 F3600 X107.169 Y74.925
G1 F1800 X109.73 Y77.486 E103.73831
G1 X109.8 Y77.556
G0 F3600 X109.73 Y78.051
G1 F1800 X107.169 Y75.49 E103.92109
G1 X107.099 Y75.42
G0 F3600 X107.169 Y76.056
G1 F1800 X109.73 Y78.617 E104.10386
G1 X109.8 Y78.687
G0 F3600 X109.73 Y79.183
G1 F1800 X107.169 Y76.622 E104.28664
G1 X107.099 Y76.552
G0 F3600 X107.169 Y77.187
G1 F1800 X109.73 Y79.748 E104.46941
G1 X109.8 Y79.818
G0 F3600 X109.73 Y80.314
G1 F1800 X107.169 Y77.753 E104.65219
G1 X107.099 Y77.683
G0 F3600 X107.169 Y78.319
G1 F1800 X109.73 Y80.88 E104.83496
G1 X109.8 Y80.95
G0 F3600 X109.73 Y81.445
G1 F1800 X107.169 Y78.884 E105.01774
G1 X107.099 Y78.814
G0 F3600 X107.169 Y79.45
G1 F1800 X109.73 Y82.011 E105.20051
G1 X109.8 Y82.081
G0 F3600 X109.73 Y82.577
G1 F1800 X107.169 Y80.016 E105.38329
G1 X107.099 Y79.946
G0 F3600 X107.169 Y80.581
G1 F1800 X109.73 Y83.143 E105.5661
G1 X109.8 Y83.213
G0 F3600 X109.73 Y83.708
G1 F1800 X107.169 Y81.147 E105.74888
G1 X107.099 Y81.077
G0 F3600 X107.169 Y81.713
G1 F1800 X109.73 Y84.274 E105.93165
G1 X109.8 Y84.344
G0 F3600 X109.73 Y84.84
G1 F1800 X107.169 Y82.278 E106.11446
G1 X107.099 Y82.208
G0 F3600 X107.169 Y82.844
G1 F1800 X109.73 Y85.405 E106.29724
G1 X109.8 Y85.475
G0 F3600 X109.73 Y85.971
G1 F1800 X107.169 Y83.41 E106.48001
G1 X107.099 Y83.34
G0 F3600 X107.169 Y83.976
G1 F1800 X109.73 Y86.537 E106.66279
G1 X109.8 Y86.607
G0 F3600 X109.73 Y87.102
G1 F1800 X107.169 Y84.541 E106.84556
G1 X107.099 Y84.471
G0 F3600 X107.169 Y85.107
G1 F1800 X109.73 Y87.668 E107.02834
G1 X109.8 Y87.738
G0 F3600 X109.73 Y88.234
G1 F1800 X107.169 Y85.673 E107.21111
G1 X107.099 Y85.603
G0 F3600 X107.169 Y86.238
G1 F1800 X109.73 Y88.799 E107.39389
G1 X109.8 Y88.869
G0 F3600 X109.73 Y89.365
G1 F1800 X107.169 Y86.804 E107.57666
G1 X107.099 Y86.734
G0 F3600 X107.169 Y87.37
G1 F1800 X109.73 Y89.931 E107.75944
G1 X109.8 Y90.001
G0 F3600 X109.73 Y90.496
G1 F1800 X107.169 Y87.935 E107.94221
G1 X107.099 Y87.865
G0 F3600 X107.169 Y88.501
G1 F1800 X109.73 Y91.062 E108.12499
G1 X109.8 Y91.132
G0 F3600 X109.73 Y91.628
G1 F1800 X107.169 Y89.067 E108.30777
G1 X107.099 Y88.997
G0 F3600 X107.169 Y89.632
G1 F1800 X109.73 Y92.193 E108.49054
G1 X109.8 Y92.263
G0 F3600 X109.73 Y92.759
G1 F1800 X107.169 Y90.198 E108.67332
G1 X107.099 Y90.128
G0 F3600 X107.169 Y90.764
G1 F1800 X109.73 Y93.325 E108.85609
G1 X109.8 Y93.395
G0 F3600 X109.73 Y93.891
G1 F1800 X107.169 Y91.329 E109.0389
G1 X107.099 Y91.259
G0 F3600 X107.169 Y91.895
G1 F1800 X109.73 Y94.456 E109.22168
G1 X109.8 Y94.526
G0 F3600 X109.73 Y95.022
G1 F1800 X107.169 Y92.461 E109.40445
G1 X107.099 Y92.391
G0 F3600 X107.169 Y93.026
G1 F1800 X109.73 Y95.588 E109.58726
G1 X109.8 Y95.658
G0 F3600 X109.73 Y96.153
G1 F1800 X107.169 Y93.592 E109.77004
G1 X107.099 Y93.522
G0 F3600 X107.169 Y94.158
G1 F1800 X109.73 Y96.719 E109.95281
G1 X109.8 Y96.789
G0 F3600 X109.73 Y97.285
G1 F1800 X107.169 Y94.724 E110.13559
G1 X107.099 Y94.654
G0 F3600 X107.169 Y95.289
G1 F1800 X109.73 Y97.85 E110.31836
G1 X109.8 Y97.92
G0 F3600 X109.73 Y98.416
G1 F1800 X107.169 Y95.855 E110.50114
G1 X107.099 Y95.785
G0 F3600 X107.169 Y96.421
G1 F1800 X109.73 Y98.982 E110.68392
G1 X109.8 Y99.052
G0 F3600 X109.73 Y99.547
G1 F1800 X107.169 Y96.986 E110.86669
G1 X107.099 Y96.916
G0 F3600 X107.169 Y97.552
G1 F1800 X109.73 Y100.113 E111.04947
G1 X109.8 Y100.183
G0 F3600 X109.73 Y100.679
G1 F1800 X107.169 Y98.118 E111.23224
G1 X107.099 Y98.048
G0 F3600 X107.169 Y98.683
G1 F1800 X109.73 Y101.244 E111.41502
G1 X109.8 Y101.314
G0 F3600 X109.73 Y101.81
G1 F1800 X107.169 Y99.249 E111.59779
G1 X107.099 Y99.179
G0 F3600 X107.169 Y99.815
G1 F1800 X109.73 Y102.376 E111.78057
G1 X109.8 Y102.446
G0 F3600 X109.73 Y102.942
G1 F1800 X107.169 Y100.38 E111.96338
G1 X107.099 Y100.31
G0 F3600 X107.169 Y100.946
G1 F1800 X109.73 Y103.507 E112.14615
G1 X109.8 Y103.577
G0 F3600 X109.73 Y104.073
G1 F1800 X107.169 Y101.512 E112.32893
G1 X107.099 Y101.442
G0 F3600 X107.169 Y102.077
G1 F1800 X109.73 Y104.639 E112.51174
G1 X109.8 Y104.709
G0 F3600 X109.73 Y105.204
G1 F1800 X107.169 Y102.643 E112.69451
G1 X107.099 Y102.573
G0 F3600 X107.169 Y103.209
G1 F1800 X109.73 Y105.77 E112.87729
G1 X109.8 Y105.84
G0 F3600 X109.73 Y106.336
G1 F1800 X107.169 Y103.774 E113.0601
G1 X107.099 Y103.704
G0 F3600 X107.169 Y104.34
G1 F1800 X109.73 Y106.901 E113.24288
G1 X109.8 Y106.971
G0 F3600 X109.73 Y107.467
G1 F1800 X107.169 Y104.906 E113.42565
G1 X107.099 Y104.836
G0 F3600 X107.169 Y105.472
G1 F1800 X109.73 Y108.033 E113.60843
G1 X109.8 Y108.103
G0 F3600 X109.73 Y108.598
G1 F1800 X107.169 Y106.037 E113.7912
G1 X107.099 Y105.967
G0 F3600 X107.169 Y106.603
G1 F1800 X109.73 Y109.164 E113.97398
G1 X109.8 Y109.234
G0 F3600 X109.73 Y109.73
G1 F1800 X107.169 Y107.169 E114.15675
G1 X107.099 Y107.099
G0 F3600 X107.169 Y107.734
G1 F1800 X109.73 Y110.295 E114.33953
G1 X109.8 Y110.365
G0 F3600 X109.73 Y110.861
G1 F1800 X107.169 Y108.3 E114.5223
G1 X107.099 Y108.23
G0 F3600 X107.169 Y108.866
G1 F1800 X109.73 Y111.427 E114.70508
G1 X109.8 Y111.497
G0 F3600 X109.73 Y111.992
G1 F1800 X107.169 Y109.431 E114.88785
G1 X107.099 Y109.361
G0 F3600 X107.169 Y109.997
G1 F1800 X109.73 Y112.558 E115.07063
G1 X109.8 Y112.628
G0 F3600 X109.73 Y113.124
G1 F1800 X107.169 Y110.563 E115.2534
G1 X107.099 Y110.493
G0 F3600 X107.169 Y111.128
G1 F1800 X109.73 Y113.69 E115.43622
G1 X109.8 Y113.76
G0 F3600 X109.73 Y114.255
G1 F1800 X107.169 Y111.694 E115.61899
G1 X107.099 Y111.624
G0 F3600 X107.169 Y112.26
G1 F1800 X109.73 Y114.821 E115.80177
G1 X109.8 Y114.891
G0 F3600 X109.73 Y115.387
G1 F1800 X107.169 Y112.825 E115.98458
G1 X107.099 Y112.755
G0 F3600 X107.169 Y113.391
G1 F1800 X109.73 Y115.952 E116.16735
G1 X109.8 Y116.022
G0 F3600 X109.73 Y116.518
G1 F1800 X107.169 Y113.957 E116.35013
G1 X107.099 Y113.887
G0 F3600 X107.169 Y114.523
G1 F1800 X109.73 Y117.084 E116.5329
G1 X109.8 Y117.154
G0 F3600 X109.73 Y117.649
G1 F1800 X107.169 Y115.089 E116.71564
G1 X107.099 Y115.019
G0 F3600 X107.169 Y115.655
G1 F1800 X109.73 Y118.215 E116.89838
G1 X109.8 Y118.285
G0 F3600 X109.73 Y118.781
G1 F1800 X107.169 Y116.22 E117.08116
G1 X107.099 Y116.15
G0 F3600 X107.169 Y116.786
G1 F1800 X109.73 Y119.346 E117.2639
G1 X109.8 Y119.416
G0 F3600 X109.73 Y119.912
G1 F1800 X107.169 Y117.352 E117.44664
G1 X107.099 Y117.282
G0 F3600 X107.169 Y117.917
G1 F1800 X109.73 Y120.478 E117.62941
G1 X109.8 Y120.548
G0 F3600 X109.73 Y121.043
G1 F1800 X107.169 Y118.483 E117.81215
G1 X107.099 Y118.413
G0 F3600 X107.169 Y119.049
G1 F1800 X109.73 Y121.609 E117.99489
G1 X109.8 Y121.679
G0 F3600 X109.73 Y122.175
G1 F1800 X107.169 Y119.614 E118.17767
G1 X107.099 Y119.544
G0 F3600 X107.169 Y120.18
G1 F1800 X109.73 Y122.741 E118.36044
G1 X109.8 Y122.811
G0 F3600 X109.73 Y123.306
G1 F1800 X107.169 Y120.746 E118.54318
G1 X107.099 Y120.676
G0 F3600 X107.169 Y121.311
G1 F1800 X109.73 Y123.872 E118.72596
G1 X109.8 Y123.942
G0 F3600 X109.73 Y124.438
G1 F1800 X107.169 Y121.877 E118.90873
G1 X107.099 Y121.807
G0 F3600 X107.169 Y122.443
G1 F1800 X109.73 Y125.003 E119.09147
G1 X109.8 Y125.073
G0 F3600 X109.73 Y125.569
G1 F1800 X107.169 Y123.009 E119.27421
G1 X107.099 Y122.939
G0 F3600 X107.169 Y123.574
G1 F1800 X109.73 Y126.135 E119.45699
G1 X109.8 Y126.205
G0 F3600 X109.73 Y126.7
G1 F1800 X107.169 Y124.14 E119.63973
G1 X107.099 Y124.07
G0 F3600 X107.169 Y124.706
G1 F1800 X109.73 Y127.266 E119.82246
G1 X109.8 Y127.336
G0 F3600 X109.73 Y127.832
G1 F1800 X107.169 Y125.271 E120.00524
G1 X107.099 Y125.201
G0 F3600 X107.169 Y125.837
