;FLAVOR:Marlin
;TIME:5966
;Filament used: 5.20103m
;Layer height: 0.2
;Generated with Cura_SteamEngine 3.2.1
M190 S50
M104 S210
M109 S210
M82 ;absolute extrusion mode
G28 ;Home
G1 Z15.0 F6000 ;Move the platform down 15mm
;Prime the extruder
G92 E0
G1 F200 E3
G92 E0
;LAYER_COUNT:98
;LAYER:0
M107
G0 F3600 X78.412 Y46.047 Z0.3
;TYPE:SKIRT
G1 F1800 X78.678 Y45.617 E0.02552
G1 X79.008 Y45.234 E0.05103
G1 X79.395 Y44.908 E0.07657
G1 X79.828 Y44.647 E0.10208
G1 X80.296 Y44.457 E0.12757
G1 X80.789 Y44.344 E0.15309
G1 X81.177 Y44.31 E0.17275
G1 X83.529 Y44.25 E0.29148
G1 X89.041 Y43.9 E0.57021
G1 X94.475 Y43.245 E0.84642
G1 X99.874 Y42.282 E1.12318
G1 X103.793 Y41.39 E1.32602
G1 X104.503 Y41.31 E1.36207
G1 X105.494 Y41.31 E1.41208
G1 X106.217 Y41.393 E1.44881
G1 X109.434 Y42.139 E1.61546
G1 X114.843 Y43.146 E1.89312
G1 X120.27 Y43.84 E2.16923
G1 X125.75 Y44.228 E2.44647
G1 X128.829 Y44.312 E2.60191
G1 X129.331 Y44.366 E2.62739
G1 X129.819 Y44.498 E2.6529
G1 X130.28 Y44.706 E2.67842
G1 X130.703 Y44.983 E2.70394
G1 X131.077 Y45.324 E2.72948
G1 X131.392 Y45.719 E2.75498
G1 X131.641 Y46.159 E2.78049
G1 X131.818 Y46.632 E2.80598
G1 X131.918 Y47.128 E2.83151
G1 X131.941 Y47.511 E2.85088
G1 X131.941 Y165.491 E8.80477
G1 X131.901 Y165.995 E8.83029
G1 X131.782 Y166.486 E8.85578
G1 X131.588 Y166.953 E8.8813
G1 X131.322 Y167.383 E8.90682
G1 X130.992 Y167.766 E8.93233
G1 X130.605 Y168.092 E8.95787
G1 X130.172 Y168.353 E8.98338
G1 X129.704 Y168.543 E9.00887
G1 X129.211 Y168.656 E9.0344
G1 X128.741 Y168.691 E9.05818
G1 X81.259 Y168.691 E11.45437
G1 X80.755 Y168.651 E11.47989
G1 X80.264 Y168.532 E11.50538
G1 X79.797 Y168.338 E11.5309
G1 X79.367 Y168.072 E11.55642
G1 X78.984 Y167.742 E11.58193
G1 X78.658 Y167.355 E11.60747
G1 X78.397 Y166.922 E11.63298
G1 X78.207 Y166.454 E11.65847
G1 X78.094 Y165.961 E11.684
G1 X78.059 Y165.491 E11.70778
G1 X78.059 Y47.509 E17.66178
G1 X78.099 Y47.005 E17.6873
G1 X78.218 Y46.514 E17.71279
G1 X78.412 Y46.047 E17.73831
G1 F1500 E11.23831
G0 F3600 X80.585 Y48.114
G0 X81.864 Y48.114
G0 X103.95 Y48.144
G0 X103.924 Y48.048
;TYPE:WALL-INNER
G1 F1500 E17.73831
G1 F1800 X104.311 Y47.884 E17.75952
G1 X104.64 Y47.628 E17.78056
G1 X104.819 Y47.395 E17.79539
G1 X104.89 Y47.303 E17.80125
G1 X104.922 Y47.226 E17.80546
G1 X105 Y47.038 E17.81573
G1 X105.078 Y47.226
G1 X105.11 Y47.303
G1 X105.181 Y47.395 E17.8216
G1 X105.365 Y47.635 E17.83686
G1 X105.697 Y47.89 E17.85798
G1 X106.085 Y48.051 E17.87918
G1 X106.461 Y48.1 E17.89832
G1 X128.15 Y48.1 E18.99286
G1 X128.15 Y164.9 E24.88721
G1 X81.85 Y164.9 E27.22375
G1 X81.85 Y48.1 E33.1181
G1 X103.547 Y48.099 E34.21304
G1 X103.924 Y48.048 E34.23224
G0 F3600 X103.817 Y47.659
;TYPE:WALL-OUTER
G1 F1800 X104.107 Y47.536 E34.24814
G1 X104.354 Y47.344 E34.26393
G1 X104.541 Y47.101 E34.2794
G1 X104.661 Y46.811 E34.29524
G1 X104.7 Y46.513 E34.31041
G1 X104.7 Y44.7 E34.4019
G1 X105.3 Y44.7 E34.43218
G1 X105.3 Y46.513 E34.52367
G1 X105.339 Y46.811 E34.53884
G1 X105.459 Y47.101 E34.55468
G1 X105.65 Y47.35 E34.57052
G1 X105.899 Y47.541 E34.58635
G1 X106.189 Y47.661 E34.60219
G1 X106.487 Y47.7 E34.61736
G1 X128.55 Y47.7 E35.73077
G1 X128.55 Y165.3 E41.66549
G1 X81.45 Y165.3 E44.04241
G1 X81.45 Y47.7 E49.97713
G1 X103.52 Y47.699 E51.0909
G1 X103.817 Y47.659 E51.10602
G0 F3600 X104.001 Y47.581
G0 X104.196 Y48.042
G0 X104.51 Y48.223
;TYPE:SKIN
G1 F1800 X104.919 Y47.905 E51.13217
G1 X105 Y47.8 E51.13886
G1 X105.087 Y47.914 E51.14609
G1 X105.5 Y48.231 E51.17237
G1 X105.984 Y48.431 E51.1988
G1 X106.436 Y48.49 E51.2218
G1 X127.76 Y48.49 E52.29792
G1 X127.76 Y164.51 E58.15291
G1 X82.24 Y164.51 E60.45009
G1 X82.24 Y48.49 E66.30507
G1 X103.573 Y48.489 E67.38165
G1 X104.028 Y48.428 E67.40482
G1 X104.51 Y48.223 E67.43125
G0 F3600 X127.579 Y48.949
G1 F1800 X127.3 Y48.67 E67.45116
G0 F3600 X126.734 Y48.67
G1 F1800 X127.579 Y49.515 E67.51147
G1 X127.649 Y49.585
G0 F3600 X127.579 Y50.08
G1 F1800 X126.169 Y48.67 E67.6121
G1 X126.099 Y48.6
G0 F3600 X125.603 Y48.67
G1 F1800 X127.579 Y50.646 E67.75312
G1 X127.649 Y50.716
G0 F3600 X127.579 Y51.212
G1 F1800 X125.037 Y48.67 E67.93454
G1 X124.967 Y48.6
G0 F3600 X124.472 Y48.67
G1 F1800 X127.579 Y51.777 E68.15628
G1 X127.649 Y51.847
G0 F3600 X127.579 Y52.343
G1 F1800 X123.906 Y48.67 E68.41842
G1 X123.836 Y48.6
G0 F3600 X123.34 Y48.67
G1 F1800 X127.579 Y52.909 E68.72095
G1 X127.649 Y52.979
G0 F3600 X127.579 Y53.474
G1 F1800 X122.774 Y48.67 E69.06384
G1 X122.704 Y48.6
G0 F3600 X122.209 Y48.67
G1 F1800 X127.579 Y54.04 E69.44709
G1 X127.649 Y54.11
G0 F3600 X127.579 Y54.606
G1 F1800 X121.643 Y48.67 E69.87074
G1 X121.573 Y48.6
G0 F3600 X121.077 Y48.67
G1 F1800 X127.579 Y55.172 E70.33478
G1 X127.649 Y55.242
G0 F3600 X127.579 Y55.737
G1 F1800 X120.512 Y48.67 E70.83914
G1 X120.442 Y48.6
G0 F3600 X119.946 Y48.67
G1 F1800 X127.579 Y56.303 E71.3839
G1 X127.649 Y56.373
G0 F3600 X127.579 Y56.869
G1 F1800 X119.38 Y48.67 E71.96905
G1 X119.31 Y48.6
G0 F3600 X118.815 Y48.67
G1 F1800 X127.579 Y57.434 E72.59452
G1 X127.649 Y57.504
G0 F3600 X127.579 Y58
G1 F1800 X118.249 Y48.67 E73.26039
G1 X118.179 Y48.6
G0 F3600 X117.683 Y48.67
G1 F1800 X127.579 Y58.566 E73.96666
G1 X127.649 Y58.636
G0 F3600 X127.579 Y59.131
G1 F1800 X117.118 Y48.67 E74.71325
G1 X117.048 Y48.6
G0 F3600 X116.552 Y48.67
G1 F1800 X127.579 Y59.697 E75.50023
G1 X127.649 Y59.767
G0 F3600 X127.579 Y60.263
G1 F1800 X115.986 Y48.67 E76.32761
G1 X115.916 Y48.6
G0 F3600 X115.421 Y48.67
G1 F1800 X127.579 Y60.828 E77.19531
G1 X127.649 Y60.898
G0 F3600 X127.579 Y61.394
G1 F1800 X114.855 Y48.67 E78.1034
G1 X114.785 Y48.6
G0 F3600 X114.289 Y48.67
G1 F1800 X127.579 Y61.96 E79.05189
G1 X127.649 Y62.03
G0 F3600 X127.579 Y62.525
G1 F1800 X113.723 Y48.67 E80.04074
G1 X113.653 Y48.6
G0 F3600 X113.158 Y48.67
G1 F1800 X127.579 Y63.091 E81.06995
G1 X127.649 Y63.161
G0 F3600 X127.579 Y63.657
G1 F1800 X112.592 Y48.67 E82.13955
G1 X112.522 Y48.6
G0 F3600 X112.026 Y48.67
G1 F1800 X127.579 Y64.222 E83.24952
G1 X127.649 Y64.292
G0 F3600 X127.579 Y64.788
G1 F1800 X111.461 Y48.67 E84.39984
G1 X111.391 Y48.6
G0 F3600 X110.895 Y48.67
G1 F1800 X127.579 Y65.354 E85.59055
G1 X127.649 Y65.424
G0 F3600 X127.579 Y65.92
G1 F1800 X110.329 Y48.67 E86.82166
G1 X110.259 Y48.6
G0 F3600 X109.764 Y48.67
G1 F1800 X127.579 Y66.485 E88.0931
G1 X127.649 Y66.555
G0 F3600 X127.579 Y67.051
G1 F1800 X109.198 Y48.67 E89.40493
G1 X109.128 Y48.6
G0 F3600 X108.632 Y48.67
G1 F1800 X127.579 Y67.617 E90.75715
G1 X127.649 Y67.687
G0 F3600 X127.579 Y68.182
G1 F1800 X108.067 Y48.67 E92.14969
G1 X107.997 Y48.6
G0 F3600 X107.501 Y48.67
G1 F1800 X127.579 Y68.748 E93.58264
G1 X127.649 Y68.818
G0 F3600 X127.579 Y69.314
G1 F1800 X106.935 Y48.67 E95.05597
G1 X106.865 Y48.6
G0 F3600 X106.362 Y48.662
G1 F1800 X127.579 Y69.879 E96.5702
G1 X127.649 Y69.949
G0 F3600 X127.579 Y70.445
G1 F1800 X105.604 Y48.47 E98.13853
G1 X105.534 Y48.4
G0 F3600 X104.796 Y48.228
G1 F1800 X127.579 Y71.011 E99.76452
G1 X127.649 Y71.081
G0 F3600 X127.579 Y71.576
G1 F1800 X104.448 Y48.445 E101.41535
G1 X104.378 Y48.375
G0 F3600 X104.045 Y48.607
G1 F1800 X127.579 Y72.142 E103.09498
G1 X127.649 Y72.212
G0 F3600 X127.579 Y72.708
G1 F1800 X103.54 Y48.669 E104.81061
G1 X103.47 Y48.599
G0 F3600 X102.975 Y48.669
G1 F1800 X127.579 Y73.273 E106.56657
G1 X127.649 Y73.343
G0 F3600 X127.579 Y73.839
G1 F1800 X102.409 Y48.669 E108.36292
G1 X102.339 Y48.599
G0 F3600 X101.843 Y48.669
G1 F1800 X127.579 Y74.405 E110.19966
G1 X127.649 Y74.475
G0 F3600 X127.579 Y74.97
G1 F1800 X101.278 Y48.669 E112.07673
G1 X101.208 Y48.599
G0 F3600 X100.712 Y48.669
G1 F1800 X127.579 Y75.536 E113.99419
G1 X127.649 Y75.606
G0 F3600 X127.579 Y76.102
G1 F1800 X100.146 Y48.669 E115.95205
G1 X100.076 Y48.599
G0 F3600 X99.581 Y48.669
G1 F1800 X127.579 Y76.668 E117.95027
G1 X127.649 Y76.738
G0 F3600 X127.579 Y77.233
G1 F1800 X99.015 Y48.669 E119.98885
G1 X98.945 Y48.599
G0 F3600 X98.449 Y48.669
G1 F1800 X127.579 Y77.799 E122.06782
G1 X127.649 Y77.869
G0 F3600 X127.579 Y78.365
G1 F1800 X97.884 Y48.669 E124.18715
G1 X97.814 Y48.599
G0 F3600 X97.318 Y48.669
G1 F1800 X127.579 Y78.93 E126.34683
G1 X127.649 Y79
G0 F3600 X127.579 Y79.496
G1 F1800 X96.752 Y48.669 E128.54692
G1 X96.682 Y48.599
G0 F3600 X96.187 Y48.669
G1 F1800 X127.579 Y80.062 E130.78736
G1 X127.649 Y80.132
G0 F3600 X127.579 Y80.627
G1 F1800 X95.621 Y48.669 E133.06816
G1 X95.551 Y48.599
G0 F3600 X95.055 Y48.669
G1 F1800 X127.579 Y81.193 E135.38936
G1 X127.649 Y81.263
G0 F3600 X127.579 Y81.759
G1 F1800 X94.489 Y48.669 E137.75095
G1 X94.419 Y48.599
G0 F3600 X93.924 Y48.669
G1 F1800 X127.579 Y82.324 E140.15286
G1 X127.649 Y82.394
G0 F3600 X127.579 Y82.89
G1 F1800 X93.358 Y48.669 E142.59517
G1 X93.288 Y48.599
G0 F3600 X92.793 Y48.67
G1 F1800 X127.579 Y83.456 E145.0778
G1 X127.649 Y83.526
G0 F3600 X127.579 Y84.021
G1 F1800 X92.227 Y48.67 E147.60079
G1 X92.157 Y48.6
G0 F3600 X91.662 Y48.67
G1 F1800 X127.579 Y84.587 E150.16414
G1 X127.649 Y84.657
G0 F3600 X127.579 Y85.153
G1 F1800 X91.096 Y48.67 E152.76789
G1 X91.026 Y48.6
G0 F3600 X90.53 Y48.67
G1 F1800 X127.579 Y85.719 E155.41203
G1 X127.649 Y85.789
G0 F3600 X127.579 Y86.284
G1 F1800 X89.965 Y48.67 E158.09649
G1 X89.895 Y48.6
G0 F3600 X89.399 Y48.67
G1 F1800 X127.579 Y86.85 E160.82135
G1 X127.649 Y86.92
G0 F3600 X127.579 Y87.416
G1 F1800 X88.833 Y48.67 E163.5866
G1 X88.763 Y48.6
G0 F3600 X88.268 Y48.67
G1 F1800 X127.579 Y87.981 E166.39218
G1 X127.649 Y88.051
G0 F3600 X127.579 Y88.547
G1 F1800 X87.702 Y48.67 E169.23815
G1 X87.632 Y48.6
G0 F3600 X87.136 Y48.67
G1 F1800 X127.579 Y89.113 E172.12451
G1 X127.649 Y89.183
G0 F3600 X127.579 Y89.678
G1 F1800 X86.571 Y48.67 E175.0512
G1 X86.501 Y48.6
G0 F3600 X86.005 Y48.67
G1 F1800 X127.579 Y90.244 E178.01828
G1 X127.649 Y90.314
G0 F3600 X127.579 Y90.81
G1 F1800 X85.439 Y48.67 E181.02576
G1 X85.369 Y48.6
G0 F3600 X84.874 Y48.67
G1 F1800 X127.579 Y91.375 E184.07356
G1 X127.649 Y91.445
G0 F3600 X127.579 Y91.941
G1 F1800 X84.308 Y48.67 E187.16176
G1 X84.238 Y48.6
G0 F3600 X83.742 Y48.67
G1 F1800 X127.579 Y92.507 E190.29035
G1 X127.649 Y92.577
G0 F3600 X127.579 Y93.072
G1 F1800 X83.176 Y48.67 E193.4593
G1 X83.106 Y48.6
G0 F3600 X82.611 Y48.67
G1 F1800 X127.579 Y93.638 E196.6686
G1 X127.649 Y93.708
G0 F3600 X127.579 Y94.204
G1 F1800 X82.418 Y49.043 E199.89169
G1 X82.348 Y48.973
G0 F3600 X82.418 Y49.609
G1 F1800 X127.579 Y94.769 E203.11473
G1 X127.649 Y94.839
G0 F3600 X127.579 Y95.335
G1 F1800 X82.418 Y50.174 E206.33782
G1 X82.348 Y50.104
G0 F3600 X82.418 Y50.74
G1 F1800 X127.579 Y95.901 E209.5609
G1 X127.649 Y95.971
G0 F3600 X127.579 Y96.467
G1 F1800 X82.418 Y51.306 E212.78398
G1 X82.348 Y51.236
G0 F3600 X82.418 Y51.871
G1 F1800 X127.579 Y97.032 E216.00706
G1 X127.649 Y97.102
G0 F3600 X127.579 Y97.598
G1 F1800 X82.418 Y52.437 E219.23015
G1 X82.348 Y52.367
G0 F3600 X82.418 Y53.003
G1 F1800 X127.579 Y98.164 E222.45323
G1 X127.649 Y98.234
G0 F3600 X127.579 Y98.729
G1 F1800 X82.418 Y53.568 E225.67631
G1 X82.348 Y53.498
G0 F3600 X82.418 Y54.134
G1 F1800 X127.579 Y99.295 E228.89939
G1 X127.649 Y99.365
G0 F3600 X127.579 Y99.861
G1 F1800 X82.418 Y54.7 E232.12248
G1 X82.348 Y54.63
G0 F3600 X82.418 Y55.266
G1 F1800 X127.579 Y100.426 E235.34552
G1 X127.649 Y100.496
G0 F3600 X127.579 Y100.992
G1 F1800 X82.418 Y55.831 E238.5686
G1 X82.348 Y55.761
G0 F3600 X82.418 Y56.397
G1 F1800 X127.579 Y101.558 E241.79169
G1 X127.649 Y101.628
G0 F3600 X127.579 Y102.123
G1 F1800 X82.418 Y56.963 E245.01473
G1 X82.348 Y56.893
G0 F3600 X82.418 Y57.528
G1 F1800 X127.579 Y102.689 E248.23782
G1 X127.649 Y102.759
G0 F3600 X127.579 Y103.255
G1 F1800 X82.418 Y58.094 E251.4609
G1 X82.348 Y58.024
G0 F3600 X82.418 Y58.66
G1 F1800 X127.579 Y103.82 E254.68395
G1 X127.649 Y103.89
G0 F3600 X127.579 Y104.386
G1 F1800 X82.418 Y59.225 E257.90703
G1 X82.348 Y59.155
G0 F3600 X82.418 Y59.791
G1 F1800 X127.579 Y104.952 E261.13011
G1 X127.649 Y105.022
G0 F3600 X127.579 Y105.518
G1 F1800 X82.418 Y60.357 E264.35319
G1 X82.348 Y60.287
G0 F3600 X82.418 Y60.922
G1 F1800 X127.579 Y106.083 E267.57628
G1 X127.649 Y106.153
G0 F3600 X127.579 Y106.649
G1 F1800 X82.418 Y61.488 E270.79936
G1 X82.348 Y61.418
G0 F3600 X82.418 Y62.054
G1 F1800 X127.579 Y107.215 E274.02244
G1 X127.649 Y107.285
G0 F3600 X127.579 Y107.78
G1 F1800 X82.418 Y62.619 E277.24552
G1 X82.348 Y62.549
G0 F3600 X82.418 Y63.185
G1 F1800 X127.579 Y108.346 E280.46861
G1 X127.649 Y108.416
G0 F3600 X127.579 Y108.912
G1 F1800 X82.418 Y63.751 E283.69169
G1 X82.348 Y63.681
G0 F3600 X82.418 Y64.317
G1 F1800 X127.579 Y109.477 E286.91473
G1 X127.649 Y109.547
G0 F3600 X127.579 Y110.043
G1 F1800 X82.418 Y64.882 E290.13782
G1 X82.348 Y64.812
G0 F3600 X82.418 Y65.448
G1 F1800 X127.579 Y110.609 E293.3609
G1 X127.649 Y110.679
G0 F3600 X127.579 Y111.174
G1 F1800 X82.418 Y66.014 E296.58395
G1 X82.348 Y65.944
G0 F3600 X82.418 Y66.579
G1 F1800 X127.579 Y111.74 E299.80703
G1 X127.649 Y111.81
G0 F3600 X127.579 Y112.306
G1 F1800 X82.418 Y67.145 E303.03011
G1 X82.348 Y67.075
G0 F3600 X82.418 Y67.711
G1 F1800 X127.579 Y112.871 E306.25316
G1 X127.649 Y112.941
G0 F3600 X127.579 Y113.437
G1 F1800 X82.418 Y68.276 E309.47624
G1 X82.348 Y68.206
G0 F3600 X82.418 Y68.842
G1 F1800 X127.579 Y114.003 E312.69932
G1 X127.649 Y114.073
G0 F3600 X127.579 Y114.568
G1 F1800 X82.418 Y69.408 E315.92237
G1 X82.348 Y69.338
G0 F3600 X82.418 Y69.973
G1 F1800 X127.579 Y115.134 E319.14545
G1 X127.649 Y115.204
G0 F3600 X127.579 Y115.7
G1 F1800 X82.418 Y70.539 E322.36853
G1 X82.348 Y70.469
G0 F3600 X82.418 Y71.105
G1 F1800 X127.579 Y116.266 E325.59162
G1 X127.649 Y116.336
G0 F3600 X127.579 Y116.831
G1 F1800 X82.418 Y71.67 E328.8147
G1 X82.348 Y71.6
G0 F3600 X82.418 Y72.236
G1 F1800 X127.579 Y117.397 E332.03778
G1 X127.649 Y117.467
G0 F3600 X127.579 Y117.963
G1 F1800 X82.418 Y72.802 E335.26086
G1 X82.348 Y72.732
G0 F3600 X82.418 Y73.367
G1 F1800 X127.579 Y118.528 E338.48395
G1 X127.649 Y118.598
G0 F3600 X127.579 Y119.094
G1 F1800 X82.418 Y73.933 E341.70703
G1 X82.348 Y73.863
G0 F3600 X82.418 Y74.499
G1 F1800 X127.579 Y119.66 E344.93011
G1 X127.649 Y119.73
G0 F3600 X127.579 Y120.225
G1 F1800 X82.418 Y75.065 E348.15316
G1 X82.348 Y74.995
G0 F3600 X82.418 Y75.63
G1 F1800 X127.579 Y120.791 E351.37624
G1 X127.649 Y120.861
G0 F3600 X127.579 Y121.357
G1 F1800 X82.418 Y76.196 E354.59932
G1 X82.348 Y76.126
G0 F3600 X82.418 Y76.762
G1 F1800 X127.579 Y121.922 E357.82237
G1 X127.649 Y121.992
G0 F3600 X127.579 Y122.488
G1 F1800 X82.418 Y77.327 E361.04545
G1 X82.348 Y77.257
G0 F3600 X82.418 Y77.893
G1 F1800 X127.579 Y123.054 E364.26854
G1 X127.649 Y123.124
G0 F3600 X127.579 Y123.619
G1 F1800 X82.418 Y78.459 E367.49158
G1 X82.348 Y78.389
G0 F3600 X82.418 Y79.024
G1 F1800 X127.579 Y124.185 E370.71466
G1 X127.649 Y124.255
G0 F3600 X127.579 Y124.751
G1 F1800 X82.418 Y79.59 E373.93775
G1 X82.348 Y79.52
G0 F3600 X82.418 Y80.156
G1 F1800 X127.579 Y125.316 E377.16079
G1 X127.649 Y125.386
G0 F3600 X127.579 Y125.882
G1 F1800 X82.418 Y80.721 E380.38388
G1 X82.348 Y80.651
G0 F3600 X82.418 Y81.287
G1 F1800 X127.579 Y126.448 E383.60696
G1 X127.649 Y126.518
G0 F3600 X127.579 Y127.014
G1 F1800 X82.418 Y81.853 E386.83004
G1 X82.348 Y81.783
G0 F3600 X82.418 Y82.418
G1 F1800 X127.579 Y127.579 E390.05312
G1 X127.649 Y127.649
G0 F3600 X127.579 Y128.145
G1 F1800 X82.418 Y82.984 E393.27621
G1 X82.348 Y82.914
G0 F3600 X82.418 Y83.55
G1 F1800 X127.579 Y128.711 E396.49929
G1 X127.649 Y128.781
G0 F3600 X127.579 Y129.276
G1 F1800 X82.418 Y84.116 E399.72233
G1 X82.348 Y84.046
G0 F3600 X82.418 Y84.681
G1 F1800 X127.579 Y129.842 E402.94542
G1 X127.649 Y129.912
G0 F3600 X127.579 Y130.408
G1 F1800 X82.418 Y85.247 E406.1685
G1 X82.348 Y85.177
G0 F3600 X82.418 Y85.813
G1 F1800 X127.579 Y130.973 E409.39155
G1 X127.649 Y131.043
G0 F3600 X127.579 Y131.539
G1 F1800 X82.418 Y86.378 E412.61463
G1 X82.348 Y86.308
G0 F3600 X82.418 Y86.944
G1 F1800 X127.579 Y132.105 E415.83771
G1 X127.649 Y132.175
G0 F3600 X127.579 Y132.67
G1 F1800 X82.418 Y87.51 E419.06076
G1 X82.348 Y87.44
G0 F3600 X82.418 Y88.075
G1 F1800 X127.579 Y133.236 E422.28384
G1 X127.649 Y133.306
G0 F3600 X127.579 Y133.802
G1 F1800 X82.418 Y88.641 E425.50692
G1 X82.348 Y88.571
G0 F3600 X82.418 Y89.207
G1 F1800 X127.579 Y134.367 E428.72997
