;FLAVOR:Marlin
;TIME:6198
;Filament used: 5.26884m
;Layer height: 0.2
;Generated with Cura_SteamEngine 3.2.1
M190 S50
M104 S210
M109 S210
M82 ;absolute extrusion mode
G28 ;Home
G1 Z15.0 F6000 ;Move the platform down 15mm
;Prime the extruder
G92 E0
G1 F200 E3
G92 E0
;LAYER_COUNT:98
;LAYER:0
M107
G0 F3600 X78.412 Y46.546 Z0.3
;TYPE:SKIRT
G1 F1800 X78.678 Y46.116 E0.02552
G1 X79.008 Y45.733 E0.05103
G1 X79.395 Y45.407 E0.07657
G1 X79.828 Y45.146 E0.10208
G1 X80.296 Y44.956 E0.12757
G1 X80.765 Y44.846 E0.15188
G1 X83.794 Y44.373 E0.30659
G1 X89.185 Y43.287 E0.58412
G1 X91.807 Y42.642 E0.72038
G1 X97.609 Y40.939 E1.02553
G1 X98.103 Y40.835 E1.05101
G1 X98.511 Y40.809 E1.07164
G1 X111.504 Y40.812 E1.72734
G1 X112.008 Y40.852 E1.75285
G1 X112.459 Y40.958 E1.77623
G1 X114.357 Y41.552 E1.8766
G1 X119.658 Y43.006 E2.15399
G1 X125.052 Y44.163 E2.43239
G1 X129.238 Y44.848 E2.64645
G1 X129.729 Y44.969 E2.67197
G1 X130.195 Y45.165 E2.69748
G1 X130.624 Y45.433 E2.72301
G1 X131.005 Y45.765 E2.74851
G1 X131.329 Y46.152 E2.77398
G1 X131.589 Y46.586 E2.79952
G1 X131.777 Y47.056 E2.82506
G1 X131.888 Y47.549 E2.85056
G1 X131.921 Y48.005 E2.87364
G1 X131.941 Y165.99 E8.82778
G1 X131.901 Y166.494 E8.8533
G1 X131.782 Y166.986 E8.87884
G1 X131.588 Y167.452 E8.90432
G1 X131.322 Y167.883 E8.92988
G1 X130.992 Y168.265 E8.95535
G1 X130.606 Y168.592 E8.98088
G1 X130.173 Y168.853 E9.0064
G1 X129.704 Y169.043 E9.03193
G1 X129.212 Y169.156 E9.05741
G1 X128.741 Y169.191 E9.08124
G1 X81.259 Y169.191 E11.47744
G1 X80.755 Y169.151 E11.50295
G1 X80.264 Y169.032 E11.52845
G1 X79.797 Y168.838 E11.55397
G1 X79.367 Y168.572 E11.57948
G1 X78.984 Y168.242 E11.605
G1 X78.658 Y167.855 E11.63053
G1 X78.397 Y167.422 E11.65605
G1 X78.207 Y166.954 E11.68154
G1 X78.094 Y166.461 E11.70706
G1 X78.059 Y165.991 E11.73084
G1 X78.059 Y48.008 E17.68489
G1 X78.099 Y47.504 E17.71041
G1 X78.218 Y47.013 E17.7359
G1 X78.412 Y46.546 E17.76142
G1 F1500 E11.26142
G0 F3600 X101.665 Y45.713
G0 X102.348 Y44.62
G0 X102.629 Y44.814
G0 X103.148 Y45.562
G0 X103.052 Y45.587
;TYPE:WALL-INNER
G1 F1500 E17.76142
G1 F1800 X102.887 Y45.193 E17.78298
G1 X102.717 Y44.973 E17.79701
G1 X102.633 Y44.864 E17.80395
G1 X102.303 Y44.61 E17.82497
G1 X102.279 Y44.6 E17.82628
G1 X102.303 Y44.6
G1 X102.633 Y44.6
G1 X102.771 Y44.6 E17.83219
G1 X107.23 Y44.6 E18.05721
G1 X107.364 Y44.6 E18.06397
G1 X107.692 Y44.6 E18.08053
G1 X107.723 Y44.6 E18.08209
G1 X107.692 Y44.613
G1 X107.364 Y44.868 E18.08886
G1 X107.282 Y44.974 E18.09463
G1 X107.11 Y45.197 E18.10884
G1 X106.951 Y45.582 E18.12986
G1 X106.9 Y45.972 E18.14971
G1 X106.901 Y46.546 E18.17868
G1 X106.967 Y47.048 E18.20423
G1 X107.178 Y47.554 E18.23189
G1 X107.511 Y47.989 E18.25954
G1 X107.948 Y48.324 E18.28733
G1 X108.456 Y48.534 E18.31507
G1 X108.961 Y48.6 E18.34077
G1 X128.15 Y48.6 E19.30915
G1 X128.15 Y165.4 E25.2035
G1 X81.85 Y165.4 E27.54004
G1 X81.85 Y48.6 E33.43439
G1 X101.049 Y48.599 E34.40327
G1 X101.555 Y48.53 E34.42904
G1 X102.062 Y48.316 E34.45681
G1 X102.494 Y47.981 E34.4844
G1 X102.826 Y47.546 E34.51202
G1 X103.035 Y47.041 E34.5396
G1 X103.1 Y46.539 E34.56514
G1 X103.1 Y45.961 E34.59431
G1 X103.052 Y45.587 E34.61334
G0 F3600 X102.662 Y45.692
;TYPE:WALL-OUTER
G1 F1800 X102.538 Y45.396 E34.62954
G1 X102.348 Y45.149 E34.64526
G1 X102.101 Y44.959 E34.66099
G1 X101.813 Y44.84 E34.67672
G1 X101.517 Y44.801 E34.69178
G1 X98.7 Y44.8 E34.83394
G1 X98.7 Y44.2 E34.86422
G1 X111.3 Y44.2 E35.50009
G1 X111.3 Y44.8 E35.53036
G1 X108.487 Y44.8 E35.67232
G1 X108.192 Y44.838 E35.68733
G1 X107.895 Y44.962 E35.70358
G1 X107.649 Y45.153 E35.71929
G1 X107.459 Y45.399 E35.73498
G1 X107.341 Y45.686 E35.75064
G1 X107.3 Y45.998 E35.76652
G1 X107.301 Y46.519 E35.79281
G1 X107.357 Y46.943 E35.81439
G1 X107.527 Y47.352 E35.83675
G1 X107.796 Y47.704 E35.8591
G1 X108.149 Y47.974 E35.88153
G1 X108.56 Y48.144 E35.90398
G1 X108.987 Y48.2 E35.92571
G1 X128.55 Y48.2 E36.91296
G1 X128.55 Y165.8 E42.84768
G1 X81.45 Y165.8 E45.2246
G1 X81.45 Y48.2 E51.15932
G1 X101.022 Y48.199 E52.14702
G1 X101.448 Y48.141 E52.16872
G1 X101.858 Y47.968 E52.19118
G1 X102.208 Y47.697 E52.21352
G1 X102.476 Y47.345 E52.23584
G1 X102.645 Y46.937 E52.25813
G1 X102.7 Y46.513 E52.27971
G1 X102.7 Y45.987 E52.30625
G1 X102.662 Y45.692 E52.32126
G0 F3600 X102.585 Y45.507
G0 X103.046 Y45.315
G0 X103.222 Y44.99
;TYPE:SKIN
G1 F1800 X106.777 Y44.99 E52.50067
G1 X106.571 Y45.481 E52.52754
G1 X106.51 Y45.947 E52.55125
G1 X106.511 Y46.572 E52.58279
G1 X106.587 Y47.15 E52.61221
G1 X106.837 Y47.751 E52.64506
G1 X107.232 Y48.267 E52.67786
G1 X107.751 Y48.665 E52.71086
G1 X108.355 Y48.914 E52.74383
G1 X108.936 Y48.99 E52.7734
G1 X127.76 Y48.99 E53.72336
G1 X127.76 Y165.01 E59.57835
G1 X82.24 Y165.01 E61.87553
G1 X82.24 Y48.99 E67.73051
G1 X101.076 Y48.989 E68.68108
G1 X101.659 Y48.91 E68.71077
G1 X102.261 Y48.655 E68.74376
G1 X102.773 Y48.258 E68.77645
G1 X103.167 Y47.743 E68.80918
G1 X103.415 Y47.142 E68.84199
G1 X103.49 Y46.564 E68.8714
G1 X103.49 Y45.936 E68.90309
G1 X103.432 Y45.485 E68.92604
G1 X103.222 Y44.99 E68.95318
G0 F3600 X107.929 Y48.358
G0 X108.446 Y48.572
G0 X108.59 Y48.59
G0 X127.58 Y49.515
G1 F1800 X127.234 Y49.17 E68.97783
G0 F3600 X126.668 Y49.17
G1 F1800 X127.58 Y50.081 E69.04289
G1 X127.65 Y50.151
G0 F3600 X127.58 Y50.647
G1 F1800 X126.103 Y49.17 E69.1483
G1 X126.033 Y49.1
G0 F3600 X125.537 Y49.17
G1 F1800 X127.58 Y51.212 E69.29407
G1 X127.65 Y51.282
G0 F3600 X127.58 Y51.778
G1 F1800 X124.971 Y49.17 E69.48023
G1 X124.901 Y49.1
G0 F3600 X124.406 Y49.17
G1 F1800 X127.58 Y52.344 E69.70676
G1 X127.65 Y52.414
G0 F3600 X127.58 Y52.909
G1 F1800 X123.84 Y49.17 E69.97364
G1 X123.77 Y49.1
G0 F3600 X123.274 Y49.17
G1 F1800 X127.58 Y53.475 E70.28092
G1 X127.65 Y53.545
G0 F3600 X127.58 Y54.041
G1 F1800 X122.709 Y49.17 E70.62856
G1 X122.639 Y49.1
G0 F3600 X122.143 Y49.17
G1 F1800 X127.58 Y54.607 E71.01659
G1 X127.65 Y54.677
G0 F3600 X127.58 Y55.172
G1 F1800 X121.577 Y49.17 E71.44498
G1 X121.507 Y49.1
G0 F3600 X121.012 Y49.17
G1 F1800 X127.58 Y55.738 E71.91373
G1 X127.65 Y55.808
G0 F3600 X127.58 Y56.304
G1 F1800 X120.446 Y49.17 E72.42287
G1 X120.376 Y49.1
G0 F3600 X119.88 Y49.17
G1 F1800 X127.58 Y56.869 E72.97238
G1 X127.65 Y56.939
G0 F3600 X127.58 Y57.435
G1 F1800 X119.315 Y49.17 E73.56224
G1 X119.245 Y49.1
G0 F3600 X118.749 Y49.17
G1 F1800 X127.58 Y58.001 E74.1925
G1 X127.65 Y58.071
G0 F3600 X127.58 Y58.566
G1 F1800 X118.183 Y49.17 E74.86311
G1 X118.113 Y49.1
G0 F3600 X117.618 Y49.17
G1 F1800 X127.58 Y59.132 E75.57409
G1 X127.65 Y59.202
G0 F3600 X127.58 Y59.698
G1 F1800 X117.052 Y49.17 E76.32546
G1 X116.982 Y49.1
G0 F3600 X116.486 Y49.17
G1 F1800 X127.58 Y60.263 E77.11719
G1 X127.65 Y60.333
G0 F3600 X127.58 Y60.829
G1 F1800 X115.92 Y49.17 E77.94931
G1 X115.85 Y49.1
G0 F3600 X115.355 Y49.17
G1 F1800 X127.58 Y61.395 E78.82179
G1 X127.65 Y61.465
G0 F3600 X127.58 Y61.96
G1 F1800 X114.789 Y49.17 E79.73463
G1 X114.719 Y49.1
G0 F3600 X114.223 Y49.17
G1 F1800 X127.58 Y62.526 E80.68787
G1 X127.65 Y62.596
G0 F3600 X127.58 Y63.092
G1 F1800 X113.658 Y49.17 E81.68147
G1 X113.588 Y49.1
G0 F3600 X113.092 Y49.17
G1 F1800 X127.58 Y63.657 E82.71542
G1 X127.65 Y63.727
G0 F3600 X127.58 Y64.223
G1 F1800 X112.526 Y49.17 E83.78977
G1 X112.456 Y49.1
G0 F3600 X111.961 Y49.17
G1 F1800 X127.58 Y64.789 E84.90448
G1 X127.65 Y64.859
G0 F3600 X127.58 Y65.355
G1 F1800 X111.395 Y49.17 E86.05958
G1 X111.325 Y49.1
G0 F3600 X110.829 Y49.17
G1 F1800 X127.58 Y65.92 E87.25504
G1 X127.65 Y65.99
G0 F3600 X127.58 Y66.486
G1 F1800 X110.264 Y49.17 E88.49086
G1 X110.194 Y49.1
G0 F3600 X109.698 Y49.17
G1 F1800 X127.58 Y67.052 E89.76708
G1 X127.65 Y67.122
G0 F3600 X127.58 Y67.617
G1 F1800 X109.132 Y49.17 E91.08365
G1 X109.062 Y49.1
G0 F3600 X108.514 Y49.117
G1 F1800 X127.58 Y68.183 E92.44437
G1 X127.65 Y68.253
G0 F3600 X127.58 Y68.749
G1 F1800 X107.635 Y48.804 E93.86782
G1 X107.565 Y48.734
G0 F3600 X106.696 Y47.864
G1 F1800 X104.001 Y45.169 E94.06015
G1 X103.931 Y45.099
G0 F3600 X103.535 Y45.27
G1 F1800 X127.58 Y69.314 E95.77618
G1 X127.65 Y69.384
G0 F3600 X127.58 Y69.88
G1 F1800 X103.668 Y45.969 E97.48271
G1 X103.598 Y45.899
G0 F3600 X103.668 Y46.534
G1 F1800 X127.58 Y70.446 E99.18928
G1 X127.65 Y70.516
G0 F3600 X127.58 Y71.011
G1 F1800 X103.608 Y47.04 E100.9001
G1 X103.538 Y46.97
G0 F3600 X103.473 Y47.47
G1 F1800 X127.58 Y71.577 E102.62058
G1 X127.65 Y71.647
G0 F3600 X127.58 Y72.143
G1 F1800 X103.3 Y47.863 E104.35341
G1 X103.23 Y47.793
G0 F3600 X103.055 Y48.183
G1 F1800 X127.58 Y72.708 E106.10373
G1 X127.65 Y72.778
G0 F3600 X127.58 Y73.274
G1 F1800 X102.783 Y48.477 E107.87346
G1 X102.713 Y48.407
G0 F3600 X102.464 Y48.724
G1 F1800 X127.58 Y73.84 E109.66596
G1 X127.65 Y73.91
G0 F3600 X127.58 Y74.406
G1 F1800 X102.095 Y48.921 E111.48479
G1 X102.025 Y48.851
G0 F3600 X101.696 Y49.087
G1 F1800 X127.58 Y74.971 E113.3321
G1 X127.65 Y75.041
G0 F3600 X127.58 Y75.537
G1 F1800 X101.197 Y49.154 E115.21502
G1 X101.127 Y49.084
G0 F3600 X100.647 Y49.17
G1 F1800 X127.58 Y76.103 E117.13719
G1 X127.65 Y76.173
G0 F3600 X127.58 Y76.668
G1 F1800 X100.081 Y49.17 E119.09973
G1 X100.011 Y49.1
G0 F3600 X99.516 Y49.17
G1 F1800 X127.58 Y77.234 E121.10262
G1 X127.65 Y77.304
G0 F3600 X127.58 Y77.8
G1 F1800 X98.95 Y49.17 E123.1459
G1 X98.88 Y49.1
G0 F3600 X98.384 Y49.17
G1 F1800 X127.58 Y78.365 E125.22955
G1 X127.65 Y78.435
G0 F3600 X127.58 Y78.931
G1 F1800 X97.819 Y49.17 E127.35355
G1 X97.749 Y49.1
G0 F3600 X97.253 Y49.17
G1 F1800 X127.58 Y79.497 E129.51795
G1 X127.65 Y79.567
G0 F3600 X127.58 Y80.062
G1 F1800 X96.687 Y49.17 E131.72271
G1 X96.617 Y49.1
G0 F3600 X96.121 Y49.17
G1 F1800 X127.58 Y80.628 E133.96786
G1 X127.65 Y80.698
G0 F3600 X127.58 Y81.194
G1 F1800 X95.556 Y49.17 E136.25337
G1 X95.486 Y49.1
G0 F3600 X94.99 Y49.17
G1 F1800 X127.58 Y81.759 E138.57924
G1 X127.65 Y81.829
G0 F3600 X127.58 Y82.325
G1 F1800 X94.424 Y49.17 E140.94551
G1 X94.354 Y49.1
G0 F3600 X93.859 Y49.17
G1 F1800 X127.58 Y82.891 E143.35213
G1 X127.65 Y82.961
G0 F3600 X127.58 Y83.456
G1 F1800 X93.293 Y49.17 E145.79912
G1 X93.223 Y49.1
G0 F3600 X92.727 Y49.17
G1 F1800 X127.58 Y84.022 E148.2865
G1 X127.65 Y84.092
G0 F3600 X127.58 Y84.588
G1 F1800 X92.162 Y49.17 E150.81423
G1 X92.092 Y49.1
G0 F3600 X91.596 Y49.17
G1 F1800 X127.58 Y85.154 E153.38236
G1 X127.65 Y85.224
G0 F3600 X127.58 Y85.719
G1 F1800 X91.03 Y49.17 E155.99086
G1 X90.96 Y49.1
G0 F3600 X90.465 Y49.17
G1 F1800 X127.58 Y86.285 E158.63971
G1 X127.65 Y86.355
G0 F3600 X127.58 Y86.851
G1 F1800 X89.899 Y49.17 E161.32895
G1 X89.829 Y49.1
G0 F3600 X89.333 Y49.17
G1 F1800 X127.58 Y87.416 E164.05855
G1 X127.65 Y87.486
G0 F3600 X127.58 Y87.982
G1 F1800 X88.768 Y49.17 E166.82852
G1 X88.698 Y49.1
G0 F3600 X88.202 Y49.17
G1 F1800 X127.58 Y88.548 E169.63887
G1 X127.65 Y88.618
G0 F3600 X127.58 Y89.113
G1 F1800 X87.636 Y49.17 E172.48959
G1 X87.566 Y49.1
G0 F3600 X87.071 Y49.17
G1 F1800 X127.58 Y89.679 E175.38066
G1 X127.65 Y89.749
G0 F3600 X127.58 Y90.245
G1 F1800 X86.505 Y49.17 E178.31213
G1 X86.435 Y49.1
G0 F3600 X85.939 Y49.17
G1 F1800 X127.58 Y90.81 E181.28396
G1 X127.65 Y90.88
G0 F3600 X127.58 Y91.376
G1 F1800 X85.373 Y49.17 E184.29619
G1 X85.303 Y49.1
G0 F3600 X84.808 Y49.17
G1 F1800 X127.58 Y91.942 E187.34877
G1 X127.65 Y92.012
G0 F3600 X127.58 Y92.507
G1 F1800 X84.242 Y49.17 E190.44171
G1 X84.172 Y49.1
G0 F3600 X83.676 Y49.17
G1 F1800 X127.58 Y93.073 E193.57505
G1 X127.65 Y93.143
G0 F3600 X127.58 Y93.639
G1 F1800 X83.111 Y49.17 E196.74874
G1 X83.041 Y49.1
G0 F3600 X82.545 Y49.17
G1 F1800 X127.58 Y94.205 E199.96283
G1 X127.65 Y94.275
G0 F3600 X127.58 Y94.77
G1 F1800 X82.419 Y49.609 E203.18591
G1 X82.349 Y49.539
G0 F3600 X82.419 Y50.175
G1 F1800 X127.58 Y95.336 E206.409
G1 X127.65 Y95.406
G0 F3600 X127.58 Y95.902
G1 F1800 X82.419 Y50.741 E209.63208
G1 X82.349 Y50.671
G0 F3600 X82.419 Y51.306
G1 F1800 X127.58 Y96.467 E212.85516
G1 X127.65 Y96.537
G0 F3600 X127.58 Y97.033
G1 F1800 X82.419 Y51.872 E216.07824
G1 X82.349 Y51.802
G0 F3600 X82.419 Y52.438
G1 F1800 X127.58 Y97.599 E219.30133
G1 X127.65 Y97.669
G0 F3600 X127.58 Y98.164
G1 F1800 X82.419 Y53.004 E222.52437
G1 X82.349 Y52.934
G0 F3600 X82.419 Y53.569
G1 F1800 X127.58 Y98.73 E225.74746
G1 X127.65 Y98.8
G0 F3600 X127.58 Y99.296
G1 F1800 X82.419 Y54.135 E228.97054
G1 X82.349 Y54.065
G0 F3600 X82.419 Y54.701
G1 F1800 X127.58 Y99.861 E232.19359
G1 X127.65 Y99.931
G0 F3600 X127.58 Y100.427
G1 F1800 X82.419 Y55.266 E235.41667
G1 X82.349 Y55.196
G0 F3600 X82.419 Y55.832
G1 F1800 X127.58 Y100.993 E238.63975
G1 X127.65 Y101.063
G0 F3600 X127.58 Y101.558
G1 F1800 X82.419 Y56.398 E241.8628
G1 X82.349 Y56.328
G0 F3600 X82.419 Y56.963
G1 F1800 X127.58 Y102.124 E245.08588
G1 X127.65 Y102.194
G0 F3600 X127.58 Y102.69
G1 F1800 X82.419 Y57.529 E248.30896
G1 X82.349 Y57.459
G0 F3600 X82.419 Y58.095
G1 F1800 X127.58 Y103.255 E251.53201
G1 X127.65 Y103.325
G0 F3600 X127.58 Y103.821
G1 F1800 X82.419 Y58.66 E254.75509
G1 X82.349 Y58.59
G0 F3600 X82.419 Y59.226
G1 F1800 X127.58 Y104.387 E257.97817
G1 X127.65 Y104.457
G0 F3600 X127.58 Y104.953
G1 F1800 X82.419 Y59.792 E261.20126
G1 X82.349 Y59.722
G0 F3600 X82.419 Y60.357
G1 F1800 X127.58 Y105.518 E264.42434
G1 X127.65 Y105.588
G0 F3600 X127.58 Y106.084
G1 F1800 X82.419 Y60.923 E267.64742
G1 X82.349 Y60.853
G0 F3600 X82.419 Y61.489
G1 F1800 X127.58 Y106.65 E270.8705
G1 X127.65 Y106.72
G0 F3600 X127.58 Y107.215
G1 F1800 X82.419 Y62.054 E274.09359
G1 X82.349 Y61.984
G0 F3600 X82.419 Y62.62
G1 F1800 X127.58 Y107.781 E277.31667
G1 X127.65 Y107.851
G0 F3600 X127.58 Y108.347
G1 F1800 X82.419 Y63.186 E280.53975
G1 X82.349 Y63.116
G0 F3600 X82.419 Y63.752
G1 F1800 X127.58 Y108.912 E283.7628
G1 X127.65 Y108.982
G0 F3600 X127.58 Y109.478
G1 F1800 X82.419 Y64.317 E286.98588
G1 X82.349 Y64.247
G0 F3600 X82.419 Y64.883
G1 F1800 X127.58 Y110.044 E290.20896
G1 X127.65 Y110.114
G0 F3600 X127.58 Y110.609
G1 F1800 X82.419 Y65.449 E293.43201
G1 X82.349 Y65.379
G0 F3600 X82.419 Y66.014
G1 F1800 X127.58 Y111.175 E296.65509
G1 X127.65 Y111.245
G0 F3600 X127.58 Y111.741
G1 F1800 X82.419 Y66.58 E299.87817
G1 X82.349 Y66.51
G0 F3600 X82.419 Y67.146
G1 F1800 X127.58 Y112.306 E303.10122
G1 X127.65 Y112.376
G0 F3600 X127.58 Y112.872
G1 F1800 X82.419 Y67.711 E306.3243
G1 X82.349 Y67.641
G0 F3600 X82.419 Y68.277
G1 F1800 X127.58 Y113.438 E309.54739
G1 X127.65 Y113.508
G0 F3600 X127.58 Y114.003
G1 F1800 X82.419 Y68.843 E312.77043
G1 X82.349 Y68.773
G0 F3600 X82.419 Y69.408
G1 F1800 X127.58 Y114.569 E315.99352
G1 X127.65 Y114.639
G0 F3600 X127.58 Y115.135
G1 F1800 X82.419 Y69.974 E319.2166
G1 X82.349 Y69.904
G0 F3600 X82.419 Y70.54
G1 F1800 X127.58 Y115.701 E322.43968
G1 X127.65 Y115.771
G0 F3600 X127.58 Y116.266
G1 F1800 X82.419 Y71.105 E325.66276
G1 X82.349 Y71.035
G0 F3600 X82.419 Y71.671
G1 F1800 X127.58 Y116.832 E328.88584
G1 X127.65 Y116.902
G0 F3600 X127.58 Y117.398
G1 F1800 X82.419 Y72.237 E332.10893
G1 X82.349 Y72.167
G0 F3600 X82.419 Y72.803
G1 F1800 X127.58 Y117.963 E335.33197
G1 X127.65 Y118.033
G0 F3600 X127.58 Y118.529
G1 F1800 X82.419 Y73.368 E338.55506
G1 X82.349 Y73.298
G0 F3600 X82.419 Y73.934
G1 F1800 X127.58 Y119.095 E341.77814
G1 X127.65 Y119.165
G0 F3600 X127.58 Y119.66
G1 F1800 X82.419 Y74.5 E345.00119
G1 X82.349 Y74.43
G0 F3600 X82.419 Y75.065
G1 F1800 X127.58 Y120.226 E348.22427
G1 X127.65 Y120.296
G0 F3600 X127.58 Y120.792
G1 F1800 X82.419 Y75.631 E351.44735
G1 X82.349 Y75.561
G0 F3600 X82.419 Y76.197
G1 F1800 X127.58 Y121.357 E354.6704
G1 X127.65 Y121.427
G0 F3600 X127.58 Y121.923
G1 F1800 X82.419 Y76.762 E357.89348
G1 X82.349 Y76.692
G0 F3600 X82.419 Y77.328
G1 F1800 X127.58 Y122.489 E361.11656
G1 X127.65 Y122.559
G0 F3600 X127.58 Y123.054
G1 F1800 X82.419 Y77.894 E364.33961
G1 X82.349 Y77.824
G0 F3600 X82.419 Y78.459
G1 F1800 X127.58 Y123.62 E367.56269
G1 X127.65 Y123.69
G0 F3600 X127.58 Y124.186
G1 F1800 X82.419 Y79.025 E370.78577
G1 X82.349 Y78.955
G0 F3600 X82.419 Y79.591
G1 F1800 X127.58 Y124.752 E374.00886
G1 X127.65 Y124.822
G0 F3600 X127.58 Y125.317
G1 F1800 X82.419 Y80.156 E377.23194
G1 X82.349 Y80.086
G0 F3600 X82.419 Y80.722
G1 F1800 X127.58 Y125.883 E380.45502
G1 X127.65 Y125.953
G0 F3600 X127.58 Y126.449
G1 F1800 X82.419 Y81.288 E383.6781
