;FLAVOR:Marlin
;TIME:4421
;Filament used: 3.54584m
;Layer height: 0.2
;Generated with Cura_SteamEngine 3.2.1
M190 S50
M104 S210
M109 S210
M82 ;absolute extrusion mode
G28 ;Home
G1 Z15.0 F6000 ;Move the platform down 15mm
;Prime the extruder
G92 E0
G1 F200 E3
G92 E0
;LAYER_COUNT:98
;LAYER:0
M107
G0 F3600 X90.413 Y46.545 Z0.3
;TYPE:SKIRT
G1 F1800 X90.679 Y46.115 E0.02552
G1 X91.009 Y45.732 E0.05103
G1 X91.396 Y45.406 E0.07657
G1 X91.96 Y45.083 E0.10937
G1 X93.692 Y44.313 E0.20502
G1 X100.074 Y41.146 E0.56456
G1 X100.543 Y40.958 E0.59006
G1 X101.036 Y40.846 E0.61558
G1 X101.497 Y40.813 E0.6389
G1 X108.507 Y40.815 E0.99266
G1 X109.011 Y40.855 E1.01818
G1 X109.502 Y40.974 E1.04367
G1 X109.949 Y41.159 E1.06809
G1 X115.089 Y43.757 E1.35873
G1 X118.043 Y45.084 E1.52215
G1 X118.486 Y45.327 E1.54765
G1 X118.885 Y45.637 E1.57315
G1 X119.231 Y46.006 E1.59868
G1 X119.515 Y46.424 E1.62418
G1 X119.728 Y46.883 E1.64972
G1 X119.867 Y47.369 E1.67523
G1 X119.931 Y48.003 E1.70739
G1 X119.941 Y165.991 E7.66169
G1 X119.901 Y166.495 E7.6872
G1 X119.782 Y166.986 E7.7127
G1 X119.588 Y167.453 E7.73822
G1 X119.322 Y167.883 E7.76373
G1 X118.992 Y168.266 E7.78925
G1 X118.605 Y168.592 E7.81478
G1 X118.173 Y168.853 E7.84025
G1 X117.704 Y169.043 E7.86579
G1 X117.211 Y169.156 E7.89131
G1 X116.741 Y169.191 E7.9151
G1 X93.259 Y169.191 E9.10012
G1 X92.755 Y169.151 E9.12564
G1 X92.264 Y169.032 E9.15113
G1 X91.797 Y168.838 E9.17665
G1 X91.367 Y168.572 E9.20217
G1 X90.984 Y168.242 E9.22768
G1 X90.658 Y167.855 E9.25322
G1 X90.397 Y167.422 E9.27873
G1 X90.207 Y166.954 E9.30422
G1 X90.094 Y166.461 E9.32975
G1 X90.059 Y165.991 E9.35353
G1 X90.06 Y48.007 E15.30763
G1 X90.1 Y47.503 E15.33315
G1 X90.219 Y47.012 E15.35864
G1 X90.413 Y46.545 E15.38416
G1 F1500 E8.88416
G0 F3600 X102.591 Y45.683
G0 X103.3 Y44.602
G0 X103.438 Y44.65
G0 X103.303 Y44.609
;TYPE:WALL-INNER
G1 F1500 E15.38416
G1 F1800 X103.281 Y44.6 E15.38536
G1 X103.303 Y44.6
G1 X103.633 Y44.6 E15.40197
G1 X103.771 Y44.6 E15.40894
G1 X106.23 Y44.6 E15.53303
G1 X106.364 Y44.6 E15.53979
G1 X106.692 Y44.6 E15.55635
G1 X106.723 Y44.6 E15.55791
G1 X106.692 Y44.613
G1 X106.364 Y44.868 E15.56468
G1 X106.282 Y44.974 E15.57045
G1 X106.11 Y45.197 E15.58466
G1 X105.952 Y45.581 E15.60561
G1 X105.901 Y45.954 E15.62461
G1 X105.9 Y47.044 E15.67962
G1 X105.951 Y47.419 E15.69872
G1 X106.11 Y47.803 E15.71969
G1 X106.363 Y48.132 E15.74064
G1 X106.702 Y48.393 E15.76223
G1 X107.087 Y48.551 E15.78323
G1 X107.461 Y48.6 E15.80226
G1 X116.15 Y48.6 E16.24076
G1 X116.15 Y165.4 E22.1351
G1 X93.85 Y165.4 E23.26048
G1 X93.85 Y48.6 E29.15483
G1 X102.539 Y48.6 E29.59332
G1 X102.912 Y48.552 E29.6123
G1 X103.308 Y48.387 E29.63395
G1 X103.636 Y48.132 E29.65492
G1 X103.89 Y47.803 E29.67589
G1 X104.048 Y47.419 E29.69685
G1 X104.099 Y47.046 E29.71585
G1 X104.1 Y45.962 E29.77055
G1 X104.052 Y45.587 E29.78963
G1 X103.887 Y45.193 E29.81118
G1 X103.717 Y44.973 E29.82522
G1 X103.633 Y44.864 E29.8311
G1 X103.303 Y44.609 E29.83235
G0 F3600 X103.438 Y44.65
G0 X103.828 Y45.073
G0 X104.158 Y45.63
G0 X103.662 Y45.692
;TYPE:WALL-OUTER
G1 F1800 X103.538 Y45.396 E29.84854
G1 X103.348 Y45.149 E29.86427
G1 X103.101 Y44.959 E29.88
G1 X102.812 Y44.84 E29.89577
G1 X102.49 Y44.8 E29.91214
G1 X101.7 Y44.8 E29.95201
G1 X101.7 Y44.2 E29.98229
G1 X108.3 Y44.2 E30.31536
G1 X108.3 Y44.8 E30.34564
G1 X107.487 Y44.8 E30.38667
G1 X107.192 Y44.838 E30.40168
G1 X106.895 Y44.962 E30.41792
G1 X106.649 Y45.153 E30.43364
G1 X106.459 Y45.399 E30.44932
G1 X106.341 Y45.686 E30.46498
G1 X106.301 Y45.981 E30.48001
G1 X106.3 Y47.017 E30.53229
G1 X106.34 Y47.314 E30.54741
G1 X106.459 Y47.601 E30.56309
G1 X106.648 Y47.847 E30.57875
G1 X106.903 Y48.043 E30.59498
G1 X107.191 Y48.161 E30.61068
G1 X107.487 Y48.2 E30.62575
G1 X116.55 Y48.2 E31.08312
G1 X116.55 Y165.8 E37.01784
G1 X93.45 Y165.8 E38.18359
G1 X93.45 Y48.2 E44.11831
G1 X102.513 Y48.2 E44.57567
G1 X102.808 Y48.162 E44.59068
G1 X103.105 Y48.038 E44.60693
G1 X103.351 Y47.847 E44.62264
G1 X103.541 Y47.601 E44.63833
G1 X103.659 Y47.314 E44.65399
G1 X103.699 Y47.019 E44.66901
G1 X103.7 Y45.987 E44.72109
G1 X103.662 Y45.692 E44.7361
G0 F3600 X103.585 Y45.507
G0 X104.046 Y45.315
G0 X104.222 Y44.99
;TYPE:SKIN
G1 F1800 X105.777 Y44.99 E44.81458
G1 X105.572 Y45.479 E44.84133
G1 X105.511 Y45.927 E44.86415
G1 X105.51 Y47.07 E44.92183
G1 X105.571 Y47.522 E44.94485
G1 X105.769 Y48 E44.97096
G1 X106.084 Y48.41 E44.99705
G1 X106.505 Y48.734 E45.02386
G1 X106.986 Y48.931 E45.05009
G1 X107.436 Y48.99 E45.073
G1 X115.76 Y48.99 E45.49307
G1 X115.76 Y165.01 E51.34805
G1 X94.24 Y165.01 E52.43407
G1 X94.24 Y48.99 E58.28905
G1 X102.564 Y48.99 E58.70912
G1 X103.014 Y48.932 E58.73202
G1 X103.507 Y48.727 E58.75897
G1 X103.915 Y48.409 E58.78507
G1 X104.231 Y48 E58.81115
G1 X104.428 Y47.521 E58.83729
G1 X104.489 Y47.073 E58.86011
G1 X104.49 Y45.937 E58.91744
G1 X104.432 Y45.485 E58.94044
G1 X104.222 Y44.99 E58.96757
G0 F3600 X106.335 Y48.16
G0 X106.683 Y48.427
G0 X107.001 Y48.557
G0 X115.579 Y49.394
G1 F1800 X115.355 Y49.17 E58.98356
G0 F3600 X114.789 Y49.17
G1 F1800 X115.579 Y49.959 E59.0399
G1 X115.649 Y50.029
G0 F3600 X115.579 Y50.525
G1 F1800 X114.223 Y49.17 E59.13664
G1 X114.153 Y49.1
G0 F3600 X113.658 Y49.17
G1 F1800 X115.579 Y51.091 E59.27374
G1 X115.649 Y51.161
G0 F3600 X115.579 Y51.656
G1 F1800 X113.092 Y49.17 E59.4512
G1 X113.022 Y49.1
G0 F3600 X112.526 Y49.17
G1 F1800 X115.579 Y52.222 E59.66905
G1 X115.649 Y52.292
G0 F3600 X115.579 Y52.788
G1 F1800 X111.961 Y49.17 E59.92727
G1 X111.891 Y49.1
G0 F3600 X111.395 Y49.17
G1 F1800 X115.579 Y53.354 E60.22587
G1 X115.649 Y53.424
G0 F3600 X115.579 Y53.919
G1 F1800 X110.829 Y49.17 E60.56484
G1 X110.759 Y49.1
G0 F3600 X110.264 Y49.17
G1 F1800 X115.579 Y54.485 E60.94416
G1 X115.649 Y54.555
G0 F3600 X115.579 Y55.051
G1 F1800 X109.698 Y49.17 E61.36388
G1 X109.628 Y49.1
G0 F3600 X109.132 Y49.17
G1 F1800 X115.579 Y55.616 E61.82396
G1 X115.649 Y55.686
G0 F3600 X115.579 Y56.182
G1 F1800 X108.567 Y49.17 E62.3244
G1 X108.497 Y49.1
G0 F3600 X108.001 Y49.17
G1 F1800 X115.579 Y56.748 E62.86523
G1 X115.649 Y56.818
G0 F3600 X115.579 Y57.313
G1 F1800 X107.435 Y49.17 E63.44642
G1 X107.365 Y49.1
G0 F3600 X106.713 Y49.013
G1 F1800 X115.579 Y57.879 E64.07918
G1 X115.649 Y57.949
G0 F3600 X115.579 Y58.445
G1 F1800 X104.614 Y47.48 E64.86173
G1 X104.544 Y47.41
G0 F3600 X104.466 Y47.897
G1 F1800 X115.579 Y59.01 E65.65485
G1 X115.649 Y59.08
G0 F3600 X115.579 Y59.576
G1 F1800 X104.259 Y48.256 E66.46275
G1 X104.189 Y48.186
G0 F3600 X104.004 Y48.567
G1 F1800 X115.579 Y60.142 E67.28884
G1 X115.649 Y60.212
G0 F3600 X115.579 Y60.707
G1 F1800 X103.686 Y48.815 E68.13759
G1 X103.616 Y48.745
G0 F3600 X103.31 Y49.004
G1 F1800 X115.579 Y61.273 E69.01322
G1 X115.649 Y61.343
G0 F3600 X115.579 Y61.839
G1 F1800 X102.872 Y49.131 E69.92013
G1 X102.802 Y49.061
G0 F3600 X102.344 Y49.17
G1 F1800 X115.579 Y62.405 E70.8647
G1 X115.649 Y62.475
G0 F3600 X115.579 Y62.97
G1 F1800 X101.778 Y49.17 E71.84962
G1 X101.708 Y49.1
G0 F3600 X101.213 Y49.17
G1 F1800 X115.579 Y63.536 E72.87491
G1 X115.649 Y63.606
G0 F3600 X115.579 Y64.102
G1 F1800 X100.647 Y49.17 E73.94058
G1 X100.577 Y49.1
G0 F3600 X100.081 Y49.17
G1 F1800 X115.579 Y64.667 E75.04662
G1 X115.649 Y64.737
G0 F3600 X115.579 Y65.233
G1 F1800 X99.516 Y49.17 E76.19302
G1 X99.446 Y49.1
G0 F3600 X98.95 Y49.17
G1 F1800 X115.579 Y65.799 E77.37981
G1 X115.649 Y65.869
G0 F3600 X115.579 Y66.364
G1 F1800 X98.384 Y49.17 E78.60696
G1 X98.314 Y49.1
G0 F3600 X97.819 Y49.17
G1 F1800 X115.579 Y66.93 E79.87446
G1 X115.649 Y67
G0 F3600 X115.579 Y67.496
G1 F1800 X97.253 Y49.17 E81.18237
G1 X97.183 Y49.1
G0 F3600 X96.687 Y49.17
G1 F1800 X115.579 Y68.061 E82.53063
G1 X115.649 Y68.131
G0 F3600 X115.579 Y68.627
G1 F1800 X96.121 Y49.17 E83.91929
G1 X96.051 Y49.1
G0 F3600 X95.556 Y49.17
G1 F1800 X115.579 Y69.193 E85.3483
G1 X115.649 Y69.263
G0 F3600 X115.579 Y69.758
G1 F1800 X94.99 Y49.17 E86.81768
G1 X94.92 Y49.1
G0 F3600 X94.424 Y49.17
G1 F1800 X115.579 Y70.324 E88.32745
G1 X115.649 Y70.394
G0 F3600 X115.579 Y70.89
G1 F1800 X94.419 Y49.73 E89.83761
G1 X94.349 Y49.66
G0 F3600 X94.419 Y50.295
G1 F1800 X115.579 Y71.455 E91.34777
G1 X115.649 Y71.525
G0 F3600 X115.579 Y72.021
G1 F1800 X94.419 Y50.861 E92.85793
G1 X94.349 Y50.791
G0 F3600 X94.419 Y51.427
G1 F1800 X115.579 Y72.587 E94.36809
G1 X115.649 Y72.657
G0 F3600 X115.579 Y73.153
G1 F1800 X94.419 Y51.992 E95.87829
G1 X94.349 Y51.922
G0 F3600 X94.419 Y52.558
G1 F1800 X115.579 Y73.718 E97.38845
G1 X115.649 Y73.788
G0 F3600 X115.579 Y74.284
G1 F1800 X94.419 Y53.124 E98.89862
G1 X94.349 Y53.054
G0 F3600 X94.419 Y53.689
G1 F1800 X115.579 Y74.85 E100.40881
G1 X115.649 Y74.92
G0 F3600 X115.579 Y75.415
G1 F1800 X94.419 Y54.255 E101.91897
G1 X94.349 Y54.185
G0 F3600 X94.419 Y54.821
G1 F1800 X115.579 Y75.981 E103.42914
G1 X115.649 Y76.051
G0 F3600 X115.579 Y76.547
G1 F1800 X94.419 Y55.386 E104.93933
G1 X94.349 Y55.316
G0 F3600 X94.419 Y55.952
G1 F1800 X115.579 Y77.112 E106.4495
G1 X115.649 Y77.182
G0 F3600 X115.579 Y77.678
G1 F1800 X94.419 Y56.518 E107.95966
G1 X94.349 Y56.448
G0 F3600 X94.419 Y57.084
G1 F1800 X115.579 Y78.244 E109.46982
G1 X115.649 Y78.314
G0 F3600 X115.579 Y78.809
G1 F1800 X94.419 Y57.649 E110.97998
G1 X94.349 Y57.579
G0 F3600 X94.419 Y58.215
G1 F1800 X115.579 Y79.375 E112.49014
G1 X115.649 Y79.445
G0 F3600 X115.579 Y79.941
G1 F1800 X94.419 Y58.781 E114.00031
G1 X94.349 Y58.711
G0 F3600 X94.419 Y59.346
G1 F1800 X115.579 Y80.506 E115.51047
G1 X115.649 Y80.576
G0 F3600 X115.579 Y81.072
G1 F1800 X94.419 Y59.912 E117.02063
G1 X94.349 Y59.842
G0 F3600 X94.419 Y60.478
G1 F1800 X115.579 Y81.638 E118.53079
G1 X115.649 Y81.708
G0 F3600 X115.579 Y82.203
G1 F1800 X94.419 Y61.043 E120.04095
G1 X94.349 Y60.973
G0 F3600 X94.419 Y61.609
G1 F1800 X115.579 Y82.769 E121.55112
G1 X115.649 Y82.839
G0 F3600 X115.579 Y83.335
G1 F1800 X94.419 Y62.175 E123.06128
G1 X94.349 Y62.105
G0 F3600 X94.419 Y62.74
G1 F1800 X115.579 Y83.901 E124.57148
G1 X115.649 Y83.971
G0 F3600 X115.579 Y84.466
G1 F1800 X94.419 Y63.306 E126.08164
G1 X94.349 Y63.236
G0 F3600 X94.419 Y63.872
G1 F1800 X115.579 Y85.032 E127.5918
G1 X115.649 Y85.102
G0 F3600 X115.579 Y85.598
G1 F1800 X94.419 Y64.437 E129.102
G1 X94.349 Y64.367
G0 F3600 X94.419 Y65.003
G1 F1800 X115.579 Y86.163 E130.61216
G1 X115.649 Y86.233
G0 F3600 X115.579 Y86.729
G1 F1800 X94.419 Y65.569 E132.12232
G1 X94.349 Y65.499
G0 F3600 X94.419 Y66.134
G1 F1800 X115.579 Y87.295 E133.63252
G1 X115.649 Y87.365
G0 F3600 X115.579 Y87.86
G1 F1800 X94.419 Y66.7 E135.14268
G1 X94.349 Y66.63
G0 F3600 X94.419 Y67.266
G1 F1800 X115.579 Y88.426 E136.65284
G1 X115.649 Y88.496
G0 F3600 X115.579 Y88.992
G1 F1800 X94.419 Y67.832 E138.163
G1 X94.349 Y67.762
G0 F3600 X94.419 Y68.397
G1 F1800 X115.579 Y89.557 E139.67317
G1 X115.649 Y89.627
G0 F3600 X115.579 Y90.123
G1 F1800 X94.419 Y68.963 E141.18333
G1 X94.349 Y68.893
G0 F3600 X94.419 Y69.529
G1 F1800 X115.579 Y90.689 E142.69349
G1 X115.649 Y90.759
G0 F3600 X115.579 Y91.254
G1 F1800 X94.419 Y70.094 E144.20365
G1 X94.349 Y70.024
G0 F3600 X94.419 Y70.66
G1 F1800 X115.579 Y91.82 E145.71381
G1 X115.649 Y91.89
G0 F3600 X115.579 Y92.386
G1 F1800 X94.419 Y71.226 E147.22398
G1 X94.349 Y71.156
G0 F3600 X94.419 Y71.791
G1 F1800 X115.579 Y92.952 E148.73417
G1 X115.649 Y93.022
G0 F3600 X115.579 Y93.517
G1 F1800 X94.419 Y72.357 E150.24434
G1 X94.349 Y72.287
G0 F3600 X94.419 Y72.923
G1 F1800 X115.579 Y94.083 E151.7545
G1 X115.649 Y94.153
G0 F3600 X115.579 Y94.649
G1 F1800 X94.419 Y73.488 E153.2647
G1 X94.349 Y73.418
G0 F3600 X94.419 Y74.054
G1 F1800 X115.579 Y95.214 E154.77486
G1 X115.649 Y95.284
G0 F3600 X115.579 Y95.78
G1 F1800 X94.419 Y74.62 E156.28502
G1 X94.349 Y74.55
G0 F3600 X94.419 Y75.185
G1 F1800 X115.579 Y96.346 E157.79522
G1 X115.649 Y96.416
G0 F3600 X115.579 Y96.911
G1 F1800 X94.419 Y75.751 E159.30538
G1 X94.349 Y75.681
G0 F3600 X94.419 Y76.317
G1 F1800 X115.579 Y97.477 E160.81554
G1 X115.649 Y97.547
G0 F3600 X115.579 Y98.043
G1 F1800 X94.419 Y76.883 E162.3257
G1 X94.349 Y76.813
G0 F3600 X94.419 Y77.448
G1 F1800 X115.579 Y98.608 E163.83587
G1 X115.649 Y98.678
G0 F3600 X115.579 Y99.174
G1 F1800 X94.419 Y78.014 E165.34603
G1 X94.349 Y77.944
G0 F3600 X94.419 Y78.58
G1 F1800 X115.579 Y99.74 E166.85619
G1 X115.649 Y99.81
G0 F3600 X115.579 Y100.305
G1 F1800 X94.419 Y79.145 E168.36635
G1 X94.349 Y79.075
G0 F3600 X94.419 Y79.711
G1 F1800 X115.579 Y100.871 E169.87651
G1 X115.649 Y100.941
G0 F3600 X115.579 Y101.437
G1 F1800 X94.419 Y80.277 E171.38668
G1 X94.349 Y80.207
G0 F3600 X94.419 Y80.842
G1 F1800 X115.579 Y102.002 E172.89684
G1 X115.649 Y102.072
G0 F3600 X115.579 Y102.568
G1 F1800 X94.419 Y81.408 E174.407
G1 X94.349 Y81.338
G0 F3600 X94.419 Y81.974
G1 F1800 X115.579 Y103.134 E175.91716
G1 X115.649 Y103.204
G0 F3600 X115.579 Y103.7
G1 F1800 X94.419 Y82.539 E177.42736
G1 X94.349 Y82.469
G0 F3600 X94.419 Y83.105
G1 F1800 X115.579 Y104.265 E178.93752
G1 X115.649 Y104.335
G0 F3600 X115.579 Y104.831
G1 F1800 X94.419 Y83.671 E180.44768
G1 X94.349 Y83.601
G0 F3600 X94.419 Y84.236
G1 F1800 X115.579 Y105.397 E181.95788
G1 X115.649 Y105.467
G0 F3600 X115.579 Y105.962
G1 F1800 X94.419 Y84.802 E183.46804
G1 X94.349 Y84.732
G0 F3600 X94.419 Y85.368
G1 F1800 X115.579 Y106.528 E184.9782
G1 X115.649 Y106.598
G0 F3600 X115.579 Y107.094
G1 F1800 X94.419 Y85.933 E186.4884
G1 X94.349 Y85.863
G0 F3600 X94.419 Y86.499
G1 F1800 X115.579 Y107.659 E187.99856
G1 X115.649 Y107.729
G0 F3600 X115.579 Y108.225
G1 F1800 X94.419 Y87.065 E189.50873
G1 X94.349 Y86.995
G0 F3600 X94.419 Y87.631
G1 F1800 X115.579 Y108.791 E191.01889
G1 X115.649 Y108.861
G0 F3600 X115.579 Y109.356
G1 F1800 X94.419 Y88.196 E192.52905
G1 X94.349 Y88.126
G0 F3600 X94.419 Y88.762
G1 F1800 X115.579 Y109.922 E194.03921
G1 X115.649 Y109.992
G0 F3600 X115.579 Y110.488
G1 F1800 X94.419 Y89.328 E195.54937
G1 X94.349 Y89.258
G0 F3600 X94.419 Y89.893
G1 F1800 X115.579 Y111.053 E197.05954
G1 X115.649 Y111.123
G0 F3600 X115.579 Y111.619
G1 F1800 X94.419 Y90.459 E198.5697
G1 X94.349 Y90.389
G0 F3600 X94.419 Y91.025
G1 F1800 X115.579 Y112.185 E200.07986
G1 X115.649 Y112.255
G0 F3600 X115.579 Y112.751
G1 F1800 X94.419 Y91.59 E201.59006
G1 X94.349 Y91.52
G0 F3600 X94.419 Y92.156
G1 F1800 X115.579 Y113.316 E203.10022
G1 X115.649 Y113.386
G0 F3600 X115.579 Y113.882
G1 F1800 X94.419 Y92.722 E204.61038
G1 X94.349 Y92.652
G0 F3600 X94.419 Y93.287
G1 F1800 X115.579 Y114.448 E206.12058
G1 X115.649 Y114.518
G0 F3600 X115.579 Y115.013
G1 F1800 X94.419 Y93.853 E207.63074
G1 X94.349 Y93.783
G0 F3600 X94.419 Y94.419
G1 F1800 X115.579 Y115.579 E209.1409
G1 X115.649 Y115.649
G0 F3600 X115.579 Y116.145
G1 F1800 X94.419 Y94.984 E210.6511
G1 X94.349 Y94.914
G0 F3600 X94.419 Y95.55
G1 F1800 X115.579 Y116.71 E212.16126
G1 X115.649 Y116.78
G0 F3600 X115.579 Y117.276
G1 F1800 X94.419 Y96.116 E213.67142
G1 X94.349 Y96.046
G0 F3600 X94.419 Y96.682
G1 F1800 X115.579 Y117.842 E215.18159
G1 X115.649 Y117.912
G0 F3600 X115.579 Y118.407
G1 F1800 X94.419 Y97.247 E216.69175
G1 X94.349 Y97.177
G0 F3600 X94.419 Y97.813
G1 F1800 X115.579 Y118.973 E218.20191
G1 X115.649 Y119.043
G0 F3600 X115.579 Y119.539
G1 F1800 X94.419 Y98.379 E219.71207
G1 X94.349 Y98.309
G0 F3600 X94.419 Y98.944
G1 F1800 X115.579 Y120.104 E221.22223
G1 X115.649 Y120.174
G0 F3600 X115.579 Y120.67
G1 F1800 X94.419 Y99.51 E222.7324
G1 X94.349 Y99.44
G0 F3600 X94.419 Y100.076
G1 F1800 X115.579 Y121.236 E224.24256
G1 X115.649 Y121.306
G0 F3600 X115.579 Y121.801
G1 F1800 X94.419 Y100.641 E225.75272
G1 X94.349 Y100.571
G0 F3600 X94.419 Y101.207
G1 F1800 X115.579 Y122.367 E227.26288
G1 X115.649 Y122.437
G0 F3600 X115.579 Y122.933
G1 F1800 X94.419 Y101.773 E228.77304
G1 X94.349 Y101.703
G0 F3600 X94.419 Y102.338
G1 F1800 X115.579 Y123.499 E230.28324
G1 X115.649 Y123.569
G0 F3600 X115.579 Y124.064
G1 F1800 X94.419 Y102.904 E231.7934
G1 X94.349 Y102.834
G0 F3600 X94.419 Y103.47
G1 F1800 X115.579 Y124.63 E233.30357
G1 X115.649 Y124.7
G0 F3600 X115.579 Y125.196
G1 F1800 X94.419 Y104.035 E234.81376
G1 X94.349 Y103.965
G0 F3600 X94.419 Y104.601
G1 F1800 X115.579 Y125.761 E236.32393
G1 X115.649 Y125.831
G0 F3600 X115.579 Y126.327
