;FLAVOR:Marlin
;TIME:4448
;Filament used: 3.56042m
;Layer height: 0.2
;Generated with Cura_SteamEngine 3.2.1
M190 S50
M104 S210
M109 S210
M82 ;absolute extrusion mode
G28 ;Home
G1 Z15.0 F6000 ;Move the platform down 15mm
;Prime the extruder
G92 E0
G1 F200 E3
G92 E0
;LAYER_COUNT:98
;LAYER:0
M107
G0 F3600 X90.313 Y46.545 Z0.3
;TYPE:SKIRT
G1 F1800 X90.579 Y46.115 E0.02552
G1 X90.909 Y45.732 E0.05103
G1 X91.296 Y45.406 E0.07657
G1 X91.874 Y45.077 E0.11013
G1 X93.981 Y44.152 E0.22625
G1 X100.087 Y41.141 E0.56982
G1 X100.556 Y40.954 E0.5953
G1 X101.05 Y40.843 E0.62086
G1 X101.502 Y40.811 E0.64372
G1 X108.491 Y40.81 E0.99643
G1 X108.995 Y40.85 E1.02194
G1 X109.486 Y40.969 E1.04744
G1 X109.925 Y41.149 E1.07138
G1 X114.722 Y43.553 E1.34216
G1 X118.132 Y45.079 E1.53069
G1 X118.576 Y45.321 E1.55621
G1 X118.976 Y45.63 E1.58172
G1 X119.322 Y45.999 E1.60725
G1 X119.606 Y46.417 E1.63275
G1 X119.821 Y46.875 E1.65828
G1 X119.96 Y47.361 E1.68379
G1 X120.025 Y48 E1.71621
G1 X120.041 Y165.991 E7.67066
G1 X120.001 Y166.495 E7.69617
G1 X119.882 Y166.986 E7.72167
G1 X119.688 Y167.453 E7.74719
G1 X119.422 Y167.883 E7.7727
G1 X119.092 Y168.266 E7.79822
G1 X118.706 Y168.592 E7.82371
G1 X118.273 Y168.853 E7.84923
G1 X117.804 Y169.043 E7.87476
G1 X117.311 Y169.156 E7.90029
G1 X116.841 Y169.191 E7.92407
G1 X93.159 Y169.191 E9.11919
G1 X92.655 Y169.151 E9.14471
G1 X92.164 Y169.032 E9.1702
G1 X91.697 Y168.838 E9.19572
G1 X91.267 Y168.572 E9.22124
G1 X90.884 Y168.242 E9.24675
G1 X90.558 Y167.855 E9.27229
G1 X90.297 Y167.422 E9.2978
G1 X90.107 Y166.954 E9.32329
G1 X89.994 Y166.461 E9.34882
G1 X89.959 Y165.991 E9.3726
G1 X89.96 Y48.007 E15.3267
G1 X90 Y47.503 E15.35221
G1 X90.119 Y47.012 E15.37771
G1 X90.313 Y46.545 E15.40323
G1 F1500 E8.90323
G0 F3600 X102.591 Y45.683
G0 X103.3 Y44.602
G0 X103.438 Y44.65
G0 X103.303 Y44.609
;TYPE:WALL-INNER
G1 F1500 E15.40323
G1 F1800 X103.281 Y44.6 E15.40443
G1 X103.303 Y44.6
G1 X103.633 Y44.6 E15.42104
G1 X103.771 Y44.6 E15.428
G1 X106.23 Y44.6 E15.5521
G1 X106.364 Y44.6 E15.55886
G1 X106.692 Y44.6 E15.57541
G1 X106.723 Y44.6 E15.57698
G1 X106.692 Y44.613
G1 X106.364 Y44.868 E15.58375
G1 X106.282 Y44.974 E15.58951
G1 X106.11 Y45.197 E15.60373
G1 X105.952 Y45.581 E15.62468
G1 X105.901 Y45.954 E15.64368
G1 X105.9 Y47.044 E15.69869
G1 X105.951 Y47.419 E15.71779
G1 X106.11 Y47.803 E15.73876
G1 X106.363 Y48.132 E15.75971
G1 X106.702 Y48.393 E15.7813
G1 X107.087 Y48.551 E15.8023
G1 X107.461 Y48.6 E15.82133
G1 X116.25 Y48.6 E16.26487
G1 X116.25 Y165.4 E22.15922
G1 X93.75 Y165.4 E23.29469
G1 X93.75 Y48.6 E29.18904
G1 X102.539 Y48.6 E29.63258
G1 X102.912 Y48.552 E29.65155
G1 X103.308 Y48.387 E29.6732
G1 X103.636 Y48.132 E29.69417
G1 X103.89 Y47.803 E29.71515
G1 X104.048 Y47.419 E29.7361
G1 X104.099 Y47.046 E29.7551
G1 X104.1 Y45.962 E29.8098
G1 X104.052 Y45.587 E29.82888
G1 X103.887 Y45.193 E29.85044
G1 X103.717 Y44.973 E29.86447
G1 X103.633 Y44.864 E29.87035
G1 X103.303 Y44.609 E29.8716
G0 F3600 X103.438 Y44.65
G0 X103.828 Y45.073
G0 X104.158 Y45.63
G0 X103.662 Y45.692
;TYPE:WALL-OUTER
G1 F1800 X103.538 Y45.396 E29.8878
G1 X103.348 Y45.149 E29.90352
G1 X103.101 Y44.959 E29.91925
G1 X102.812 Y44.84 E29.93502
G1 X102.49 Y44.8 E29.9514
G1 X101.7 Y44.8 E29.99127
G1 X101.7 Y44.2 E30.02154
G1 X108.3 Y44.2 E30.35462
G1 X108.3 Y44.8 E30.38489
G1 X107.487 Y44.8 E30.42592
G1 X107.192 Y44.838 E30.44093
G1 X106.895 Y44.962 E30.45718
G1 X106.649 Y45.153 E30.47289
G1 X106.459 Y45.399 E30.48858
G1 X106.341 Y45.686 E30.50424
G1 X106.301 Y45.981 E30.51926
G1 X106.3 Y47.017 E30.57154
G1 X106.34 Y47.314 E30.58667
G1 X106.459 Y47.601 E30.60235
G1 X106.648 Y47.847 E30.618
G1 X106.903 Y48.043 E30.63423
G1 X107.191 Y48.161 E30.64994
G1 X107.487 Y48.2 E30.66501
G1 X116.65 Y48.2 E31.12742
G1 X116.65 Y165.8 E37.06214
G1 X93.35 Y165.8 E38.23798
G1 X93.35 Y48.2 E44.1727
G1 X102.513 Y48.2 E44.63511
G1 X102.808 Y48.162 E44.65012
G1 X103.105 Y48.038 E44.66637
G1 X103.351 Y47.847 E44.68208
G1 X103.541 Y47.601 E44.69777
G1 X103.659 Y47.314 E44.71343
G1 X103.699 Y47.019 E44.72845
G1 X103.7 Y45.987 E44.78053
G1 X103.662 Y45.692 E44.79554
G0 F3600 X103.585 Y45.507
G0 X104.046 Y45.315
G0 X104.222 Y44.99
;TYPE:SKIN
G1 F1800 X105.777 Y44.99 E44.87402
G1 X105.572 Y45.479 E44.90078
G1 X105.511 Y45.927 E44.92359
G1 X105.51 Y47.07 E44.98127
G1 X105.571 Y47.522 E45.00429
G1 X105.769 Y48 E45.0304
G1 X106.084 Y48.41 E45.05649
G1 X106.505 Y48.734 E45.0833
G1 X106.986 Y48.931 E45.10953
G1 X107.436 Y48.99 E45.13244
G1 X115.86 Y48.99 E45.55756
G1 X115.86 Y165.01 E51.41254
G1 X94.14 Y165.01 E52.50865
G1 X94.14 Y48.99 E58.36363
G1 X102.564 Y48.99 E58.78875
G1 X103.014 Y48.932 E58.81165
G1 X103.507 Y48.727 E58.83859
G1 X103.915 Y48.409 E58.8647
G1 X104.231 Y48 E58.89078
G1 X104.428 Y47.521 E58.91692
G1 X104.489 Y47.073 E58.93974
G1 X104.49 Y45.937 E58.99706
G1 X104.432 Y45.485 E59.02006
G1 X104.222 Y44.99 E59.0472
G0 F3600 X106.335 Y48.16
G0 X106.683 Y48.427
G0 X107.001 Y48.557
G0 X115.679 Y49.494
G1 F1800 X115.355 Y49.17 E59.07032
G0 F3600 X114.789 Y49.17
G1 F1800 X115.679 Y50.06 E59.13384
G1 X115.749 Y50.13
G0 F3600 X115.679 Y50.626
G1 F1800 X114.223 Y49.17 E59.23775
G1 X114.153 Y49.1
G0 F3600 X113.658 Y49.17
G1 F1800 X115.679 Y51.191 E59.38199
G1 X115.749 Y51.261
G0 F3600 X115.679 Y51.757
G1 F1800 X113.092 Y49.17 E59.56662
G1 X113.022 Y49.1
G0 F3600 X112.526 Y49.17
G1 F1800 X115.679 Y52.323 E59.79164
G1 X115.749 Y52.393
G0 F3600 X115.679 Y52.888
G1 F1800 X111.961 Y49.17 E60.05699
G1 X111.891 Y49.1
G0 F3600 X111.395 Y49.17
G1 F1800 X115.679 Y53.454 E60.36274
G1 X115.749 Y53.524
G0 F3600 X115.679 Y54.02
G1 F1800 X110.829 Y49.17 E60.70888
G1 X110.759 Y49.1
G0 F3600 X110.264 Y49.17
G1 F1800 X115.679 Y54.585 E61.09534
G1 X115.749 Y54.655
G0 F3600 X115.679 Y55.151
G1 F1800 X109.698 Y49.17 E61.52219
G1 X109.628 Y49.1
G0 F3600 X109.132 Y49.17
G1 F1800 X115.679 Y55.717 E61.98944
G1 X115.749 Y55.787
G0 F3600 X115.679 Y56.282
G1 F1800 X108.567 Y49.17 E62.49702
G1 X108.497 Y49.1
G0 F3600 X108.001 Y49.17
G1 F1800 X115.679 Y56.848 E63.04499
G1 X115.749 Y56.918
G0 F3600 X115.679 Y57.414
G1 F1800 X107.435 Y49.17 E63.63335
G1 X107.365 Y49.1
G0 F3600 X106.713 Y49.013
G1 F1800 X115.679 Y57.979 E64.27324
G1 X115.749 Y58.049
G0 F3600 X115.679 Y58.545
G1 F1800 X104.614 Y47.48 E65.06294
G1 X104.544 Y47.41
G0 F3600 X104.466 Y47.897
G1 F1800 X115.679 Y59.111 E65.86323
G1 X115.749 Y59.181
G0 F3600 X115.679 Y59.676
G1 F1800 X104.259 Y48.256 E66.67826
G1 X104.189 Y48.186
G0 F3600 X104.004 Y48.567
G1 F1800 X115.679 Y60.242 E67.51149
G1 X115.749 Y60.312
G0 F3600 X115.679 Y60.808
G1 F1800 X103.686 Y48.815 E68.36742
G1 X103.616 Y48.745
G0 F3600 X103.31 Y49.004
G1 F1800 X115.679 Y61.374 E69.25021
G1 X115.749 Y61.444
G0 F3600 X115.679 Y61.939
G1 F1800 X102.872 Y49.131 E70.16427
G1 X102.802 Y49.061
G0 F3600 X102.344 Y49.17
G1 F1800 X115.679 Y62.505 E71.11597
G1 X115.749 Y62.575
G0 F3600 X115.679 Y63.071
G1 F1800 X101.778 Y49.17 E72.10806
G1 X101.708 Y49.1
G0 F3600 X101.213 Y49.17
G1 F1800 X115.679 Y63.636 E73.14048
G1 X115.749 Y63.706
G0 F3600 X115.679 Y64.202
G1 F1800 X100.647 Y49.17 E74.2133
G1 X100.577 Y49.1
G0 F3600 X100.081 Y49.17
G1 F1800 X115.679 Y64.768 E75.32651
G1 X115.749 Y64.838
G0 F3600 X115.679 Y65.333
G1 F1800 X99.516 Y49.17 E76.48004
G1 X99.446 Y49.1
G0 F3600 X98.95 Y49.17
G1 F1800 X115.679 Y65.899 E77.67397
G1 X115.749 Y65.969
G0 F3600 X115.679 Y66.465
G1 F1800 X98.384 Y49.17 E78.90829
G1 X98.314 Y49.1
G0 F3600 X97.819 Y49.17
G1 F1800 X115.679 Y67.03 E80.18293
G1 X115.749 Y67.1
G0 F3600 X115.679 Y67.596
G1 F1800 X97.253 Y49.17 E81.49797
G1 X97.183 Y49.1
G0 F3600 X96.687 Y49.17
G1 F1800 X115.679 Y68.162 E82.85341
G1 X115.749 Y68.232
G0 F3600 X115.679 Y68.727
G1 F1800 X96.121 Y49.17 E84.2492
G1 X96.051 Y49.1
G0 F3600 X95.556 Y49.17
G1 F1800 X115.679 Y69.293 E85.68536
G1 X115.749 Y69.363
G0 F3600 X115.679 Y69.859
G1 F1800 X94.99 Y49.17 E87.1619
G1 X94.92 Y49.1
G0 F3600 X94.424 Y49.17
G1 F1800 X115.679 Y70.425 E88.67884
G1 X115.749 Y70.495
G0 F3600 X115.679 Y70.99
G1 F1800 X94.318 Y49.629 E90.20335
G1 X94.248 Y49.559
G0 F3600 X94.318 Y50.195
G1 F1800 X115.679 Y71.556 E91.72786
G1 X115.749 Y71.626
G0 F3600 X115.679 Y72.122
G1 F1800 X94.318 Y50.761 E93.25237
G1 X94.248 Y50.691
G0 F3600 X94.318 Y51.326
G1 F1800 X115.679 Y72.687 E94.77687
G1 X115.749 Y72.757
G0 F3600 X115.679 Y73.253
G1 F1800 X94.318 Y51.892 E96.30138
G1 X94.248 Y51.822
G0 F3600 X94.318 Y52.458
G1 F1800 X115.679 Y73.819 E97.82589
G1 X115.749 Y73.889
G0 F3600 X115.679 Y74.384
G1 F1800 X94.318 Y53.023 E99.35039
G1 X94.248 Y52.953
G0 F3600 X94.318 Y53.589
G1 F1800 X115.679 Y74.95 E100.8749
G1 X115.749 Y75.02
G0 F3600 X115.679 Y75.516
G1 F1800 X94.318 Y54.155 E102.39941
G1 X94.248 Y54.085
G0 F3600 X94.318 Y54.72
G1 F1800 X115.679 Y76.081 E103.92392
G1 X115.749 Y76.151
G0 F3600 X115.679 Y76.647
G1 F1800 X94.318 Y55.286 E105.44842
G1 X94.248 Y55.216
G0 F3600 X94.318 Y55.852
G1 F1800 X115.679 Y77.213 E106.97293
G1 X115.749 Y77.283
G0 F3600 X115.679 Y77.778
G1 F1800 X94.318 Y56.417 E108.49744
G1 X94.248 Y56.347
G0 F3600 X94.318 Y56.983
G1 F1800 X115.679 Y78.344 E110.02194
G1 X115.749 Y78.414
G0 F3600 X115.679 Y78.91
G1 F1800 X94.318 Y57.549 E111.54645
G1 X94.248 Y57.479
G0 F3600 X94.318 Y58.114
G1 F1800 X115.679 Y79.475 E113.07096
G1 X115.749 Y79.545
G0 F3600 X115.679 Y80.041
G1 F1800 X94.318 Y58.68 E114.59547
G1 X94.248 Y58.61
G0 F3600 X94.318 Y59.246
G1 F1800 X115.679 Y80.607 E116.11997
G1 X115.749 Y80.677
G0 F3600 X115.679 Y81.173
G1 F1800 X94.318 Y59.812 E117.64448
G1 X94.248 Y59.742
G0 F3600 X94.318 Y60.377
G1 F1800 X115.679 Y81.738 E119.16899
G1 X115.749 Y81.808
G0 F3600 X115.679 Y82.304
G1 F1800 X94.318 Y60.943 E120.69349
G1 X94.248 Y60.873
G0 F3600 X94.318 Y61.509
G1 F1800 X115.679 Y82.87 E122.218
G1 X115.749 Y82.94
G0 F3600 X115.679 Y83.435
G1 F1800 X94.318 Y62.074 E123.74251
G1 X94.248 Y62.004
G0 F3600 X94.318 Y62.64
G1 F1800 X115.679 Y84.001 E125.26701
G1 X115.749 Y84.071
G0 F3600 X115.679 Y84.567
G1 F1800 X94.318 Y63.206 E126.79152
G1 X94.248 Y63.136
G0 F3600 X94.318 Y63.771
G1 F1800 X115.679 Y85.132 E128.31603
G1 X115.749 Y85.202
G0 F3600 X115.679 Y85.698
G1 F1800 X94.318 Y64.337 E129.84054
G1 X94.248 Y64.267
G0 F3600 X94.318 Y64.903
G1 F1800 X115.679 Y86.264 E131.36504
G1 X115.749 Y86.334
G0 F3600 X115.679 Y86.829
G1 F1800 X94.318 Y65.468 E132.88955
G1 X94.248 Y65.398
G0 F3600 X94.318 Y66.034
G1 F1800 X115.679 Y87.395 E134.41406
G1 X115.749 Y87.465
G0 F3600 X115.679 Y87.961
G1 F1800 X94.318 Y66.6 E135.93856
G1 X94.248 Y66.53
G0 F3600 X94.318 Y67.165
G1 F1800 X115.679 Y88.526 E137.46307
G1 X115.749 Y88.596
G0 F3600 X115.679 Y89.092
G1 F1800 X94.318 Y67.731 E138.98758
G1 X94.248 Y67.661
G0 F3600 X94.318 Y68.297
G1 F1800 X115.679 Y89.658 E140.51209
G1 X115.749 Y89.728
G0 F3600 X115.679 Y90.223
G1 F1800 X94.318 Y68.863 E142.03656
G1 X94.248 Y68.793
G0 F3600 X94.318 Y69.428
G1 F1800 X115.679 Y90.789 E143.56106
G1 X115.749 Y90.859
G0 F3600 X115.679 Y91.355
G1 F1800 X94.318 Y69.994 E145.08557
G1 X94.248 Y69.924
G0 F3600 X94.318 Y70.56
G1 F1800 X115.679 Y91.921 E146.61008
G1 X115.749 Y91.991
G0 F3600 X115.679 Y92.486
G1 F1800 X94.318 Y71.125 E148.13459
G1 X94.248 Y71.055
G0 F3600 X94.318 Y71.691
G1 F1800 X115.679 Y93.052 E149.65909
G1 X115.749 Y93.122
G0 F3600 X115.679 Y93.618
G1 F1800 X94.318 Y72.257 E151.1836
G1 X94.248 Y72.187
G0 F3600 X94.318 Y72.822
G1 F1800 X115.679 Y94.183 E152.70811
G1 X115.749 Y94.253
G0 F3600 X115.679 Y94.749
G1 F1800 X94.318 Y73.388 E154.23261
G1 X94.248 Y73.318
G0 F3600 X94.318 Y73.954
G1 F1800 X115.679 Y95.315 E155.75712
G1 X115.749 Y95.385
G0 F3600 X115.679 Y95.88
G1 F1800 X94.318 Y74.519 E157.28163
G1 X94.248 Y74.449
G0 F3600 X94.318 Y75.085
G1 F1800 X115.679 Y96.446 E158.80613
G1 X115.749 Y96.516
G0 F3600 X115.679 Y97.012
G1 F1800 X94.318 Y75.651 E160.33064
G1 X94.248 Y75.581
G0 F3600 X94.318 Y76.216
G1 F1800 X115.679 Y97.577 E161.85515
G1 X115.749 Y97.647
G0 F3600 X115.679 Y98.143
G1 F1800 X94.318 Y76.782 E163.37966
G1 X94.248 Y76.712
G0 F3600 X94.318 Y77.348
G1 F1800 X115.679 Y98.709 E164.90416
G1 X115.749 Y98.779
G0 F3600 X115.679 Y99.274
G1 F1800 X94.318 Y77.913 E166.42867
G1 X94.248 Y77.843
G0 F3600 X94.318 Y78.479
G1 F1800 X115.679 Y99.84 E167.95318
G1 X115.749 Y99.91
G0 F3600 X115.679 Y100.406
G1 F1800 X94.318 Y79.045 E169.47768
G1 X94.248 Y78.975
G0 F3600 X94.318 Y79.611
G1 F1800 X115.679 Y100.972 E171.00219
G1 X115.749 Y101.042
G0 F3600 X115.679 Y101.537
G1 F1800 X94.318 Y80.176 E172.5267
G1 X94.248 Y80.106
G0 F3600 X94.318 Y80.742
G1 F1800 X115.679 Y102.103 E174.05121
G1 X115.749 Y102.173
G0 F3600 X115.679 Y102.669
G1 F1800 X94.318 Y81.308 E175.57571
G1 X94.248 Y81.238
G0 F3600 X94.318 Y81.873
G1 F1800 X115.679 Y103.234 E177.10022
G1 X115.749 Y103.304
G0 F3600 X115.679 Y103.8
G1 F1800 X94.318 Y82.439 E178.62473
G1 X94.248 Y82.369
G0 F3600 X94.318 Y83.005
G1 F1800 X115.679 Y104.366 E180.14923
G1 X115.749 Y104.436
G0 F3600 X115.679 Y104.931
G1 F1800 X94.318 Y83.57 E181.67374
G1 X94.248 Y83.5
G0 F3600 X94.318 Y84.136
G1 F1800 X115.679 Y105.497 E183.19825
G1 X115.749 Y105.567
G0 F3600 X115.679 Y106.063
G1 F1800 X94.318 Y84.702 E184.72276
G1 X94.248 Y84.632
G0 F3600 X94.318 Y85.267
G1 F1800 X115.679 Y106.628 E186.24726
G1 X115.749 Y106.698
G0 F3600 X115.679 Y107.194
G1 F1800 X94.318 Y85.833 E187.77177
G1 X94.248 Y85.763
G0 F3600 X94.318 Y86.399
G1 F1800 X115.679 Y107.76 E189.29628
G1 X115.749 Y107.83
G0 F3600 X115.679 Y108.325
G1 F1800 X94.318 Y86.964 E190.82078
G1 X94.248 Y86.894
G0 F3600 X94.318 Y87.53
G1 F1800 X115.679 Y108.891 E192.34529
G1 X115.749 Y108.961
G0 F3600 X115.679 Y109.457
G1 F1800 X94.318 Y88.096 E193.8698
G1 X94.248 Y88.026
G0 F3600 X94.318 Y88.661
G1 F1800 X115.679 Y110.022 E195.3943
G1 X115.749 Y110.092
G0 F3600 X115.679 Y110.588
G1 F1800 X94.318 Y89.227 E196.91881
G1 X94.248 Y89.157
G0 F3600 X94.318 Y89.793
G1 F1800 X115.679 Y111.154 E198.44332
G1 X115.749 Y111.224
G0 F3600 X115.679 Y111.72
G1 F1800 X94.318 Y90.359 E199.96783
G1 X94.248 Y90.289
G0 F3600 X94.318 Y90.924
G1 F1800 X115.679 Y112.285 E201.49233
G1 X115.749 Y112.355
G0 F3600 X115.679 Y112.851
G1 F1800 X94.318 Y91.49 E203.01684
G1 X94.248 Y91.42
G0 F3600 X94.318 Y92.056
G1 F1800 X115.679 Y113.417 E204.54135
G1 X115.749 Y113.487
G0 F3600 X115.679 Y113.982
G1 F1800 X94.318 Y92.621 E206.06585
G1 X94.248 Y92.551
G0 F3600 X94.318 Y93.187
G1 F1800 X115.679 Y114.548 E207.59036
G1 X115.749 Y114.618
G0 F3600 X115.679 Y115.114
G1 F1800 X94.318 Y93.753 E209.11487
G1 X94.248 Y93.683
G0 F3600 X94.318 Y94.318
G1 F1800 X115.679 Y115.679 E210.63938
G1 X115.749 Y115.749
G0 F3600 X115.679 Y116.245
G1 F1800 X94.318 Y94.884 E212.16388
G1 X94.248 Y94.814
G0 F3600 X94.318 Y95.45
G1 F1800 X115.679 Y116.811 E213.68839
G1 X115.749 Y116.881
G0 F3600 X115.679 Y117.376
G1 F1800 X94.318 Y96.015 E215.2129
G1 X94.248 Y95.945
G0 F3600 X94.318 Y96.581
G1 F1800 X115.679 Y117.942 E216.7374
G1 X115.749 Y118.012
G0 F3600 X115.679 Y118.508
G1 F1800 X94.318 Y97.147 E218.26191
G1 X94.248 Y97.077
G0 F3600 X94.318 Y97.712
G1 F1800 X115.679 Y119.073 E219.78642
G1 X115.749 Y119.143
G0 F3600 X115.679 Y119.639
G1 F1800 X94.318 Y98.278 E221.31093
G1 X94.248 Y98.208
G0 F3600 X94.318 Y98.844
G1 F1800 X115.679 Y120.205 E222.83543
G1 X115.749 Y120.275
G0 F3600 X115.679 Y120.771
G1 F1800 X94.318 Y99.41 E224.35994
G1 X94.248 Y99.34
G0 F3600 X94.318 Y99.975
G1 F1800 X115.679 Y121.336 E225.88445
G1 X115.749 Y121.406
G0 F3600 X115.679 Y121.902
G1 F1800 X94.318 Y100.541 E227.40895
G1 X94.248 Y100.471
G0 F3600 X94.318 Y101.107
G1 F1800 X115.679 Y122.468 E228.93346
G1 X115.749 Y122.538
G0 F3600 X115.679 Y123.033
G1 F1800 X94.318 Y101.672 E230.45797
G1 X94.248 Y101.602
G0 F3600 X94.318 Y102.238
G1 F1800 X115.679 Y123.599 E231.98247
G1 X115.749 Y123.669
G0 F3600 X115.679 Y124.165
G1 F1800 X94.318 Y102.804 E233.50698
G1 X94.248 Y102.734
G0 F3600 X94.318 Y103.369
G1 F1800 X115.679 Y124.73 E235.03149
G1 X115.749 Y124.8
G0 F3600 X115.679 Y125.296
G1 F1800 X94.318 Y103.935 E236.556
G1 X94.248 Y103.865
G0 F3600 X94.318 Y104.501
G1 F1800 X115.679 Y125.862 E238.0805
G1 X115.749 Y125.932
G0 F3600 X115.679 Y126.427
G1 F1800 X94.318 Y105.066 E239.60501
