;FLAVOR:Marlin
;TIME:7818
;Filament used: 4.3412m
;Layer height: 0.2
;Generated with Cura_SteamEngine 3.2.1
M190 S50
M104 S200
M109 S200
M82 ;absolute extrusion mode
G28 ;Home
G1 Z15.0 F6000 ;Move the platform down 15mm
;Prime the extruder
G92 E0
G1 F200 E3
G92 E0
;LAYER_COUNT:98
;LAYER:0
M107
G0 F4500 X90.313 Y50.541 Z0.3
;TYPE:SKIRT
G1 F1200 X90.621 Y50.055 E0.02871
G1 X92.964 Y47.002 E0.2207
G1 X96.089 Y42.512 E0.49363
G1 X98.69 Y38.321 E0.73971
G1 X98.99 Y37.914 E0.76494
G1 X99.35 Y37.559 E0.79016
G1 X99.761 Y37.266 E0.81534
G1 X100.214 Y37.04 E0.8406
G1 X100.697 Y36.889 E0.86585
G1 X101.409 Y36.809 E0.90159
G1 X108.594 Y36.81 E1.26005
G1 X109.098 Y36.85 E1.28528
G1 X109.59 Y36.969 E1.31053
G1 X110.056 Y37.164 E1.33573
G1 X110.486 Y37.43 E1.36096
G1 X110.869 Y37.76 E1.38618
G1 X111.324 Y38.34 E1.42296
G1 X113.244 Y41.478 E1.60649
G1 X116.313 Y46.015 E1.87977
G1 X119.388 Y50.072 E2.13374
G1 X119.661 Y50.498 E2.15898
G1 X119.863 Y50.961 E2.18419
G1 X119.99 Y51.451 E2.20944
G1 X120.038 Y52.005 E2.23718
G1 X120.04 Y169.991 E8.12353
G1 X120 Y170.495 E8.14875
G1 X119.881 Y170.986 E8.17396
G1 X119.687 Y171.453 E8.19919
G1 X119.421 Y171.883 E8.22441
G1 X119.091 Y172.266 E8.24963
G1 X118.704 Y172.592 E8.27488
G1 X118.271 Y172.853 E8.3001
G1 X117.803 Y173.043 E8.3253
G1 X117.31 Y173.156 E8.35054
G1 X116.84 Y173.191 E8.37405
G1 X93.159 Y173.19 E9.5555
G1 X92.655 Y173.15 E9.58072
G1 X92.163 Y173.031 E9.60598
G1 X91.697 Y172.836 E9.63118
G1 X91.267 Y172.571 E9.65638
G1 X90.884 Y172.24 E9.68163
G1 X90.558 Y171.854 E9.70684
G1 X90.297 Y171.421 E9.73206
G1 X90.107 Y170.953 E9.75726
G1 X89.994 Y170.46 E9.7825
G1 X89.959 Y169.99 E9.80601
G1 X89.96 Y52.003 E15.69241
G1 X90 Y51.499 E15.71763
G1 X90.119 Y51.008 E15.74283
G1 X90.313 Y50.541 E15.76806
G1 F2400 E8.76806
G0 F4500 X92.485 Y52.614
G0 X93.764 Y52.614
G0 X112.67 Y59.33
G0 X112.6 Y59.4
;TYPE:WALL-INNER
G1 F2400 E15.76806
G1 F1200 X109.4 Y59.4 E15.92771
G1 X109.4 Y169.4 E21.41563
G1 X100.6 Y169.4 E21.85467
G1 X100.6 Y59.4 E27.34259
G1 X97.4 Y59.4 E27.50224
G1 X97.4 Y169.4 E32.99016
G1 X93.75 Y169.4 E33.17226
G1 X93.75 Y52.6 E38.99944
G1 X100.039 Y52.6 E39.3132
G1 X100.938 Y52.482 E39.35843
G1 X101.81 Y52.117 E39.40559
G1 X102.555 Y51.542 E39.45254
G1 X103.125 Y50.799 E39.49926
G1 X103.483 Y49.932 E39.54606
G1 X103.598 Y49.051 E39.59039
G1 X103.6 Y43.461 E39.86927
G1 X103.534 Y42.956 E39.89468
G1 X103.324 Y42.448 E39.92211
G1 X102.989 Y42.011 E39.94958
G1 X102.552 Y41.676 E39.97705
G1 X102.044 Y41.466 E40.00447
G1 X102 Y41.46 E40.00669
G1 X102 Y40.6 E40.0496
G1 X108 Y40.6 E40.34894
G1 X108 Y41.46 E40.39184
G1 X107.956 Y41.466 E40.39406
G1 X107.448 Y41.676 E40.42148
G1 X107.011 Y42.011 E40.44895
G1 X106.676 Y42.448 E40.47642
G1 X106.466 Y42.956 E40.50385
G1 X106.4 Y43.461 E40.52926
G1 X106.4 Y49.039 E40.80754
G1 X106.514 Y49.922 E40.85196
G1 X106.886 Y50.813 E40.90013
G1 X107.461 Y51.557 E40.94705
G1 X108.211 Y52.128 E40.99407
G1 X109.084 Y52.485 E41.04113
G1 X109.961 Y52.6 E41.08526
G1 X116.248 Y52.6 E41.39892
G1 X116.25 Y169.2 E47.21611
G1 X116.25 Y169.4 E47.22609
G1 X116.05 Y169.4 E47.23255
G1 X112.6 Y169.4 E47.40467
G1 X112.6 Y59.4 E52.8926
G0 F4500 X112.2 Y59.8
;TYPE:WALL-OUTER
G1 F1200 X109.8 Y59.8 E53.01233
G1 X109.8 Y169.8 E58.50026
G1 X100.2 Y169.8 E58.9792
G1 X100.2 Y59.8 E64.46712
G1 X97.8 Y59.8 E64.58686
G1 X97.8 Y169.8 E70.07478
G1 X93.35 Y169.8 E70.29679
G1 X93.35 Y52.2 E76.16388
G1 X100.013 Y52.2 E76.4963
G1 X100.833 Y52.092 E76.53756
G1 X101.607 Y51.768 E76.57943
G1 X102.269 Y51.257 E76.62115
G1 X102.775 Y50.597 E76.66264
G1 X103.093 Y49.828 E76.70415
G1 X103.198 Y49.025 E76.74456
G1 X103.2 Y43.487 E77.02085
G1 X103.144 Y43.06 E77.04234
G1 X102.974 Y42.649 E77.06452
G1 X102.704 Y42.296 E77.0867
G1 X102.351 Y42.026 E77.10887
G1 X101.94 Y41.856 E77.13106
G1 X101.6 Y41.811 E77.14817
G1 X101.6 Y40.2 E77.22854
G1 X108.4 Y40.2 E77.5678
G1 X108.4 Y41.811 E77.64817
G1 X108.06 Y41.856 E77.66528
G1 X107.649 Y42.026 E77.68747
G1 X107.296 Y42.296 E77.70964
G1 X107.026 Y42.649 E77.73181
G1 X106.856 Y43.06 E77.754
G1 X106.8 Y43.487 E77.77549
G1 X106.8 Y49.013 E78.05118
G1 X106.904 Y49.817 E78.09163
G1 X107.235 Y50.61 E78.1345
G1 X107.745 Y51.271 E78.17615
G1 X108.411 Y51.778 E78.21791
G1 X109.187 Y52.095 E78.25973
G1 X109.987 Y52.2 E78.29999
G1 X116.648 Y52.2 E78.6323
G1 X116.65 Y169.6 E84.48941
G1 X116.65 Y169.8 E84.49939
G1 X116.45 Y169.8 E84.50585
G1 X112.2 Y169.8 E84.71789
G1 X112.2 Y59.8 E90.20581
G0 F4500 X112 Y59.8
G0 X112 Y59.3
G0 X112.99 Y59.01
;TYPE:SKIN
G1 F1200 X109.01 Y59.01 E90.40437
G1 X109.01 Y169.01 E95.89229
G1 X100.99 Y169.01 E96.29241
G1 X100.99 Y59.01 E101.78034
G1 X97.01 Y59.01 E101.9789
G1 X97.01 Y169.01 E107.46682
G1 X94.14 Y169.01 E107.61001
G1 X94.14 Y52.99 E113.39827
G1 X100.064 Y52.99 E113.69382
G1 X101.041 Y52.862 E113.74298
G1 X102.007 Y52.457 E113.79523
G1 X102.834 Y51.819 E113.84734
G1 X103.466 Y50.996 E113.89911
G1 X103.863 Y50.033 E113.95108
G1 X103.988 Y49.076 E113.99923
G1 X103.99 Y43.436 E114.28061
G1 X103.914 Y42.855 E114.30984
G1 X103.665 Y42.251 E114.34244
G1 X103.268 Y41.732 E114.37504
G1 X102.749 Y41.335 E114.40764
G1 X102.39 Y41.187 E114.42701
G1 X102.39 Y40.99 E114.43684
G1 X107.61 Y40.99 E114.69727
G1 X107.61 Y41.187 E114.70709
G1 X107.251 Y41.335 E114.72647
G1 X106.732 Y41.732 E114.75907
G1 X106.335 Y42.251 E114.79167
G1 X106.086 Y42.855 E114.82426
G1 X106.01 Y43.436 E114.85349
G1 X106.01 Y49.064 E115.13428
G1 X106.134 Y50.024 E115.18257
G1 X106.546 Y51.01 E115.23588
G1 X107.184 Y51.836 E115.28795
G1 X108.016 Y52.469 E115.34011
G1 X108.983 Y52.865 E115.39224
G1 X109.936 Y52.99 E115.44019
G1 X115.858 Y52.99 E115.73564
G1 X115.86 Y169.01 E121.52391
G1 X112.99 Y169.01 E121.66709
G1 X112.99 Y59.01 E127.15501
G0 F4500 X106.852 Y50.833
G0 X106.476 Y49.932
G0 X106.361 Y49.041
G0 X106.361 Y43.459
G0 X106.398 Y43.17
G0 X106.953 Y41.333
G0 X106.871 Y41.251
G1 F1200 X106.428 Y41.374 E127.17525
G0 F4500 X105.658 Y41.169
G1 F1200 X106.381 Y41.893 E127.2263
G1 X106.451 Y41.963
G0 F4500 X106.148 Y42.226
G1 F1200 X105.092 Y41.169 E127.30084
G1 X105.022 Y41.099
G0 F4500 X104.526 Y41.169
G1 F1200 X105.983 Y42.627 E127.40368
G1 X106.053 Y42.697
G0 F4500 X105.874 Y43.083
G1 F1200 X103.96 Y41.169 E127.53872
G1 X103.89 Y41.099
G0 F4500 X103.395 Y41.169
G1 F1200 X105.829 Y43.603 E127.71045
G1 X105.899 Y43.673
G0 F4500 X105.829 Y44.169
G1 F1200 X103.823 Y42.164 E127.85195
G1 X103.753 Y42.094
G0 F4500 X104.116 Y43.022
G1 F1200 X105.829 Y44.735 E127.97281
G1 X105.899 Y44.805
G0 F4500 X105.829 Y45.3
G1 F1200 X104.168 Y43.64 E128.08997
G1 X104.098 Y43.57
G0 F4500 X104.168 Y44.206
G1 F1200 X105.829 Y45.866 E128.20713
G1 X105.899 Y45.936
G0 F4500 X105.829 Y46.432
G1 F1200 X104.168 Y44.771 E128.32432
G1 X104.098 Y44.701
G0 F4500 X104.168 Y45.336
G1 F1200 X105.829 Y46.997 E128.44151
G1 X105.899 Y47.067
G0 F4500 X105.829 Y47.563
G1 F1200 X104.168 Y45.902 E128.5587
G1 X104.098 Y45.832
G0 F4500 X104.167 Y46.467
G1 F1200 X105.829 Y48.129 E128.67597
G1 X105.899 Y48.199
G0 F4500 X105.829 Y48.694
G1 F1200 X104.167 Y47.033 E128.7932
G1 X104.097 Y46.963
G0 F4500 X104.167 Y47.598
G1 F1200 X105.856 Y49.288 E128.9124
G1 X105.926 Y49.358
G0 F4500 X105.941 Y49.938
G1 F1200 X104.166 Y48.163 E129.03764
G1 X104.096 Y48.093
G0 F4500 X104.166 Y48.729
G1 F1200 X106.28 Y50.843 E129.18679
G1 X106.35 Y50.913
G0 F4500 X103.974 Y50.234
G1 F1200 X112.569 Y58.829 E129.79321
G1 X112.639 Y58.899
G0 F4500 X112.004 Y58.829
G1 F1200 X103.808 Y50.634 E130.37145
G1 X103.738 Y50.564
G0 F4500 X103.644 Y51.035
G1 F1200 X111.438 Y58.829 E130.92136
G1 X111.508 Y58.899
G0 F4500 X110.872 Y58.829
G1 F1200 X103.408 Y51.364 E131.44802
G1 X103.338 Y51.294
G0 F4500 X103.162 Y51.685
G1 F1200 X110.307 Y58.829 E131.9521
G1 X110.377 Y58.899
G0 F4500 X109.741 Y58.829
G1 F1200 X102.903 Y51.992 E132.43452
G1 X102.833 Y51.922
G0 F4500 X102.584 Y52.238
G1 F1200 X109.175 Y58.829 E132.89956
G1 X109.245 Y58.899
G0 F4500 X108.83 Y59.049
G1 F1200 X102.265 Y52.485 E133.36272
G1 X102.195 Y52.415
G0 F4500 X101.908 Y52.693
G1 F1200 X108.83 Y59.615 E133.8511
G1 X108.9 Y59.685
G0 F4500 X108.83 Y60.181
G1 F1200 X101.51 Y52.861 E134.36757
G1 X101.44 Y52.791
G0 F4500 X101.111 Y53.028
G1 F1200 X108.83 Y60.746 E134.91215
G1 X108.9 Y60.816
G0 F4500 X108.83 Y61.312
G1 F1200 X100.616 Y53.098 E135.49169
G1 X100.546 Y53.028
G0 F4500 X100.116 Y53.164
G1 F1200 X108.83 Y61.878 E136.10651
G1 X108.9 Y61.948
G0 F4500 X108.83 Y62.443
G1 F1200 X99.556 Y53.17 E136.76081
G1 X99.486 Y53.1
G0 F4500 X98.99 Y53.17
G1 F1200 X108.83 Y63.009 E137.45504
G1 X108.9 Y63.079
G0 F4500 X108.83 Y63.575
G1 F1200 X98.425 Y53.17 E138.18916
G1 X98.355 Y53.1
G0 F4500 X97.859 Y53.17
G1 F1200 X108.83 Y64.14 E138.96319
G1 X108.9 Y64.21
G0 F4500 X108.83 Y64.706
G1 F1200 X97.293 Y53.17 E139.77715
G1 X97.223 Y53.1
G0 F4500 X96.727 Y53.17
G1 F1200 X108.83 Y65.272 E140.63105
G1 X108.9 Y65.342
G0 F4500 X108.83 Y65.838
G1 F1200 X96.162 Y53.17 E141.52485
G1 X96.092 Y53.1
G0 F4500 X95.596 Y53.17
G1 F1200 X108.83 Y66.403 E142.45854
G1 X108.9 Y66.473
G0 F4500 X108.83 Y66.969
G1 F1200 X101.169 Y59.308 E142.99907
G1 X101.099 Y59.238
G0 F4500 X101.169 Y59.874
G1 F1200 X108.83 Y67.535 E143.53959
G1 X108.9 Y67.605
G0 F4500 X108.83 Y68.1
G1 F1200 X101.169 Y60.439 E144.08012
G1 X101.099 Y60.369
G0 F4500 X101.169 Y61.005
G1 F1200 X108.83 Y68.666 E144.62064
G1 X108.9 Y68.736
G0 F4500 X108.83 Y69.232
G1 F1200 X101.169 Y61.571 E145.16117
G1 X101.099 Y61.501
G0 F4500 X101.169 Y62.137
G1 F1200 X108.83 Y69.797 E145.70166
G1 X108.9 Y69.867
G0 F4500 X108.83 Y70.363
G1 F1200 X101.169 Y62.702 E146.24218
G1 X101.099 Y62.632
G0 F4500 X101.169 Y63.268
G1 F1200 X108.83 Y70.929 E146.78271
G1 X108.9 Y70.999
G0 F4500 X108.83 Y71.494
G1 F1200 X101.169 Y63.834 E147.3232
G1 X101.099 Y63.764
G0 F4500 X101.169 Y64.399
G1 F1200 X108.83 Y72.06 E147.86372
G1 X108.9 Y72.13
G0 F4500 X108.83 Y72.626
G1 F1200 X101.169 Y64.965 E148.40425
G1 X101.099 Y64.895
G0 F4500 X101.169 Y65.531
G1 F1200 X108.83 Y73.191 E148.94474
G1 X108.9 Y73.261
G0 F4500 X108.83 Y73.757
G1 F1200 X101.169 Y66.096 E149.48526
G1 X101.099 Y66.026
G0 F4500 X101.169 Y66.662
G1 F1200 X108.83 Y74.323 E150.02579
G1 X108.9 Y74.393
G0 F4500 X108.83 Y74.888
G1 F1200 X101.169 Y67.228 E150.56628
G1 X101.099 Y67.158
G0 F4500 X101.169 Y67.793
G1 F1200 X108.83 Y75.454 E151.1068
G1 X108.9 Y75.524
G0 F4500 X108.83 Y76.02
G1 F1200 X101.169 Y68.359 E151.64732
G1 X101.099 Y68.289
G0 F4500 X101.169 Y68.925
G1 F1200 X108.83 Y76.586 E152.18785
G1 X108.9 Y76.656
G0 F4500 X108.83 Y77.151
G1 F1200 X101.169 Y69.49 E152.72837
G1 X101.099 Y69.42
G0 F4500 X101.169 Y70.056
G1 F1200 X108.83 Y77.717 E153.2689
G1 X108.9 Y77.787
G0 F4500 X108.83 Y78.283
G1 F1200 X101.169 Y70.622 E153.80942
G1 X101.099 Y70.552
G0 F4500 X101.169 Y71.187
G1 F1200 X108.83 Y78.848 E154.34995
G1 X108.9 Y78.918
G0 F4500 X108.83 Y79.414
G1 F1200 X101.169 Y71.753 E154.89047
G1 X101.099 Y71.683
G0 F4500 X101.169 Y72.319
G1 F1200 X108.83 Y79.98 E155.431
G1 X108.9 Y80.05
G0 F4500 X108.83 Y80.545
G1 F1200 X101.169 Y72.885 E155.97149
G1 X101.099 Y72.815
G0 F4500 X101.169 Y73.45
G1 F1200 X108.83 Y81.111 E156.51201
G1 X108.9 Y81.181
G0 F4500 X108.83 Y81.677
G1 F1200 X101.169 Y74.016 E157.05254
G1 X101.099 Y73.946
G0 F4500 X101.169 Y74.582
G1 F1200 X108.83 Y82.242 E157.59303
G1 X108.9 Y82.312
G0 F4500 X108.83 Y82.808
G1 F1200 X101.169 Y75.147 E158.13355
G1 X101.099 Y75.077
G0 F4500 X101.169 Y75.713
G1 F1200 X108.83 Y83.374 E158.67408
G1 X108.9 Y83.444
G0 F4500 X108.83 Y83.939
G1 F1200 X101.169 Y76.279 E159.21457
G1 X101.099 Y76.209
G0 F4500 X101.169 Y76.844
G1 F1200 X108.83 Y84.505 E159.75509
G1 X108.9 Y84.575
G0 F4500 X108.83 Y85.071
G1 F1200 X101.169 Y77.41 E160.29562
G1 X101.099 Y77.34
G0 F4500 X101.169 Y77.976
G1 F1200 X108.83 Y85.636 E160.83611
G1 X108.9 Y85.706
G0 F4500 X108.83 Y86.202
G1 F1200 X101.169 Y78.541 E161.37663
G1 X101.099 Y78.471
G0 F4500 X101.169 Y79.107
G1 F1200 X108.83 Y86.768 E161.91716
G1 X108.9 Y86.838
G0 F4500 X108.83 Y87.334
G1 F1200 X101.169 Y79.673 E162.45768
G1 X101.099 Y79.603
G0 F4500 X101.169 Y80.238
G1 F1200 X108.83 Y87.899 E162.99821
G1 X108.9 Y87.969
G0 F4500 X108.83 Y88.465
G1 F1200 X101.169 Y80.804 E163.53873
G1 X101.099 Y80.734
G0 F4500 X101.169 Y81.37
G1 F1200 X108.83 Y89.031 E164.07926
G1 X108.9 Y89.101
G0 F4500 X108.83 Y89.596
G1 F1200 X101.169 Y81.935 E164.61978
G1 X101.099 Y81.865
G0 F4500 X101.169 Y82.501
G1 F1200 X108.83 Y90.162 E165.16031
G1 X108.9 Y90.232
G0 F4500 X108.83 Y90.728
G1 F1200 X101.169 Y83.067 E165.70083
G1 X101.099 Y82.997
G0 F4500 X101.169 Y83.633
G1 F1200 X108.83 Y91.293 E166.24132
G1 X108.9 Y91.363
G0 F4500 X108.83 Y91.859
G1 F1200 X101.169 Y84.198 E166.78185
G1 X101.099 Y84.128
G0 F4500 X101.169 Y84.764
G1 F1200 X108.83 Y92.425 E167.32237
G1 X108.9 Y92.495
G0 F4500 X108.83 Y92.99
G1 F1200 X101.169 Y85.33 E167.86286
G1 X101.099 Y85.26
G0 F4500 X101.169 Y85.895
G1 F1200 X108.83 Y93.556 E168.40339
G1 X108.9 Y93.626
G0 F4500 X108.83 Y94.122
G1 F1200 X101.169 Y86.461 E168.94391
G1 X101.099 Y86.391
G0 F4500 X101.169 Y87.027
G1 F1200 X108.83 Y94.687 E169.4844
G1 X108.9 Y94.757
G0 F4500 X108.83 Y95.253
G1 F1200 X101.169 Y87.592 E170.02493
G1 X101.099 Y87.522
G0 F4500 X101.169 Y88.158
G1 F1200 X108.83 Y95.819 E170.56545
G1 X108.9 Y95.889
G0 F4500 X108.83 Y96.385
G1 F1200 X101.169 Y88.724 E171.10598
G1 X101.099 Y88.654
G0 F4500 X101.169 Y89.289
G1 F1200 X108.83 Y96.95 E171.6465
G1 X108.9 Y97.02
G0 F4500 X108.83 Y97.516
G1 F1200 X101.169 Y89.855 E172.18703
G1 X101.099 Y89.785
G0 F4500 X101.169 Y90.421
G1 F1200 X108.83 Y98.082 E172.72755
G1 X108.9 Y98.152
G0 F4500 X108.83 Y98.647
G1 F1200 X101.169 Y90.986 E173.26808
G1 X101.099 Y90.916
G0 F4500 X101.169 Y91.552
G1 F1200 X108.83 Y99.213 E173.8086
G1 X108.9 Y99.283
G0 F4500 X108.83 Y99.779
G1 F1200 X101.169 Y92.118 E174.34913
G1 X101.099 Y92.048
G0 F4500 X101.169 Y92.684
G1 F1200 X108.83 Y100.344 E174.88961
G1 X108.9 Y100.414
G0 F4500 X108.83 Y100.91
G1 F1200 X101.169 Y93.249 E175.43014
G1 X101.099 Y93.179
G0 F4500 X101.169 Y93.815
G1 F1200 X108.83 Y101.476 E175.97066
G1 X108.9 Y101.546
G0 F4500 X108.83 Y102.041
G1 F1200 X101.169 Y94.381 E176.51115
G1 X101.099 Y94.311
G0 F4500 X101.169 Y94.946
G1 F1200 X108.83 Y102.607 E177.05168
G1 X108.9 Y102.677
G0 F4500 X108.83 Y103.173
G1 F1200 X101.169 Y95.512 E177.5922
G1 X101.099 Y95.442
G0 F4500 X101.169 Y96.078
G1 F1200 X108.83 Y103.738 E178.13269
G1 X108.9 Y103.808
G0 F4500 X108.83 Y104.304
G1 F1200 X101.169 Y96.643 E178.67322
G1 X101.099 Y96.573
G0 F4500 X101.169 Y97.209
G1 F1200 X108.83 Y104.87 E179.21374
G1 X108.9 Y104.94
G0 F4500 X108.83 Y105.435
G1 F1200 X101.169 Y97.775 E179.75423
G1 X101.099 Y97.705
G0 F4500 X101.169 Y98.34
G1 F1200 X108.83 Y106.001 E180.29476
G1 X108.9 Y106.071
G0 F4500 X108.83 Y106.567
G1 F1200 X101.169 Y98.906 E180.83528
G1 X101.099 Y98.836
G0 F4500 X101.169 Y99.472
G1 F1200 X108.83 Y107.133 E181.37581
G1 X108.9 Y107.203
G0 F4500 X108.83 Y107.698
G1 F1200 X101.169 Y100.037 E181.91633
G1 X101.099 Y99.967
G0 F4500 X101.169 Y100.603
G1 F1200 X108.83 Y108.264 E182.45686
G1 X108.9 Y108.334
G0 F4500 X108.83 Y108.83
G1 F1200 X101.169 Y101.169 E182.99738
G1 X101.099 Y101.099
G0 F4500 X101.169 Y101.734
G1 F1200 X108.83 Y109.395 E183.53791
G1 X108.9 Y109.465
G0 F4500 X108.83 Y109.961
G1 F1200 X101.169 Y102.3 E184.07843
G1 X101.099 Y102.23
G0 F4500 X101.169 Y102.866
G1 F1200 X108.83 Y110.527 E184.61896
G1 X108.9 Y110.597
G0 F4500 X108.83 Y111.092
G1 F1200 X101.169 Y103.432 E185.15945
G1 X101.099 Y103.362
G0 F4500 X101.169 Y103.997
G1 F1200 X108.83 Y111.658 E185.69997
G1 X108.9 Y111.728
G0 F4500 X108.83 Y112.224
G1 F1200 X101.169 Y104.563 E186.2405
G1 X101.099 Y104.493
G0 F4500 X101.169 Y105.129
G1 F1200 X108.83 Y112.789 E186.78099
G1 X108.9 Y112.859
G0 F4500 X108.83 Y113.355
G1 F1200 X101.169 Y105.694 E187.32151
G1 X101.099 Y105.624
G0 F4500 X101.169 Y106.26
G1 F1200 X108.83 Y113.921 E187.86204
G1 X108.9 Y113.991
G0 F4500 X108.83 Y114.486
G1 F1200 X101.169 Y106.826 E188.40253
G1 X101.099 Y106.756
G0 F4500 X101.169 Y107.391
G1 F1200 X108.83 Y115.052 E188.94305
G1 X108.9 Y115.122
G0 F4500 X108.83 Y115.618
