;FLAVOR:Marlin
;TIME:3593
;Filament used: 2.66397m
;Layer height: 0.2
;Generated with Cura_SteamEngine 3.2.1
M190 S50
M104 S210
M109 S210
M82 ;absolute extrusion mode
G28 ;Home
G1 Z15.0 F6000 ;Move the platform down 15mm
;Prime the extruder
G92 E0
G1 F200 E3
G92 E0
;LAYER_COUNT:98
;LAYER:0
M107
G0 F3600 X96.413 Y46.043 Z0.3
;TYPE:SKIRT
G1 F1800 X96.679 Y45.613 E0.02552
G1 X97.009 Y45.23 E0.05103
G1 X97.396 Y44.904 E0.07657
G1 X97.674 Y44.726 E0.09322
G1 X102.924 Y41.73 E0.39827
G1 X103.381 Y41.515 E0.42376
G1 X103.867 Y41.374 E0.4493
G1 X104.516 Y41.309 E0.48221
G1 X105.504 Y41.311 E0.53207
G1 X106.008 Y41.352 E0.55759
G1 X106.5 Y41.472 E0.58315
G1 X107.086 Y41.733 E0.61552
G1 X112.317 Y44.722 E0.91956
G1 X112.734 Y45.006 E0.94502
G1 X113.102 Y45.353 E0.97055
G1 X113.411 Y45.754 E0.9961
G1 X113.652 Y46.198 E1.02159
G1 X113.821 Y46.675 E1.04713
G1 X113.912 Y47.172 E1.07263
G1 X113.929 Y47.5 E1.0892
G1 X113.941 Y165.491 E7.04365
G1 X113.901 Y165.995 E7.06917
G1 X113.782 Y166.486 E7.09466
G1 X113.588 Y166.953 E7.12018
G1 X113.322 Y167.383 E7.1457
G1 X112.992 Y167.766 E7.17121
G1 X112.605 Y168.092 E7.19675
G1 X112.173 Y168.353 E7.22222
G1 X111.704 Y168.543 E7.24776
G1 X111.211 Y168.656 E7.27328
G1 X110.741 Y168.691 E7.29707
G1 X99.259 Y168.691 E7.87651
G1 X98.755 Y168.651 E7.90202
G1 X98.264 Y168.532 E7.92752
G1 X97.797 Y168.338 E7.95304
G1 X97.367 Y168.072 E7.97855
G1 X96.984 Y167.742 E8.00407
G1 X96.658 Y167.355 E8.0296
G1 X96.397 Y166.922 E8.05512
G1 X96.207 Y166.454 E8.08061
G1 X96.094 Y165.961 E8.10613
G1 X96.059 Y165.491 E8.12992
G1 X96.06 Y47.505 E14.08412
G1 X96.1 Y47.001 E14.10963
G1 X96.219 Y46.51 E14.13513
G1 X96.413 Y46.043 E14.16065
G1 F1500 E7.66065
G0 F3600 X103.455 Y46.836
G0 X103.92 Y48.07
G0 X106.06 Y48.147
G0 X106.085 Y48.051
;TYPE:WALL-INNER
G1 F1500 E14.16065
G1 F1800 X106.461 Y48.1 E14.17978
G1 X110.15 Y48.1 E14.36595
G1 X110.15 Y164.9 E20.26029
G1 X99.85 Y164.9 E20.78009
G1 X99.85 Y48.1 E26.67443
G1 X103.539 Y48.1 E26.8606
G1 X103.915 Y48.051 E26.87974
G1 X104.303 Y47.89 E26.90094
G1 X104.635 Y47.635 E26.92206
G1 X104.819 Y47.395 E26.93732
G1 X104.89 Y47.303 E26.94319
G1 X104.922 Y47.226 E26.9474
G1 X105 Y47.038 E26.95767
G1 X105.078 Y47.226
G1 X105.11 Y47.303
G1 X105.181 Y47.395 E26.96353
G1 X105.365 Y47.635 E26.97879
G1 X105.697 Y47.89 E26.99992
G1 X106.085 Y48.051 E27.02112
G0 F3600 X106.06 Y48.147
G0 X105.337 Y47.663
G0 X105 Y47.138
G0 X105.339 Y46.811
;TYPE:WALL-OUTER
G1 F1800 X105.459 Y47.101 E27.03696
G1 X105.65 Y47.35 E27.05279
G1 X105.899 Y47.541 E27.06863
G1 X106.189 Y47.661 E27.08447
G1 X106.487 Y47.7 E27.09964
G1 X110.55 Y47.7 E27.30468
G1 X110.55 Y165.3 E33.2394
G1 X99.45 Y165.3 E33.79956
G1 X99.45 Y47.7 E39.73428
G1 X103.513 Y47.7 E39.93932
G1 X103.811 Y47.661 E39.95449
G1 X104.101 Y47.541 E39.97033
G1 X104.35 Y47.35 E39.98616
G1 X104.541 Y47.101 E40.002
G1 X104.661 Y46.811 E40.01784
G1 X104.7 Y46.513 E40.03301
G1 X104.7 Y44.7 E40.1245
G1 X105.3 Y44.7 E40.15478
G1 X105.3 Y46.513 E40.24627
G1 X105.339 Y46.811 E40.26144
G0 F3600 X105.415 Y46.996
G0 X104.954 Y47.187
G0 X105 Y47.801
;TYPE:SKIN
G1 F1800 X105.087 Y47.914 E40.26864
G1 X105.5 Y48.231 E40.29491
G1 X105.984 Y48.431 E40.32134
G1 X106.436 Y48.49 E40.34434
G1 X109.76 Y48.49 E40.51209
G1 X109.76 Y164.51 E46.36707
G1 X100.24 Y164.51 E46.8475
G1 X100.24 Y48.49 E52.70249
G1 X103.564 Y48.49 E52.87023
G1 X104.016 Y48.431 E52.89324
G1 X104.5 Y48.231 E52.91967
G1 X104.913 Y47.914 E52.94594
G1 X105 Y47.801 E52.95314
G0 F3600 X109.579 Y49.051
G1 F1800 X109.198 Y48.67 E52.98033
G0 F3600 X108.632 Y48.67
G1 F1800 X109.579 Y49.616 E53.04788
G1 X109.649 Y49.686
G0 F3600 X109.579 Y50.182
G1 F1800 X108.067 Y48.67 E53.15579
G1 X107.997 Y48.6
G0 F3600 X107.501 Y48.67
G1 F1800 X109.579 Y50.748 E53.30409
G1 X109.649 Y50.818
G0 F3600 X109.579 Y51.314
G1 F1800 X106.935 Y48.67 E53.49279
G1 X106.865 Y48.6
G0 F3600 X106.362 Y48.662
G1 F1800 X109.579 Y51.879 E53.72238
G1 X109.649 Y51.949
G0 F3600 X109.579 Y52.445
G1 F1800 X105.604 Y48.47 E54.00608
G1 X105.534 Y48.4
G0 F3600 X104.798 Y48.229
G1 F1800 X109.579 Y53.011 E54.34732
G1 X109.649 Y53.081
G0 F3600 X109.579 Y53.576
G1 F1800 X104.449 Y48.446 E54.71345
G1 X104.379 Y48.376
G0 F3600 X104.045 Y48.608
G1 F1800 X109.579 Y54.142 E55.1084
G1 X109.649 Y54.212
G0 F3600 X109.579 Y54.708
G1 F1800 X103.541 Y48.67 E55.53933
G1 X103.471 Y48.6
G0 F3600 X102.975 Y48.67
G1 F1800 X109.579 Y55.273 E56.01061
G1 X109.649 Y55.343
G0 F3600 X109.579 Y55.839
G1 F1800 X102.41 Y48.67 E56.52225
G1 X102.34 Y48.6
G0 F3600 X101.844 Y48.67
G1 F1800 X109.579 Y56.405 E57.07429
G1 X109.649 Y56.475
G0 F3600 X109.579 Y56.97
G1 F1800 X101.278 Y48.67 E57.66668
G1 X101.208 Y48.6
G0 F3600 X100.713 Y48.67
G1 F1800 X109.579 Y57.536 E58.29944
G1 X109.649 Y57.606
G0 F3600 X109.579 Y58.102
G1 F1800 X100.419 Y48.941 E58.95321
G1 X100.349 Y48.871
G0 F3600 X100.419 Y49.507
G1 F1800 X109.579 Y58.667 E59.60695
G1 X109.649 Y58.737
G0 F3600 X109.579 Y59.233
G1 F1800 X100.419 Y50.073 E60.26069
G1 X100.349 Y50.003
G0 F3600 X100.419 Y50.638
G1 F1800 X109.579 Y59.799 E60.91446
G1 X109.649 Y59.869
G0 F3600 X109.579 Y60.364
G1 F1800 X100.419 Y51.204 E61.5682
G1 X100.349 Y51.134
G0 F3600 X100.419 Y51.77
G1 F1800 X109.579 Y60.93 E62.22193
G1 X109.649 Y61
G0 F3600 X109.579 Y61.496
G1 F1800 X100.419 Y52.335 E62.87571
G1 X100.349 Y52.265
G0 F3600 X100.419 Y52.901
G1 F1800 X109.579 Y62.062 E63.52948
G1 X109.649 Y62.132
G0 F3600 X109.579 Y62.627
G1 F1800 X100.419 Y53.467 E64.18322
G1 X100.349 Y53.397
G0 F3600 X100.419 Y54.032
G1 F1800 X109.579 Y63.193 E64.83699
G1 X109.649 Y63.263
G0 F3600 X109.579 Y63.759
G1 F1800 X100.419 Y54.598 E65.49076
G1 X100.349 Y54.528
G0 F3600 X100.419 Y55.164
G1 F1800 X109.579 Y64.324 E66.1445
G1 X109.649 Y64.394
G0 F3600 X109.579 Y64.89
G1 F1800 X100.419 Y55.729 E66.79827
G1 X100.349 Y55.659
G0 F3600 X100.419 Y56.295
G1 F1800 X109.579 Y65.456 E67.45205
G1 X109.649 Y65.526
G0 F3600 X109.579 Y66.021
G1 F1800 X100.419 Y56.861 E68.10579
G1 X100.349 Y56.791
G0 F3600 X100.419 Y57.426
G1 F1800 X109.579 Y66.587 E68.75956
G1 X109.649 Y66.657
G0 F3600 X109.579 Y67.153
G1 F1800 X100.419 Y57.992 E69.41333
G1 X100.349 Y57.922
G0 F3600 X100.419 Y58.558
G1 F1800 X109.579 Y67.718 E70.06707
G1 X109.649 Y67.788
G0 F3600 X109.579 Y68.284
G1 F1800 X100.419 Y59.124 E70.72081
G1 X100.349 Y59.054
G0 F3600 X100.419 Y59.689
G1 F1800 X109.579 Y68.85 E71.37458
G1 X109.649 Y68.92
G0 F3600 X109.579 Y69.415
G1 F1800 X100.419 Y60.255 E72.02832
G1 X100.349 Y60.185
G0 F3600 X100.419 Y60.821
G1 F1800 X109.579 Y69.981 E72.68205
G1 X109.649 Y70.051
G0 F3600 X109.579 Y70.547
G1 F1800 X100.419 Y61.386 E73.33583
G1 X100.349 Y61.316
G0 F3600 X100.419 Y61.952
G1 F1800 X109.579 Y71.113 E73.9896
G1 X109.649 Y71.183
G0 F3600 X109.579 Y71.678
G1 F1800 X100.419 Y62.518 E74.64334
G1 X100.349 Y62.448
G0 F3600 X100.419 Y63.083
G1 F1800 X109.579 Y72.244 E75.29711
G1 X109.649 Y72.314
G0 F3600 X109.579 Y72.81
G1 F1800 X100.419 Y63.649 E75.95088
G1 X100.349 Y63.579
G0 F3600 X100.419 Y64.215
G1 F1800 X109.579 Y73.375 E76.60462
G1 X109.649 Y73.445
G0 F3600 X109.579 Y73.941
G1 F1800 X100.419 Y64.78 E77.25839
G1 X100.349 Y64.71
G0 F3600 X100.419 Y65.346
G1 F1800 X109.579 Y74.507 E77.91217
G1 X109.649 Y74.577
G0 F3600 X109.579 Y75.072
G1 F1800 X100.419 Y65.912 E78.56591
G1 X100.349 Y65.842
G0 F3600 X100.419 Y66.477
G1 F1800 X109.579 Y75.638 E79.21968
G1 X109.649 Y75.708
G0 F3600 X109.579 Y76.204
G1 F1800 X100.419 Y67.043 E79.87345
G1 X100.349 Y66.973
G0 F3600 X100.419 Y67.609
G1 F1800 X109.579 Y76.769 E80.52719
G1 X109.649 Y76.839
G0 F3600 X109.579 Y77.335
G1 F1800 X100.419 Y68.174 E81.18096
G1 X100.349 Y68.104
G0 F3600 X100.419 Y68.74
G1 F1800 X109.579 Y77.901 E81.83474
G1 X109.649 Y77.971
G0 F3600 X109.579 Y78.466
G1 F1800 X100.419 Y69.306 E82.48847
G1 X100.349 Y69.236
G0 F3600 X100.419 Y69.872
G1 F1800 X109.579 Y79.032 E83.14221
G1 X109.649 Y79.102
G0 F3600 X109.579 Y79.598
G1 F1800 X100.419 Y70.437 E83.79598
G1 X100.349 Y70.367
G0 F3600 X100.419 Y71.003
G1 F1800 X109.579 Y80.163 E84.44972
G1 X109.649 Y80.233
G0 F3600 X109.579 Y80.729
G1 F1800 X100.419 Y71.569 E85.10346
G1 X100.349 Y71.499
G0 F3600 X100.419 Y72.134
G1 F1800 X109.579 Y81.295 E85.75723
G1 X109.649 Y81.365
G0 F3600 X109.579 Y81.861
G1 F1800 X100.419 Y72.7 E86.411
G1 X100.349 Y72.63
G0 F3600 X100.419 Y73.266
G1 F1800 X109.579 Y82.426 E87.06474
G1 X109.649 Y82.496
G0 F3600 X109.579 Y82.992
G1 F1800 X100.419 Y73.831 E87.71851
G1 X100.349 Y73.761
G0 F3600 X100.419 Y74.397
G1 F1800 X109.579 Y83.558 E88.37229
G1 X109.649 Y83.628
G0 F3600 X109.579 Y84.123
G1 F1800 X100.419 Y74.963 E89.02602
G1 X100.349 Y74.893
G0 F3600 X100.419 Y75.528
G1 F1800 X109.579 Y84.689 E89.6798
G1 X109.649 Y84.759
G0 F3600 X109.579 Y85.255
G1 F1800 X100.419 Y76.094 E90.33357
G1 X100.349 Y76.024
G0 F3600 X100.419 Y76.66
G1 F1800 X109.579 Y85.82 E90.98731
G1 X109.649 Y85.89
G0 F3600 X109.579 Y86.386
G1 F1800 X100.419 Y77.225 E91.64108
G1 X100.349 Y77.155
G0 F3600 X100.419 Y77.791
G1 F1800 X109.579 Y86.952 E92.29485
G1 X109.649 Y87.022
G0 F3600 X109.579 Y87.517
G1 F1800 X100.419 Y78.357 E92.94859
G1 X100.349 Y78.287
G0 F3600 X100.419 Y78.923
G1 F1800 X109.579 Y88.083 E93.60233
G1 X109.649 Y88.153
G0 F3600 X109.579 Y88.649
G1 F1800 X100.419 Y79.488 E94.2561
G1 X100.349 Y79.418
G0 F3600 X100.419 Y80.054
G1 F1800 X109.579 Y89.214 E94.90984
G1 X109.649 Y89.284
G0 F3600 X109.579 Y89.78
G1 F1800 X100.419 Y80.62 E95.56358
G1 X100.349 Y80.55
G0 F3600 X100.419 Y81.185
G1 F1800 X109.579 Y90.346 E96.21735
G1 X109.649 Y90.416
G0 F3600 X109.579 Y90.912
G1 F1800 X100.419 Y81.751 E96.87112
G1 X100.349 Y81.681
G0 F3600 X100.419 Y82.317
G1 F1800 X109.579 Y91.477 E97.52486
G1 X109.649 Y91.547
G0 F3600 X109.579 Y92.043
G1 F1800 X100.419 Y82.882 E98.17863
G1 X100.349 Y82.812
G0 F3600 X100.419 Y83.448
G1 F1800 X109.579 Y92.609 E98.83241
G1 X109.649 Y92.679
G0 F3600 X109.579 Y93.174
G1 F1800 X100.419 Y84.014 E99.48614
G1 X100.349 Y83.944
G0 F3600 X100.419 Y84.579
G1 F1800 X109.579 Y93.74 E100.13992
G1 X109.649 Y93.81
G0 F3600 X109.579 Y94.306
G1 F1800 X100.419 Y85.145 E100.79369
G1 X100.349 Y85.075
G0 F3600 X100.419 Y85.711
G1 F1800 X109.579 Y94.871 E101.44743
G1 X109.649 Y94.941
G0 F3600 X109.579 Y95.437
G1 F1800 X100.419 Y86.276 E102.1012
G1 X100.349 Y86.206
G0 F3600 X100.419 Y86.842
G1 F1800 X109.579 Y96.003 E102.75497
G1 X109.649 Y96.073
G0 F3600 X109.579 Y96.568
G1 F1800 X100.419 Y87.408 E103.40871
G1 X100.349 Y87.338
G0 F3600 X100.419 Y87.973
G1 F1800 X109.579 Y97.134 E104.06249
G1 X109.649 Y97.204
G0 F3600 X109.579 Y97.7
G1 F1800 X100.419 Y88.539 E104.71626
G1 X100.349 Y88.469
G0 F3600 X100.419 Y89.105
G1 F1800 X109.579 Y98.265 E105.37
G1 X109.649 Y98.335
G0 F3600 X109.579 Y98.831
G1 F1800 X100.419 Y89.671 E106.02373
G1 X100.349 Y89.601
G0 F3600 X100.419 Y90.236
G1 F1800 X109.579 Y99.397 E106.67751
G1 X109.649 Y99.467
G0 F3600 X109.579 Y99.962
G1 F1800 X100.419 Y90.802 E107.33124
G1 X100.349 Y90.732
G0 F3600 X100.419 Y91.368
G1 F1800 X109.579 Y100.528 E107.98498
G1 X109.649 Y100.598
G0 F3600 X109.579 Y101.094
G1 F1800 X100.419 Y91.933 E108.63875
G1 X100.349 Y91.863
G0 F3600 X100.419 Y92.499
G1 F1800 X109.579 Y101.66 E109.29253
G1 X109.649 Y101.73
G0 F3600 X109.579 Y102.225
G1 F1800 X100.419 Y93.065 E109.94626
G1 X100.349 Y92.995
G0 F3600 X100.419 Y93.63
G1 F1800 X109.579 Y102.791 E110.60004
G1 X109.649 Y102.861
G0 F3600 X109.579 Y103.357
G1 F1800 X100.419 Y94.196 E111.25381
G1 X100.349 Y94.126
G0 F3600 X100.419 Y94.762
G1 F1800 X109.579 Y103.922 E111.90755
G1 X109.649 Y103.992
G0 F3600 X109.579 Y104.488
G1 F1800 X100.419 Y95.327 E112.56132
G1 X100.349 Y95.257
G0 F3600 X100.419 Y95.893
G1 F1800 X109.579 Y105.054 E113.21509
G1 X109.649 Y105.124
G0 F3600 X109.579 Y105.619
G1 F1800 X100.419 Y96.459 E113.86883
G1 X100.349 Y96.389
G0 F3600 X100.419 Y97.024
G1 F1800 X109.579 Y106.185 E114.5226
G1 X109.649 Y106.255
G0 F3600 X109.579 Y106.751
G1 F1800 X100.419 Y97.59 E115.17638
G1 X100.349 Y97.52
G0 F3600 X100.419 Y98.156
G1 F1800 X109.579 Y107.316 E115.83012
G1 X109.649 Y107.386
G0 F3600 X109.579 Y107.882
G1 F1800 X100.419 Y98.722 E116.48385
G1 X100.349 Y98.652
G0 F3600 X100.419 Y99.287
G1 F1800 X109.579 Y108.448 E117.13763
G1 X109.649 Y108.518
G0 F3600 X109.579 Y109.013
G1 F1800 X100.419 Y99.853 E117.79136
G1 X100.349 Y99.783
G0 F3600 X100.419 Y100.419
G1 F1800 X109.579 Y109.579 E118.4451
G1 X109.649 Y109.649
G0 F3600 X109.579 Y110.145
G1 F1800 X100.419 Y100.984 E119.09887
G1 X100.349 Y100.914
G0 F3600 X100.419 Y101.55
G1 F1800 X109.579 Y110.711 E119.75265
G1 X109.649 Y110.781
G0 F3600 X109.579 Y111.276
G1 F1800 X100.419 Y102.116 E120.40638
G1 X100.349 Y102.046
G0 F3600 X100.419 Y102.681
G1 F1800 X109.579 Y111.842 E121.06016
G1 X109.649 Y111.912
G0 F3600 X109.579 Y112.408
G1 F1800 X100.419 Y103.247 E121.71393
G1 X100.349 Y103.177
G0 F3600 X100.419 Y103.813
G1 F1800 X109.579 Y112.973 E122.36767
G1 X109.649 Y113.043
G0 F3600 X109.579 Y113.539
G1 F1800 X100.419 Y104.378 E123.02144
G1 X100.349 Y104.308
G0 F3600 X100.419 Y104.944
G1 F1800 X109.579 Y114.105 E123.67521
G1 X109.649 Y114.175
G0 F3600 X109.579 Y114.67
G1 F1800 X100.419 Y105.51 E124.32895
G1 X100.349 Y105.44
G0 F3600 X100.419 Y106.075
G1 F1800 X109.579 Y115.236 E124.98272
G1 X109.649 Y115.306
G0 F3600 X109.579 Y115.802
G1 F1800 X100.419 Y106.641 E125.6365
G1 X100.349 Y106.571
G0 F3600 X100.419 Y107.207
G1 F1800 X109.579 Y116.367 E126.29024
G1 X109.649 Y116.437
G0 F3600 X109.579 Y116.933
G1 F1800 X100.419 Y107.772 E126.94401
G1 X100.349 Y107.702
G0 F3600 X100.419 Y108.338
G1 F1800 X109.579 Y117.499 E127.59778
G1 X109.649 Y117.569
G0 F3600 X109.579 Y118.064
G1 F1800 X100.419 Y108.904 E128.25152
G1 X100.349 Y108.834
G0 F3600 X100.419 Y109.47
G1 F1800 X109.579 Y118.63 E128.90526
G1 X109.649 Y118.7
G0 F3600 X109.579 Y119.196
G1 F1800 X100.419 Y110.035 E129.55903
G1 X100.349 Y109.965
G0 F3600 X100.419 Y110.601
G1 F1800 X109.579 Y119.761 E130.21277
G1 X109.649 Y119.831
G0 F3600 X109.579 Y120.327
G1 F1800 X100.419 Y111.167 E130.8665
G1 X100.349 Y111.097
G0 F3600 X100.419 Y111.732
G1 F1800 X109.579 Y120.893 E131.52028
G1 X109.649 Y120.963
G0 F3600 X109.579 Y121.459
G1 F1800 X100.419 Y112.298 E132.17405
G1 X100.349 Y112.228
G0 F3600 X100.419 Y112.864
G1 F1800 X109.579 Y122.024 E132.82779
G1 X109.649 Y122.094
G0 F3600 X109.579 Y122.59
G1 F1800 X100.419 Y113.429 E133.48156
G1 X100.349 Y113.359
G0 F3600 X100.419 Y113.995
G1 F1800 X109.579 Y123.156 E134.13533
G1 X109.649 Y123.226
G0 F3600 X109.579 Y123.721
G1 F1800 X100.419 Y114.561 E134.78907
G1 X100.349 Y114.491
G0 F3600 X100.419 Y115.126
G1 F1800 X109.579 Y124.287 E135.44284
G1 X109.649 Y124.357
G0 F3600 X109.579 Y124.853
G1 F1800 X100.419 Y115.692 E136.09662
G1 X100.349 Y115.622
G0 F3600 X100.419 Y116.258
G1 F1800 X109.579 Y125.418 E136.75035
G1 X109.649 Y125.488
G0 F3600 X109.579 Y125.984
G1 F1800 X100.419 Y116.823 E137.40413
G1 X100.349 Y116.753
G0 F3600 X100.419 Y117.389
G1 F1800 X109.579 Y126.55 E138.0579
G1 X109.649 Y126.62
G0 F3600 X109.579 Y127.115
G1 F1800 X100.419 Y117.955 E138.71164
G1 X100.349 Y117.885
G0 F3600 X100.419 Y118.52
G1 F1800 X109.579 Y127.681 E139.36541
G1 X109.649 Y127.751
G0 F3600 X109.579 Y128.247
G1 F1800 X100.419 Y119.086 E140.01918
G1 X100.349 Y119.016
G0 F3600 X100.419 Y119.652
G1 F1800 X109.579 Y128.812 E140.67292
G1 X109.649 Y128.882
G0 F3600 X109.579 Y129.378
G1 F1800 X100.419 Y120.218 E141.32666
G1 X100.349 Y120.148
G0 F3600 X100.419 Y120.783
G1 F1800 X109.579 Y129.944 E141.98043
G1 X109.649 Y130.014
G0 F3600 X109.579 Y130.509
G1 F1800 X100.419 Y121.349 E142.63417
G1 X100.349 Y121.279
G0 F3600 X100.419 Y121.915
G1 F1800 X109.579 Y131.075 E143.28791
G1 X109.649 Y131.145
G0 F3600 X109.579 Y131.641
G1 F1800 X100.419 Y122.48 E143.94168
G1 X100.349 Y122.41
G0 F3600 X100.419 Y123.046
G1 F1800 X109.579 Y132.207 E144.59545
G1 X109.649 Y132.277
G0 F3600 X109.579 Y132.772
G1 F1800 X100.419 Y123.612 E145.24919
G1 X100.349 Y123.542
G0 F3600 X100.419 Y124.177
G1 F1800 X109.579 Y133.338 E145.90296
G1 X109.649 Y133.408
G0 F3600 X109.579 Y133.904
G1 F1800 X100.419 Y124.743 E146.55674
G1 X100.349 Y124.673
G0 F3600 X100.419 Y125.309
