;FLAVOR:Marlin
;TIME:5009
;Filament used: 4.12849m
;Layer height: 0.2
;Generated with Cura_SteamEngine 3.2.1
M190 S50
M104 S210
M109 S210
M82 ;absolute extrusion mode
G28 ;Home
G1 Z15.0 F6000 ;Move the platform down 15mm
;Prime the extruder
G92 E0
G1 F200 E3
G92 E0
;LAYER_COUNT:98
;LAYER:0
M107
G0 F3600 X90.313 Y46.545 Z0.3
;TYPE:SKIRT
G1 F1800 X90.579 Y46.115 E0.02552
G1 X90.909 Y45.732 E0.05103
G1 X91.296 Y45.406 E0.07657
G1 X91.874 Y45.077 E0.11013
G1 X93.981 Y44.152 E0.22625
G1 X100.087 Y41.141 E0.56982
G1 X100.556 Y40.954 E0.5953
G1 X101.05 Y40.843 E0.62086
G1 X101.502 Y40.811 E0.64372
G1 X108.491 Y40.81 E0.99643
G1 X108.995 Y40.85 E1.02194
G1 X109.486 Y40.969 E1.04744
G1 X109.925 Y41.149 E1.07138
G1 X114.722 Y43.553 E1.34216
G1 X118.132 Y45.079 E1.53069
G1 X118.576 Y45.321 E1.55621
G1 X118.976 Y45.63 E1.58172
G1 X119.322 Y45.999 E1.60725
G1 X119.606 Y46.417 E1.63275
G1 X119.821 Y46.875 E1.65828
G1 X119.96 Y47.361 E1.68379
G1 X120.025 Y48 E1.71621
G1 X120.041 Y165.991 E7.67066
G1 X120.001 Y166.495 E7.69617
G1 X119.882 Y166.986 E7.72167
G1 X119.688 Y167.453 E7.74719
G1 X119.422 Y167.883 E7.7727
G1 X119.092 Y168.266 E7.79822
G1 X118.706 Y168.592 E7.82371
G1 X118.273 Y168.853 E7.84923
G1 X117.804 Y169.043 E7.87476
G1 X117.311 Y169.156 E7.90029
G1 X116.841 Y169.191 E7.92407
G1 X93.159 Y169.191 E9.11919
G1 X92.655 Y169.151 E9.14471
G1 X92.164 Y169.032 E9.1702
G1 X91.697 Y168.838 E9.19572
G1 X91.267 Y168.572 E9.22124
G1 X90.884 Y168.242 E9.24675
G1 X90.558 Y167.855 E9.27229
G1 X90.297 Y167.422 E9.2978
G1 X90.107 Y166.954 E9.32329
G1 X89.994 Y166.461 E9.34882
G1 X89.959 Y165.991 E9.3726
G1 X89.96 Y48.007 E15.3267
G1 X90 Y47.503 E15.35221
G1 X90.119 Y47.012 E15.37771
G1 X90.313 Y46.545 E15.40323
G1 F1500 E8.90323
G0 F3600 X92.485 Y48.614
G0 X93.764 Y48.614
G0 X112.67 Y65.33
G0 X112.6 Y65.4
;TYPE:WALL-INNER
G1 F1500 E15.40323
G1 F1800 X109.4 Y65.4 E15.56472
G1 X109.4 Y165.4 E20.61125
G1 X100.6 Y165.4 E21.05534
G1 X100.6 Y65.4 E26.10187
G1 X97.4 Y65.4 E26.26336
G1 X97.4 Y165.4 E31.30989
G1 X93.75 Y165.4 E31.49409
G1 X93.75 Y48.6 E37.38844
G1 X102.539 Y48.6 E37.83198
G1 X102.912 Y48.552 E37.85096
G1 X103.308 Y48.387 E37.87261
G1 X103.636 Y48.132 E37.89357
G1 X103.89 Y47.803 E37.91455
G1 X104.048 Y47.419 E37.9355
G1 X104.099 Y47.046 E37.9545
G1 X104.1 Y45.962 E38.00921
G1 X104.052 Y45.587 E38.02829
G1 X103.887 Y45.193 E38.04984
G1 X103.717 Y44.973 E38.06387
G1 X103.633 Y44.864 E38.07082
G1 X103.303 Y44.609 E38.09186
G1 X103.281 Y44.6 E38.09306
G1 X103.303 Y44.6
G1 X103.633 Y44.6
G1 X103.771 Y44.6 E38.09897
G1 X106.23 Y44.6 E38.22306
G1 X106.364 Y44.6 E38.22982
G1 X106.692 Y44.6 E38.24638
G1 X106.723 Y44.6 E38.24794
G1 X106.692 Y44.613
G1 X106.364 Y44.868 E38.25471
G1 X106.282 Y44.974 E38.26048
G1 X106.11 Y45.197 E38.27469
G1 X105.952 Y45.581 E38.29564
G1 X105.901 Y45.954 E38.31464
G1 X105.9 Y47.044 E38.36965
G1 X105.951 Y47.419 E38.38875
G1 X106.11 Y47.803 E38.40972
G1 X106.363 Y48.132 E38.43067
G1 X106.702 Y48.393 E38.45226
G1 X107.087 Y48.551 E38.47326
G1 X107.461 Y48.6 E38.4923
G1 X116.25 Y48.6 E38.93584
G1 X116.25 Y165.4 E44.83018
G1 X112.6 Y165.4 E45.01438
G1 X112.6 Y65.4 E50.06091
G0 F3600 X112.2 Y65.8
;TYPE:WALL-OUTER
G1 F1800 X109.8 Y65.8 E50.18203
G1 X109.8 Y165.8 E55.22856
G1 X100.2 Y165.8 E55.71302
G1 X100.2 Y65.8 E60.75955
G1 X97.8 Y65.8 E60.88067
G1 X97.8 Y165.8 E65.9272
G1 X93.35 Y165.8 E66.15177
G1 X93.35 Y48.2 E72.08649
G1 X102.513 Y48.2 E72.54891
G1 X102.808 Y48.162 E72.56392
G1 X103.105 Y48.038 E72.58016
G1 X103.351 Y47.847 E72.59587
G1 X103.541 Y47.601 E72.61156
G1 X103.659 Y47.314 E72.62722
G1 X103.699 Y47.019 E72.64224
G1 X103.7 Y45.987 E72.69432
G1 X103.662 Y45.692 E72.70933
G1 X103.538 Y45.396 E72.72553
G1 X103.348 Y45.149 E72.74126
G1 X103.101 Y44.959 E72.75698
G1 X102.812 Y44.84 E72.77275
G1 X102.49 Y44.8 E72.78913
G1 X101.7 Y44.8 E72.829
G1 X101.7 Y44.2 E72.85928
G1 X108.3 Y44.2 E73.19235
G1 X108.3 Y44.8 E73.22263
G1 X107.487 Y44.8 E73.26365
G1 X107.192 Y44.838 E73.27867
G1 X106.895 Y44.962 E73.29491
G1 X106.649 Y45.153 E73.31062
G1 X106.459 Y45.399 E73.32631
G1 X106.341 Y45.686 E73.34197
G1 X106.301 Y45.981 E73.35699
G1 X106.3 Y47.017 E73.40928
G1 X106.34 Y47.314 E73.4244
G1 X106.459 Y47.601 E73.44008
G1 X106.648 Y47.847 E73.45573
G1 X106.903 Y48.043 E73.47196
G1 X107.191 Y48.161 E73.48767
G1 X107.487 Y48.2 E73.50274
G1 X116.65 Y48.2 E73.96515
G1 X116.65 Y165.8 E79.89987
G1 X112.2 Y165.8 E80.12444
G1 X112.2 Y65.8 E85.17097
G0 F3600 X112 Y65.8
G0 X112 Y65.3
G0 X112.99 Y65.01
;TYPE:SKIN
G1 F1800 X109.01 Y65.01 E85.37182
G1 X109.01 Y165.01 E90.41835
G1 X100.99 Y165.01 E90.82309
G1 X100.99 Y65.01 E95.86962
G1 X97.01 Y65.01 E96.07047
G1 X97.01 Y165.01 E101.117
G1 X94.14 Y165.01 E101.26183
G1 X94.14 Y48.99 E107.11682
G1 X102.564 Y48.99 E107.54194
G1 X103.014 Y48.932 E107.56483
G1 X103.507 Y48.727 E107.59178
G1 X103.915 Y48.409 E107.61788
G1 X104.231 Y48 E107.64397
G1 X104.428 Y47.521 E107.6701
G1 X104.489 Y47.073 E107.69292
G1 X104.49 Y45.937 E107.75025
G1 X104.432 Y45.485 E107.77325
G1 X104.222 Y44.99 E107.80038
G1 X105.777 Y44.99 E107.87886
G1 X105.572 Y45.479 E107.90561
G1 X105.511 Y45.927 E107.92843
G1 X105.51 Y47.07 E107.98611
G1 X105.571 Y47.522 E108.00913
G1 X105.769 Y48 E108.03524
G1 X106.084 Y48.41 E108.06133
G1 X106.505 Y48.734 E108.08814
G1 X106.986 Y48.931 E108.11437
G1 X107.436 Y48.99 E108.13728
G1 X115.86 Y48.99 E108.5624
G1 X115.86 Y165.01 E114.41738
G1 X112.99 Y165.01 E114.56222
G1 X112.99 Y65.01 E119.60875
G0 F3600 X115.679 Y49.494
G1 F1800 X115.355 Y49.17 E119.63187
G0 F3600 X114.789 Y49.17
G1 F1800 X115.679 Y50.06 E119.69539
G1 X115.749 Y50.13
G0 F3600 X115.679 Y50.626
G1 F1800 X114.223 Y49.17 E119.7993
G1 X114.153 Y49.1
G0 F3600 X113.658 Y49.17
G1 F1800 X115.679 Y51.191 E119.94354
G1 X115.749 Y51.261
G0 F3600 X115.679 Y51.757
G1 F1800 X113.092 Y49.17 E120.12817
G1 X113.022 Y49.1
G0 F3600 X112.526 Y49.17
G1 F1800 X115.679 Y52.323 E120.35319
G1 X115.749 Y52.393
G0 F3600 X115.679 Y52.888
G1 F1800 X111.961 Y49.17 E120.61854
G1 X111.891 Y49.1
G0 F3600 X111.395 Y49.17
G1 F1800 X115.679 Y53.454 E120.92429
G1 X115.749 Y53.524
G0 F3600 X115.679 Y54.02
G1 F1800 X110.829 Y49.17 E121.27042
G1 X110.759 Y49.1
G0 F3600 X110.264 Y49.17
G1 F1800 X115.679 Y54.585 E121.65689
G1 X115.749 Y54.655
G0 F3600 X115.679 Y55.151
G1 F1800 X109.698 Y49.17 E122.08374
G1 X109.628 Y49.1
G0 F3600 X109.132 Y49.17
G1 F1800 X115.679 Y55.717 E122.55099
G1 X115.749 Y55.787
G0 F3600 X115.679 Y56.282
G1 F1800 X108.567 Y49.17 E123.05857
G1 X108.497 Y49.1
G0 F3600 X108.001 Y49.17
G1 F1800 X115.679 Y56.848 E123.60654
G1 X115.749 Y56.918
G0 F3600 X115.679 Y57.414
G1 F1800 X107.435 Y49.17 E124.1949
G1 X107.365 Y49.1
G0 F3600 X106.713 Y49.013
G1 F1800 X115.679 Y57.979 E124.83479
G1 X115.749 Y58.049
G0 F3600 X115.679 Y58.545
G1 F1800 X104.614 Y47.48 E125.62449
G1 X104.544 Y47.41
G0 F3600 X104.466 Y47.897
G1 F1800 X115.679 Y59.111 E126.42478
G1 X115.749 Y59.181
G0 F3600 X115.679 Y59.676
G1 F1800 X104.259 Y48.256 E127.23981
G1 X104.189 Y48.186
G0 F3600 X104.004 Y48.567
G1 F1800 X115.679 Y60.242 E128.07304
G1 X115.749 Y60.312
G0 F3600 X115.679 Y60.808
G1 F1800 X103.686 Y48.815 E128.92897
G1 X103.616 Y48.745
G0 F3600 X103.31 Y49.004
G1 F1800 X115.679 Y61.374 E129.81176
G1 X115.749 Y61.444
G0 F3600 X115.679 Y61.939
G1 F1800 X102.872 Y49.131 E130.72582
G1 X102.802 Y49.061
G0 F3600 X102.344 Y49.17
G1 F1800 X115.679 Y62.505 E131.67752
G1 X115.749 Y62.575
G0 F3600 X115.679 Y63.071
G1 F1800 X101.778 Y49.17 E132.66961
G1 X101.708 Y49.1
G0 F3600 X101.213 Y49.17
G1 F1800 X115.679 Y63.636 E133.70203
G1 X115.749 Y63.706
G0 F3600 X115.679 Y64.202
G1 F1800 X100.647 Y49.17 E134.77485
G1 X100.577 Y49.1
G0 F3600 X100.081 Y49.17
G1 F1800 X115.679 Y64.768 E135.88806
G1 X115.749 Y64.838
G0 F3600 X115.679 Y65.333
G1 F1800 X99.516 Y49.17 E137.04159
G1 X99.446 Y49.1
G0 F3600 X98.95 Y49.17
G1 F1800 X115.679 Y65.899 E138.23552
G1 X115.749 Y65.969
G0 F3600 X115.679 Y66.465
G1 F1800 X98.384 Y49.17 E139.46984
G1 X98.314 Y49.1
G0 F3600 X97.819 Y49.17
G1 F1800 X115.679 Y67.03 E140.74448
G1 X115.749 Y67.1
G0 F3600 X115.679 Y67.596
G1 F1800 X113.169 Y65.086 E140.92362
G1 X113.099 Y65.016
G0 F3600 X112.913 Y64.83
G1 F1800 X97.253 Y49.17 E142.04125
G1 X97.183 Y49.1
G0 F3600 X96.687 Y49.17
G1 F1800 X112.347 Y64.83 E143.15889
G1 X112.417 Y64.9
G0 F3600 X111.782 Y64.83
G1 F1800 X96.121 Y49.17 E144.27656
G1 X96.051 Y49.1
G0 F3600 X95.556 Y49.17
G1 F1800 X111.216 Y64.83 E145.39419
G1 X111.286 Y64.9
G0 F3600 X110.65 Y64.83
G1 F1800 X94.99 Y49.17 E146.51183
G1 X94.92 Y49.1
G0 F3600 X94.424 Y49.17
G1 F1800 X110.085 Y64.83 E147.62949
G1 X110.155 Y64.9
G0 F3600 X109.519 Y64.83
G1 F1800 X94.318 Y49.629 E148.71437
G1 X94.248 Y49.559
G0 F3600 X94.318 Y50.195
G1 F1800 X108.953 Y64.83 E149.75885
G1 X109.023 Y64.9
G0 F3600 X108.83 Y65.272
G1 F1800 X94.318 Y50.761 E150.79452
G1 X94.248 Y50.691
G0 F3600 X94.318 Y51.326
G1 F1800 X108.83 Y65.838 E151.83022
G1 X108.9 Y65.908
G0 F3600 X108.83 Y66.403
G1 F1800 X94.318 Y51.892 E152.86589
G1 X94.248 Y51.822
G0 F3600 X94.318 Y52.458
G1 F1800 X108.83 Y66.969 E153.90156
G1 X108.9 Y67.039
G0 F3600 X108.83 Y67.535
G1 F1800 X94.318 Y53.023 E154.93726
G1 X94.248 Y52.953
G0 F3600 X94.318 Y53.589
G1 F1800 X108.83 Y68.1 E155.97293
G1 X108.9 Y68.17
G0 F3600 X108.83 Y68.666
G1 F1800 X94.318 Y54.155 E157.00859
G1 X94.248 Y54.085
G0 F3600 X94.318 Y54.72
G1 F1800 X108.83 Y69.232 E158.0443
G1 X108.9 Y69.302
G0 F3600 X108.83 Y69.797
G1 F1800 X94.318 Y55.286 E159.07996
G1 X94.248 Y55.216
G0 F3600 X94.318 Y55.852
G1 F1800 X108.83 Y70.363 E160.11563
G1 X108.9 Y70.433
G0 F3600 X108.83 Y70.929
G1 F1800 X94.318 Y56.417 E161.15133
G1 X94.248 Y56.347
G0 F3600 X94.318 Y56.983
G1 F1800 X108.83 Y71.494 E162.187
G1 X108.9 Y71.564
G0 F3600 X108.83 Y72.06
G1 F1800 X94.318 Y57.549 E163.22267
G1 X94.248 Y57.479
G0 F3600 X94.318 Y58.114
G1 F1800 X101.033 Y64.829 E163.70191
G1 X101.103 Y64.899
G0 F3600 X101.169 Y64.965
G1 F1800 X108.83 Y72.626 E164.24866
G1 X108.9 Y72.696
G0 F3600 X108.83 Y73.191
G1 F1800 X101.169 Y65.531 E164.79538
G1 X101.099 Y65.461
G0 F3600 X101.169 Y66.096
G1 F1800 X108.83 Y73.757 E165.34214
G1 X108.9 Y73.827
G0 F3600 X108.83 Y74.323
G1 F1800 X101.169 Y66.662 E165.88889
G1 X101.099 Y66.592
G0 F3600 X101.169 Y67.228
G1 F1800 X108.83 Y74.888 E166.43561
G1 X108.9 Y74.958
G0 F3600 X108.83 Y75.454
G1 F1800 X101.169 Y67.793 E166.98237
G1 X101.099 Y67.723
G0 F3600 X101.169 Y68.359
G1 F1800 X108.83 Y76.02 E167.52913
G1 X108.9 Y76.09
G0 F3600 X108.83 Y76.586
G1 F1800 X101.169 Y68.925 E168.07588
G1 X101.099 Y68.855
G0 F3600 X101.169 Y69.49
G1 F1800 X108.83 Y77.151 E168.62264
G1 X108.9 Y77.221
G0 F3600 X108.83 Y77.717
G1 F1800 X101.169 Y70.056 E169.16939
G1 X101.099 Y69.986
G0 F3600 X101.169 Y70.622
G1 F1800 X108.83 Y78.283 E169.71615
G1 X108.9 Y78.353
G0 F3600 X108.83 Y78.848
G1 F1800 X101.169 Y71.187 E170.2629
G1 X101.099 Y71.117
G0 F3600 X101.169 Y71.753
G1 F1800 X108.83 Y79.414 E170.80966
G1 X108.9 Y79.484
G0 F3600 X108.83 Y79.98
G1 F1800 X101.169 Y72.319 E171.35642
G1 X101.099 Y72.249
G0 F3600 X101.169 Y72.885
G1 F1800 X108.83 Y80.545 E171.90314
G1 X108.9 Y80.615
G0 F3600 X108.83 Y81.111
G1 F1800 X101.169 Y73.45 E172.44989
G1 X101.099 Y73.38
G0 F3600 X101.169 Y74.016
G1 F1800 X108.83 Y81.677 E172.99665
G1 X108.9 Y81.747
G0 F3600 X108.83 Y82.242
G1 F1800 X101.169 Y74.582 E173.54337
G1 X101.099 Y74.512
G0 F3600 X101.169 Y75.147
G1 F1800 X108.83 Y82.808 E174.09012
G1 X108.9 Y82.878
G0 F3600 X108.83 Y83.374
G1 F1800 X101.169 Y75.713 E174.63688
G1 X101.099 Y75.643
G0 F3600 X101.169 Y76.279
G1 F1800 X108.83 Y83.939 E175.1836
G1 X108.9 Y84.009
G0 F3600 X108.83 Y84.505
G1 F1800 X101.169 Y76.844 E175.73035
G1 X101.099 Y76.774
G0 F3600 X101.169 Y77.41
G1 F1800 X108.83 Y85.071 E176.27711
G1 X108.9 Y85.141
G0 F3600 X108.83 Y85.636
G1 F1800 X101.169 Y77.976 E176.82383
G1 X101.099 Y77.906
G0 F3600 X101.169 Y78.541
G1 F1800 X108.83 Y86.202 E177.37059
G1 X108.9 Y86.272
G0 F3600 X108.83 Y86.768
G1 F1800 X101.169 Y79.107 E177.91734
G1 X101.099 Y79.037
G0 F3600 X101.169 Y79.673
G1 F1800 X108.83 Y87.334 E178.4641
G1 X108.9 Y87.404
G0 F3600 X108.83 Y87.899
G1 F1800 X101.169 Y80.238 E179.01085
G1 X101.099 Y80.168
G0 F3600 X101.169 Y80.804
G1 F1800 X108.83 Y88.465 E179.55761
G1 X108.9 Y88.535
G0 F3600 X108.83 Y89.031
G1 F1800 X101.169 Y81.37 E180.10436
G1 X101.099 Y81.3
G0 F3600 X101.169 Y81.935
G1 F1800 X108.83 Y89.596 E180.65112
G1 X108.9 Y89.666
G0 F3600 X108.83 Y90.162
G1 F1800 X101.169 Y82.501 E181.19788
G1 X101.099 Y82.431
G0 F3600 X101.169 Y83.067
G1 F1800 X108.83 Y90.728 E181.74463
G1 X108.9 Y90.798
G0 F3600 X108.83 Y91.293
G1 F1800 X101.169 Y83.633 E182.29135
G1 X101.099 Y83.563
G0 F3600 X101.169 Y84.198
G1 F1800 X108.83 Y91.859 E182.83811
G1 X108.9 Y91.929
G0 F3600 X108.83 Y92.425
G1 F1800 X101.169 Y84.764 E183.38486
G1 X101.099 Y84.694
G0 F3600 X101.169 Y85.33
G1 F1800 X108.83 Y92.99 E183.93158
G1 X108.9 Y93.06
G0 F3600 X108.83 Y93.556
G1 F1800 X101.169 Y85.895 E184.47834
G1 X101.099 Y85.825
G0 F3600 X101.169 Y86.461
G1 F1800 X108.83 Y94.122 E185.02509
G1 X108.9 Y94.192
G0 F3600 X108.83 Y94.687
G1 F1800 X101.169 Y87.027 E185.57181
G1 X101.099 Y86.957
G0 F3600 X101.169 Y87.592
G1 F1800 X108.83 Y95.253 E186.11857
G1 X108.9 Y95.323
G0 F3600 X108.83 Y95.819
G1 F1800 X101.169 Y88.158 E186.66533
G1 X101.099 Y88.088
G0 F3600 X101.169 Y88.724
G1 F1800 X108.83 Y96.385 E187.21208
G1 X108.9 Y96.455
G0 F3600 X108.83 Y96.95
G1 F1800 X101.169 Y89.289 E187.75884
G1 X101.099 Y89.219
G0 F3600 X101.169 Y89.855
G1 F1800 X108.83 Y97.516 E188.30559
G1 X108.9 Y97.586
G0 F3600 X108.83 Y98.082
G1 F1800 X101.169 Y90.421 E188.85235
G1 X101.099 Y90.351
G0 F3600 X101.169 Y90.986
G1 F1800 X108.83 Y98.647 E189.3991
G1 X108.9 Y98.717
G0 F3600 X108.83 Y99.213
G1 F1800 X101.169 Y91.552 E189.94586
G1 X101.099 Y91.482
G0 F3600 X101.169 Y92.118
G1 F1800 X108.83 Y99.779 E190.49262
G1 X108.9 Y99.849
G0 F3600 X108.83 Y100.344
G1 F1800 X101.169 Y92.684 E191.03934
G1 X101.099 Y92.614
G0 F3600 X101.169 Y93.249
G1 F1800 X108.83 Y100.91 E191.58609
G1 X108.9 Y100.98
G0 F3600 X108.83 Y101.476
G1 F1800 X101.169 Y93.815 E192.13285
G1 X101.099 Y93.745
G0 F3600 X101.169 Y94.381
G1 F1800 X108.83 Y102.041 E192.67957
G1 X108.9 Y102.111
G0 F3600 X108.83 Y102.607
G1 F1800 X101.169 Y94.946 E193.22632
G1 X101.099 Y94.876
G0 F3600 X101.169 Y95.512
G1 F1800 X108.83 Y103.173 E193.77308
G1 X108.9 Y103.243
G0 F3600 X108.83 Y103.738
G1 F1800 X101.169 Y96.078 E194.3198
G1 X101.099 Y96.008
G0 F3600 X101.169 Y96.643
G1 F1800 X108.83 Y104.304 E194.86655
G1 X108.9 Y104.374
G0 F3600 X108.83 Y104.87
G1 F1800 X101.169 Y97.209 E195.41331
G1 X101.099 Y97.139
G0 F3600 X101.169 Y97.775
G1 F1800 X108.83 Y105.435 E195.96003
G1 X108.9 Y105.505
G0 F3600 X108.83 Y106.001
G1 F1800 X101.169 Y98.34 E196.50679
G1 X101.099 Y98.27
G0 F3600 X101.169 Y98.906
G1 F1800 X108.83 Y106.567 E197.05354
G1 X108.9 Y106.637
G0 F3600 X108.83 Y107.133
G1 F1800 X101.169 Y99.472 E197.6003
G1 X101.099 Y99.402
G0 F3600 X101.169 Y100.037
G1 F1800 X108.83 Y107.698 E198.14705
G1 X108.9 Y107.768
G0 F3600 X108.83 Y108.264
G1 F1800 X101.169 Y100.603 E198.69381
G1 X101.099 Y100.533
G0 F3600 X101.169 Y101.169
G1 F1800 X108.83 Y108.83 E199.24056
G1 X108.9 Y108.9
G0 F3600 X108.83 Y109.395
G1 F1800 X101.169 Y101.734 E199.78732
G1 X101.099 Y101.664
G0 F3600 X101.169 Y102.3
G1 F1800 X108.83 Y109.961 E200.33408
G1 X108.9 Y110.031
G0 F3600 X108.83 Y110.527
G1 F1800 X101.169 Y102.866 E200.88083
G1 X101.099 Y102.796
G0 F3600 X101.169 Y103.432
G1 F1800 X108.83 Y111.092 E201.42755
G1 X108.9 Y111.162
G0 F3600 X108.83 Y111.658
G1 F1800 X101.169 Y103.997 E201.97431
G1 X101.099 Y103.927
G0 F3600 X101.169 Y104.563
G1 F1800 X108.83 Y112.224 E202.52106
G1 X108.9 Y112.294
G0 F3600 X108.83 Y112.789
G1 F1800 X101.169 Y105.129 E203.06778
G1 X101.099 Y105.059
G0 F3600 X101.169 Y105.694
G1 F1800 X108.83 Y113.355 E203.61454
G1 X108.9 Y113.425
G0 F3600 X108.83 Y113.921
G1 F1800 X101.169 Y106.26 E204.16129
G1 X101.099 Y106.19
G0 F3600 X101.169 Y106.826
G1 F1800 X108.83 Y114.486 E204.70801
G1 X108.9 Y114.556
G0 F3600 X108.83 Y115.052
G1 F1800 X101.169 Y107.391 E205.25477
