;FLAVOR:Marlin
;TIME:5649
;Filament used: 4.45693m
;Layer height: 0.2
;Generated with Cura_SteamEngine 3.2.1
M190 S50
M104 S200
M109 S200
M82 ;absolute extrusion mode
G28 ;Home
G1 Z15.0 F6000 ;Move the platform down 15mm
;Prime the extruder
G92 E0
G1 F200 E3
G92 E0
;LAYER_COUNT:98
;LAYER:0
M107
G0 F4500 X90.313 Y50.541 Z0.3
;TYPE:SKIRT
G1 F1800 X90.453 Y50.296 E0.01408
G1 X91.635 Y48.423 E0.12457
G1 X94.383 Y43.663 E0.39878
G1 X96.508 Y39.513 E0.63139
G1 X96.789 Y39.061 E0.65795
G1 X97.069 Y38.685 E0.68133
G1 X97.403 Y38.304 E0.70661
G1 X97.653 Y38.085 E0.72319
G1 X98.062 Y37.762 E0.7492
G1 X98.482 Y37.481 E0.77441
G1 X98.785 Y37.331 E0.79127
G1 X99.224 Y37.143 E0.8151
G1 X99.703 Y36.982 E0.84031
G1 X100.133 Y36.904 E0.86211
G1 X100.877 Y36.822 E0.89946
G1 X101.236 Y36.803 E0.91739
G1 X109.155 Y36.824 E1.31247
G1 X109.659 Y36.865 E1.3377
G1 X110.019 Y36.945 E1.3561
G1 X110.718 Y37.143 E1.39235
G1 X111.192 Y37.319 E1.41757
G1 X111.613 Y37.554 E1.44163
G1 X111.974 Y37.793 E1.46323
G1 X112.372 Y38.104 E1.48843
G1 X112.621 Y38.361 E1.50628
G1 X113.049 Y38.853 E1.53881
G1 X113.35 Y39.259 E1.56403
G1 X113.483 Y39.495 E1.57754
G1 X115.651 Y43.73 E1.8149
G1 X116.987 Y46.115 E1.95129
G1 X119.564 Y50.323 E2.19747
G1 X119.793 Y50.774 E2.2227
G1 X119.948 Y51.255 E2.24791
G1 X120.035 Y51.994 E2.28504
G1 X120.041 Y169.991 E8.17193
G1 X120.001 Y170.495 E8.19715
G1 X119.882 Y170.986 E8.22236
G1 X119.688 Y171.453 E8.24759
G1 X119.422 Y171.883 E8.27281
G1 X119.092 Y172.266 E8.29804
G1 X118.705 Y172.592 E8.32328
G1 X118.272 Y172.853 E8.3485
G1 X117.804 Y173.043 E8.3737
G1 X117.311 Y173.156 E8.39894
G1 X116.841 Y173.191 E8.42245
G1 X93.159 Y173.191 E9.60395
G1 X92.655 Y173.151 E9.62917
G1 X92.164 Y173.032 E9.65438
G1 X91.697 Y172.838 E9.67961
G1 X91.267 Y172.572 E9.70484
G1 X90.884 Y172.242 E9.73006
G1 X90.558 Y171.855 E9.7553
G1 X90.297 Y171.422 E9.78053
G1 X90.107 Y170.954 E9.80573
G1 X89.994 Y170.461 E9.83096
G1 X89.959 Y169.991 E9.85447
G1 X89.96 Y52.003 E15.74092
G1 X90 Y51.499 E15.76614
G1 X90.119 Y51.008 E15.79135
G1 X90.313 Y50.541 E15.81658
G1 F2400 E8.81658
G0 F4500 X98.252 Y50.668
G0 X99.408 Y51.235
G0 X101.173 Y52.287
G0 X101.804 Y52.551
G0 X102.438 Y52.637
G0 X107.541 Y52.639
G0 X108.17 Y52.558
G0 X108.893 Y52.237
G0 X109.384 Y51.855
G0 X109.615 Y51.551
G0 X110.117 Y50.679
G0 X110.021 Y50.654
;TYPE:WALL-INNER
G1 F2400 E15.81658
G1 F1800 X110.026 Y50.608 E15.81888
G1 X110.1 Y50.039 E15.84751
G1 X110.1 Y43.861 E16.15573
G1 X110.02 Y43.252 E16.18638
G1 X109.905 Y42.974 E16.20139
G1 X109.77 Y42.648 E16.21899
G1 X109.372 Y42.128 E16.25166
G1 X108.852 Y41.73 E16.28433
G1 X108.248 Y41.48 E16.31694
G1 X107.639 Y41.4 E16.34759
G1 X102.361 Y41.4 E16.61091
G1 X101.752 Y41.48 E16.64155
G1 X101.148 Y41.73 E16.67416
G1 X100.628 Y42.128 E16.70683
G1 X100.23 Y42.648 E16.7395
G1 X100.095 Y42.974 E16.75711
G1 X99.98 Y43.252 E16.77212
G1 X99.9 Y43.861 E16.80276
G1 X99.9 Y50.038 E17.11093
G1 X99.972 Y50.609 E17.13964
G1 X99.978 Y50.652 E17.14181
G1 X99.997 Y50.701 E17.14443
G1 X100.209 Y51.226 E17.17268
G1 X100.281 Y51.354 E17.18001
G1 X100.667 Y51.849 E17.21132
G1 X101.193 Y52.253 E17.24441
G1 X101.814 Y52.513 E17.278
G1 X102.44 Y52.598 E17.30952
G1 X107.539 Y52.6 E17.56391
G1 X108.16 Y52.52 E17.59515
G1 X108.754 Y52.279 E17.62713
G1 X108.87 Y52.205 E17.63399
G1 X109.356 Y51.827 E17.66471
G1 X109.758 Y51.298 E17.69786
G1 X110.001 Y50.703 E17.72992
G1 X110.021 Y50.654 E17.73256
G0 F4500 X110.117 Y50.679
G0 X112.67 Y59.33
G0 X112.6 Y59.4
G1 F1800 X109.4 Y59.4 E17.89221
G1 X109.4 Y169.4 E23.38013
G1 X100.6 Y169.4 E23.81917
G1 X100.6 Y59.4 E29.30709
G1 X97.4 Y59.4 E29.46674
G1 X97.4 Y169.4 E34.95466
G1 X93.75 Y169.4 E35.13676
G1 X93.75 Y52.6 E40.96393
G1 X97.159 Y52.599 E41.13401
G1 X97.785 Y52.514 E41.16553
G1 X98.408 Y52.253 E41.19923
G1 X98.932 Y51.85 E41.23221
G1 X99.318 Y51.355 E41.26352
G1 X99.39 Y51.227 E41.27085
G1 X99.602 Y50.702 E41.2991
G1 X99.621 Y50.653 E41.30172
G1 X99.626 Y50.608 E41.30359
G1 X99.7 Y50.039 E41.32317
G1 X99.7 Y43.861 E41.47729
G1 X99.7 Y43.252 E41.4955
G1 X99.7 Y42.951 E41.50831
G1 X99.7 Y41.94 E41.55875
G1 X99.75 Y41.564 E41.57768
G1 X99.879 Y41.253 E41.59447
G1 X100.084 Y40.984 E41.61135
G1 X100.353 Y40.779 E41.62822
G1 X100.664 Y40.65 E41.64502
G1 X101.04 Y40.6 E41.66394
G1 X108.96 Y40.6 E42.05907
G1 X109.336 Y40.65 E42.078
G1 X109.647 Y40.779 E42.09479
G1 X109.916 Y40.984 E42.11167
G1 X110.121 Y41.253 E42.12854
G1 X110.25 Y41.564 E42.14534
G1 X110.3 Y41.94 E42.16426
G1 X110.3 Y42.951 E42.2147
G1 X110.3 Y43.252 E42.22751
G1 X110.3 Y43.861 E42.24572
G1 X110.3 Y50.038 E42.39979
G1 X110.372 Y50.61 E42.41951
G1 X110.378 Y50.652 E42.42123
G1 X110.397 Y50.701 E42.42385
G1 X110.609 Y51.226 E42.4521
G1 X110.681 Y51.354 E42.45943
G1 X111.067 Y51.849 E42.49074
G1 X111.593 Y52.253 E42.52383
G1 X112.214 Y52.513 E42.55742
G1 X112.84 Y52.598 E42.58894
G1 X116.25 Y52.6 E42.75906
G1 X116.25 Y169.4 E48.58624
G1 X112.6 Y169.4 E48.76834
G1 X112.6 Y59.4 E54.25626
G0 F4500 X112.2 Y59.8
;TYPE:WALL-OUTER
G1 F1800 X109.8 Y59.8 E54.376
G1 X109.8 Y169.8 E59.86392
G1 X100.2 Y169.8 E60.34287
G1 X100.2 Y59.8 E65.83079
G1 X97.8 Y59.8 E65.95052
G1 X97.8 Y169.8 E71.43845
G1 X93.35 Y169.8 E71.66046
G1 X93.35 Y52.2 E77.52755
G1 X97.132 Y52.199 E77.71623
G1 X97.679 Y52.125 E77.74377
G1 X98.205 Y51.904 E77.77223
G1 X98.648 Y51.564 E77.80009
G1 X98.984 Y51.133 E77.82736
G1 X99.028 Y51.054 E77.83187
G1 X99.231 Y50.551 E77.85893
G1 X99.3 Y50.013 E77.88599
G1 X99.3 Y41.911 E78.2902
G1 X99.359 Y41.463 E78.31275
G1 X99.531 Y41.049 E78.33511
G1 X99.799 Y40.699 E78.3571
G1 X100.149 Y40.431 E78.3791
G1 X100.563 Y40.259 E78.40146
G1 X101.011 Y40.2 E78.42401
G1 X108.989 Y40.2 E78.82203
G1 X109.437 Y40.259 E78.84458
G1 X109.851 Y40.431 E78.86694
G1 X110.201 Y40.699 E78.88893
G1 X110.469 Y41.049 E78.91093
G1 X110.641 Y41.463 E78.93329
G1 X110.7 Y41.911 E78.95584
G1 X110.7 Y50.013 E79.36005
G1 X110.768 Y50.55 E79.38705
G1 X110.971 Y51.053 E79.41411
G1 X111.015 Y51.132 E79.41863
G1 X111.351 Y51.563 E79.44589
G1 X111.795 Y51.904 E79.47382
G1 X112.32 Y52.124 E79.50222
G1 X112.867 Y52.198 E79.52976
G1 X116.65 Y52.2 E79.71849
G1 X116.65 Y169.8 E85.58558
G1 X112.2 Y169.8 E85.80759
G1 X112.2 Y59.8 E91.29551
G0 F4500 X112 Y59.8
G0 X112 Y59.3
G0 X101.173 Y52.287
G0 X100.639 Y51.877
G0 X100.173 Y51.243
G0 X99.94 Y50.662
G0 X99.861 Y50.04
G0 X99.861 Y43.859
G0 X99.942 Y43.242
G0 X100.085 Y42.896
G0 X100.517 Y42.11
G0 X100.913 Y42.413
G1 F1800 X100.58 Y42.849 E91.32288
G1 X100.37 Y43.356 E91.35026
G1 X100.3 Y43.887 E91.37698
G1 X100.3 Y50.013 E91.68261
G1 X100.368 Y50.55 E91.70962
G1 X100.571 Y51.053 E91.73668
G1 X100.615 Y51.132 E91.74119
G1 X100.951 Y51.563 E91.76845
G1 X101.395 Y51.904 E91.79638
G1 X101.92 Y52.124 E91.82478
G1 X102.467 Y52.198 E91.85232
G1 X107.513 Y52.2 E92.10407
G1 X108.058 Y52.13 E92.13148
G1 X108.57 Y51.922 E92.15905
G1 X108.639 Y51.878 E92.16314
G1 X109.069 Y51.543 E92.19033
G1 X109.408 Y51.098 E92.21824
G1 X109.631 Y50.551 E92.24771
G1 X109.7 Y50.013 E92.27477
G1 X109.7 Y43.887 E92.5804
G1 X109.63 Y43.356 E92.60712
G1 X109.42 Y42.849 E92.6345
G1 X109.087 Y42.413 E92.66187
G1 X108.651 Y42.08 E92.68924
G1 X108.144 Y41.87 E92.71662
G1 X107.613 Y41.8 E92.74334
G1 X102.387 Y41.8 E93.00406
G1 X101.856 Y41.87 E93.03079
G1 X101.349 Y42.08 E93.05816
G1 X100.913 Y42.413 E93.08553
G0 F4500 X100.792 Y42.572
G0 X100.396 Y42.269
G0 X100.09 Y42.188
;TYPE:SKIN
G1 F1800 X100.09 Y41.961 E93.09686
G1 X100.129 Y41.669 E93.11156
G1 X100.22 Y41.448 E93.12348
G1 X100.362 Y41.262 E93.13516
G1 X100.548 Y41.12 E93.14683
G1 X100.769 Y41.029 E93.15875
G1 X101.061 Y40.99 E93.17345
G1 X108.939 Y40.99 E93.56649
G1 X109.231 Y41.029 E93.58118
G1 X109.452 Y41.12 E93.59311
G1 X109.638 Y41.262 E93.60478
G1 X109.78 Y41.448 E93.61646
G1 X109.871 Y41.669 E93.62838
G1 X109.91 Y41.961 E93.64308
G1 X109.91 Y42.188 E93.6544
G1 X109.651 Y41.849 E93.67569
G1 X109.049 Y41.389 E93.71349
G1 X108.349 Y41.1 E93.75127
G1 X107.664 Y41.01 E93.78574
G1 X102.336 Y41.01 E94.05155
G1 X101.651 Y41.1 E94.08602
G1 X100.951 Y41.389 E94.1238
G1 X100.349 Y41.849 E94.1616
G1 X100.09 Y42.188 E94.18288
G0 F4500 X100.664 Y41.267
G1 F1800 X100.728 Y41.331 E94.1874
G0 F4500 X99.942 Y43.242
G0 X99.898 Y43.591
G0 X99.8 Y51.255
G1 F1800 X99.856 Y51.396 E94.19497
G1 X99.956 Y51.571 E94.20503
G1 X100.39 Y52.128 E94.24025
G1 X100.996 Y52.593 E94.27836
G1 X101.711 Y52.893 E94.31705
G1 X102.413 Y52.988 E94.35239
G1 X107.564 Y52.99 E94.60937
G1 X108.26 Y52.9 E94.64439
G1 X108.933 Y52.627 E94.68062
G1 X109.094 Y52.525 E94.69013
G1 X109.635 Y52.104 E94.72433
G1 X110.099 Y51.493 E94.7626
G1 X110.198 Y51.251 E94.77565
G1 X110.256 Y51.396 E94.78344
G1 X110.356 Y51.571 E94.7935
G1 X110.79 Y52.128 E94.82872
G1 X111.396 Y52.593 E94.86683
G1 X112.111 Y52.893 E94.90552
G1 X112.813 Y52.988 E94.94086
G1 X115.86 Y52.99 E95.09287
G1 X115.86 Y169.01 E100.88114
G1 X112.99 Y169.01 E101.02432
G1 X112.99 Y59.01 E106.51224
G1 X109.01 Y59.01 E106.71081
G1 X109.01 Y169.01 E112.19873
G1 X100.99 Y169.01 E112.59885
G1 X100.99 Y59.01 E118.08677
G1 X97.01 Y59.01 E118.28533
G1 X97.01 Y169.01 E123.77326
G1 X94.14 Y169.01 E123.91644
G1 X94.14 Y52.99 E129.7047
G1 X97.186 Y52.989 E129.85667
G1 X97.888 Y52.894 E129.89201
G1 X98.605 Y52.593 E129.9308
G1 X99.209 Y52.129 E129.9688
G1 X99.643 Y51.572 E130.00403
G1 X99.743 Y51.397 E130.01409
G1 X99.8 Y51.255 E130.02172
G0 F4500 X101.173 Y52.287
G0 X101.804 Y52.551
G0 X101.983 Y52.575
G0 X115.679 Y53.454
G1 F1800 X115.394 Y53.169 E130.04183
G0 F4500 X114.829 Y53.169
G1 F1800 X115.679 Y54.02 E130.10184
G1 X115.749 Y54.09
G0 F4500 X115.679 Y54.585
G1 F1800 X114.263 Y53.169 E130.20174
G1 X114.193 Y53.099
G0 F4500 X113.697 Y53.168
G1 F1800 X115.679 Y55.151 E130.34162
G1 X115.749 Y55.221
G0 F4500 X115.679 Y55.717
G1 F1800 X113.131 Y53.168 E130.52143
G1 X113.061 Y53.098
G0 F4500 X112.528 Y53.131
G1 F1800 X115.679 Y56.282 E130.74375
G1 X115.749 Y56.352
G0 F4500 X115.679 Y56.848
G1 F1800 X111.782 Y52.95 E131.01874
G1 X111.712 Y52.88
G0 F4500 X110.079 Y51.813
G1 F1800 X115.679 Y57.414 E131.41389
G1 X115.749 Y57.484
G0 F4500 X115.679 Y57.979
G1 F1800 X109.835 Y52.135 E131.82621
G1 X109.765 Y52.065
G0 F4500 X109.54 Y52.405
G1 F1800 X115.679 Y58.545 E132.25939
G1 X115.749 Y58.615
G0 F4500 X115.679 Y59.111
G1 F1800 X109.221 Y52.653 E132.71503
G1 X109.151 Y52.583
G0 F4500 X108.855 Y52.852
G1 F1800 X115.679 Y59.676 E133.1965
G1 X115.749 Y59.746
G0 F4500 X115.679 Y60.242
G1 F1800 X108.452 Y53.015 E133.70641
G1 X108.382 Y52.945
G0 F4500 X107.987 Y53.116
G1 F1800 X115.679 Y60.808 E134.24912
G1 X115.749 Y60.878
G0 F4500 X115.679 Y61.374
G1 F1800 X113.169 Y58.863 E134.42625
G1 X113.099 Y58.793
G0 F4500 X113.135 Y58.829
G1 F1800 X107.475 Y53.17 E134.82556
G1 X107.405 Y53.1
G0 F4500 X106.91 Y53.17
G1 F1800 X112.569 Y58.829 E135.22483
G1 X112.639 Y58.899
G0 F4500 X112.004 Y58.829
G1 F1800 X106.344 Y53.17 E135.62414
G1 X106.274 Y53.1
G0 F4500 X105.778 Y53.169
G1 F1800 X111.438 Y58.829 E136.02348
G1 X111.508 Y58.899
G0 F4500 X110.872 Y58.829
G1 F1800 X105.212 Y53.169 E136.42283
G1 X105.142 Y53.099
G0 F4500 X104.646 Y53.169
G1 F1800 X110.307 Y58.829 E136.8222
G1 X110.377 Y58.899
G0 F4500 X109.741 Y58.829
G1 F1800 X104.08 Y53.168 E137.22162
G1 X104.01 Y53.098
G0 F4500 X103.514 Y53.168
G1 F1800 X109.175 Y58.829 E137.62103
G1 X109.245 Y58.899
G0 F4500 X108.83 Y59.049
G1 F1800 X102.949 Y53.168 E138.03597
G1 X102.879 Y53.098
G0 F4500 X102.379 Y53.165
G1 F1800 X108.83 Y59.615 E138.49109
G1 X108.9 Y59.685
G0 F4500 X108.83 Y60.181
G1 F1800 X101.725 Y53.076 E138.99238
G1 X101.655 Y53.006
G0 F4500 X100.598 Y52.515
G1 F1800 X108.83 Y60.746 E139.57316
G1 X108.9 Y60.816
G0 F4500 X108.83 Y61.312
G1 F1800 X99.528 Y52.01 E140.22947
G1 X99.458 Y51.94
G0 F4500 X99.265 Y52.313
G1 F1800 X108.83 Y61.878 E140.90433
G1 X108.9 Y61.948
G0 F4500 X108.83 Y62.443
G1 F1800 X98.944 Y52.558 E141.6018
G1 X98.874 Y52.488
G0 F4500 X98.607 Y52.786
G1 F1800 X108.83 Y63.009 E142.32309
G1 X108.9 Y63.079
G0 F4500 X108.83 Y63.575
G1 F1800 X98.209 Y52.954 E143.07246
G1 X98.139 Y52.884
G0 F4500 X97.78 Y53.09
G1 F1800 X108.83 Y64.14 E143.8521
G1 X108.9 Y64.21
G0 F4500 X108.83 Y64.706
G1 F1800 X97.28 Y53.157 E144.66698
G1 X97.21 Y53.087
G0 F4500 X96.727 Y53.169
G1 F1800 X108.83 Y65.272 E145.52091
G1 X108.9 Y65.342
G0 F4500 X108.83 Y65.838
G1 F1800 X96.161 Y53.169 E146.41478
G1 X96.091 Y53.099
G0 F4500 X95.596 Y53.17
G1 F1800 X108.83 Y66.403 E147.34847
G1 X108.9 Y66.473
G0 F4500 X108.83 Y66.969
G1 F1800 X101.169 Y59.308 E147.889
G1 X101.099 Y59.238
G0 F4500 X101.169 Y59.874
G1 F1800 X108.83 Y67.535 E148.42952
G1 X108.9 Y67.605
G0 F4500 X108.83 Y68.1
G1 F1800 X101.169 Y60.439 E148.97004
G1 X101.099 Y60.369
G0 F4500 X101.169 Y61.005
G1 F1800 X108.83 Y68.666 E149.51057
G1 X108.9 Y68.736
G0 F4500 X108.83 Y69.232
G1 F1800 X101.169 Y61.571 E150.05109
G1 X101.099 Y61.501
G0 F4500 X101.169 Y62.137
G1 F1800 X108.83 Y69.797 E150.59158
G1 X108.9 Y69.867
G0 F4500 X108.83 Y70.363
G1 F1800 X101.169 Y62.702 E151.13211
G1 X101.099 Y62.632
G0 F4500 X101.169 Y63.268
G1 F1800 X108.83 Y70.929 E151.67263
G1 X108.9 Y70.999
G0 F4500 X108.83 Y71.494
G1 F1800 X101.169 Y63.834 E152.21312
G1 X101.099 Y63.764
G0 F4500 X101.169 Y64.399
G1 F1800 X108.83 Y72.06 E152.75365
G1 X108.9 Y72.13
G0 F4500 X108.83 Y72.626
G1 F1800 X101.169 Y64.965 E153.29417
G1 X101.099 Y64.895
G0 F4500 X101.169 Y65.531
G1 F1800 X108.83 Y73.191 E153.83466
G1 X108.9 Y73.261
G0 F4500 X108.83 Y73.757
G1 F1800 X101.169 Y66.096 E154.37519
G1 X101.099 Y66.026
G0 F4500 X101.169 Y66.662
G1 F1800 X108.83 Y74.323 E154.91571
G1 X108.9 Y74.393
G0 F4500 X108.83 Y74.888
G1 F1800 X101.169 Y67.228 E155.4562
G1 X101.099 Y67.158
G0 F4500 X101.169 Y67.793
G1 F1800 X108.83 Y75.454 E155.99673
G1 X108.9 Y75.524
G0 F4500 X108.83 Y76.02
G1 F1800 X101.169 Y68.359 E156.53725
G1 X101.099 Y68.289
G0 F4500 X101.169 Y68.925
G1 F1800 X108.83 Y76.586 E157.07778
G1 X108.9 Y76.656
G0 F4500 X108.83 Y77.151
G1 F1800 X101.169 Y69.49 E157.6183
G1 X101.099 Y69.42
G0 F4500 X101.169 Y70.056
G1 F1800 X108.83 Y77.717 E158.15883
G1 X108.9 Y77.787
G0 F4500 X108.83 Y78.283
G1 F1800 X101.169 Y70.622 E158.69935
G1 X101.099 Y70.552
G0 F4500 X101.169 Y71.187
G1 F1800 X108.83 Y78.848 E159.23988
G1 X108.9 Y78.918
G0 F4500 X108.83 Y79.414
G1 F1800 X101.169 Y71.753 E159.7804
G1 X101.099 Y71.683
G0 F4500 X101.169 Y72.319
G1 F1800 X108.83 Y79.98 E160.32093
G1 X108.9 Y80.05
G0 F4500 X108.83 Y80.545
G1 F1800 X101.169 Y72.885 E160.86142
G1 X101.099 Y72.815
G0 F4500 X101.169 Y73.45
G1 F1800 X108.83 Y81.111 E161.40194
G1 X108.9 Y81.181
G0 F4500 X108.83 Y81.677
G1 F1800 X101.169 Y74.016 E161.94247
G1 X101.099 Y73.946
G0 F4500 X101.169 Y74.582
G1 F1800 X108.83 Y82.242 E162.48296
G1 X108.9 Y82.312
G0 F4500 X108.83 Y82.808
G1 F1800 X101.169 Y75.147 E163.02348
G1 X101.099 Y75.077
G0 F4500 X101.169 Y75.713
G1 F1800 X108.83 Y83.374 E163.56401
G1 X108.9 Y83.444
G0 F4500 X108.83 Y83.939
G1 F1800 X101.169 Y76.279 E164.1045
G1 X101.099 Y76.209
G0 F4500 X101.169 Y76.844
G1 F1800 X108.83 Y84.505 E164.64502
G1 X108.9 Y84.575
G0 F4500 X108.83 Y85.071
G1 F1800 X101.169 Y77.41 E165.18555
G1 X101.099 Y77.34
G0 F4500 X101.169 Y77.976
G1 F1800 X108.83 Y85.636 E165.72604
G1 X108.9 Y85.706
G0 F4500 X108.83 Y86.202
G1 F1800 X101.169 Y78.541 E166.26656
G1 X101.099 Y78.471
G0 F4500 X101.169 Y79.107
G1 F1800 X108.83 Y86.768 E166.80709
G1 X108.9 Y86.838
G0 F4500 X108.83 Y87.334
G1 F1800 X101.169 Y79.673 E167.34761
G1 X101.099 Y79.603
G0 F4500 X101.169 Y80.238
G1 F1800 X108.83 Y87.899 E167.88814
G1 X108.9 Y87.969
G0 F4500 X108.83 Y88.465
G1 F1800 X101.169 Y80.804 E168.42866
G1 X101.099 Y80.734
G0 F4500 X101.169 Y81.37
G1 F1800 X108.83 Y89.031 E168.96919
G1 X108.9 Y89.101
G0 F4500 X108.83 Y89.596
G1 F1800 X101.169 Y81.935 E169.50971
G1 X101.099 Y81.865
G0 F4500 X101.169 Y82.501
G1 F1800 X108.83 Y90.162 E170.05023
G1 X108.9 Y90.232
G0 F4500 X108.83 Y90.728
G1 F1800 X101.169 Y83.067 E170.59076
G1 X101.099 Y82.997
G0 F4500 X101.169 Y83.633
G1 F1800 X108.83 Y91.293 E171.13125
G1 X108.9 Y91.363
G0 F4500 X108.83 Y91.859
G1 F1800 X101.169 Y84.198 E171.67177
G1 X101.099 Y84.128
G0 F4500 X101.169 Y84.764
