;FLAVOR:Marlin
;TIME:161
;Filament used: 0.125929m
;Layer height: 0.2
;Generated with Cura_SteamEngine 3.2.1
M190 S50
M104 S210
M109 S210
M82 ;absolute extrusion mode
G28 ;Home
G1 Z15.0 F6000 ;Move the platform down 15mm
;Prime the extruder
G92 E0
G1 F200 E3
G92 E0
;LAYER_COUNT:3
;LAYER:0
M107
G0 F3600 X91.561 Y93.879 Z0.3
;TYPE:SKIRT
G1 F1200 X91.981 Y93.501 E0.02852
G1 X92.45 Y93.186 E0.05703
G1 X92.959 Y92.94 E0.08556
G1 X93.378 Y92.799 E0.10787
G1 X93.912 Y92.652 E0.13582
G1 X94.467 Y92.541 E0.16438
G1 X94.976 Y92.509 E0.19012
G1 X115.125 Y92.517 E1.20694
G1 X115.688 Y92.557 E1.23543
G1 X116.272 Y92.685 E1.2656
G1 X116.679 Y92.807 E1.28704
G1 X117.207 Y93.008 E1.31555
G1 X117.702 Y93.28 E1.34405
G1 X118.307 Y93.76 E1.38303
G1 X118.672 Y94.112 E1.40862
G1 X119.05 Y94.532 E1.43713
G1 X119.365 Y95.001 E1.46564
G1 X119.611 Y95.51 E1.49417
G1 X119.831 Y96.277 E1.53444
G1 X119.986 Y97.131 E1.57824
G1 X120.05 Y97.85 E1.61467
G1 X120.033 Y112.578 E2.35792
G1 X119.992 Y113.141 E2.38641
G1 X119.866 Y113.715 E2.41607
G1 X119.745 Y114.121 E2.43745
G1 X119.546 Y114.65 E2.46597
G1 X119.274 Y115.146 E2.49452
G1 X118.791 Y115.756 E2.53378
G1 X118.439 Y116.121 E2.55937
G1 X118.019 Y116.499 E2.58789
G1 X117.55 Y116.814 E2.6164
G1 X117.041 Y117.06 E2.64493
G1 X116.622 Y117.201 E2.66724
G1 X116.088 Y117.348 E2.69519
G1 X115.533 Y117.459 E2.72375
G1 X115.026 Y117.491 E2.74939
G1 X94.96 Y117.49 E3.76203
G1 X94.396 Y117.45 E3.79056
G1 X93.942 Y117.358 E3.81394
G1 X93.452 Y117.229 E3.83951
G1 X92.916 Y117.047 E3.86808
G1 X92.412 Y116.791 E3.8966
G1 X91.949 Y116.467 E3.92512
G1 X91.693 Y116.24 E3.94239
G1 X91.328 Y115.888 E3.96798
G1 X90.95 Y115.468 E3.99649
G1 X90.635 Y114.999 E4.025
G1 X90.389 Y114.49 E4.05353
G1 X90.247 Y114.066 E4.0761
G1 X90.101 Y113.533 E4.10399
G1 X89.991 Y112.978 E4.13254
G1 X89.959 Y112.476 E4.15793
G1 X89.96 Y97.511 E4.91314
G1 X90 Y96.947 E4.94167
G1 X90.091 Y96.495 E4.96494
G1 X90.22 Y96.004 E4.99056
G1 X90.402 Y95.468 E5.01913
G1 X90.658 Y94.964 E5.04765
G1 X90.982 Y94.501 E5.07617
G1 X91.21 Y94.243 E5.09355
G1 X91.561 Y93.879 E5.11907
G0 F3600 X91.849 Y94.157
G1 F1200 X92.249 Y93.8 E5.14612
G1 X92.697 Y93.506 E5.17317
G1 X93.184 Y93.282 E5.20022
G1 X93.485 Y93.185 E5.21618
G1 X94.019 Y93.038 E5.24413
G1 X94.545 Y92.935 E5.27118
G1 X94.975 Y92.909 E5.29292
G1 X115.124 Y92.917 E6.30974
G1 X115.659 Y92.957 E6.33682
G1 X116.157 Y93.069 E6.36257
G1 X116.564 Y93.191 E6.38402
G1 X117.064 Y93.382 E6.41103
G1 X117.531 Y93.646 E6.4381
G1 X118.029 Y94.048 E6.4704
G1 X118.394 Y94.4 E6.49599
G1 X118.751 Y94.8 E6.52305
G1 X119.045 Y95.248 E6.55009
G1 X119.269 Y95.736 E6.57718
G1 X119.437 Y96.348 E6.60921
G1 X119.592 Y97.202 E6.65301
G1 X119.65 Y97.849 E6.6858
G1 X119.633 Y112.577 E7.42905
G1 X119.592 Y113.112 E7.45613
G1 X119.483 Y113.601 E7.48141
G1 X119.362 Y114.007 E7.50279
G1 X119.171 Y114.508 E7.52985
G1 X118.908 Y114.975 E7.5569
G1 X118.503 Y115.478 E7.58949
G1 X118.151 Y115.843 E7.61507
G1 X117.751 Y116.2 E7.64213
G1 X117.303 Y116.494 E7.66917
G1 X116.815 Y116.718 E7.69627
G1 X116.515 Y116.815 E7.71218
G1 X115.981 Y116.962 E7.74013
G1 X115.455 Y117.065 E7.76718
G1 X115.026 Y117.091 E7.78887
G1 X94.96 Y117.09 E8.80151
G1 X94.425 Y117.05 E8.82858
G1 X94.043 Y116.971 E8.84827
G1 X93.553 Y116.842 E8.87384
G1 X93.046 Y116.668 E8.90089
G1 X92.571 Y116.419 E8.92795
G1 X91.971 Y115.952 E8.96632
G1 X91.606 Y115.6 E8.99191
G1 X91.249 Y115.2 E9.01897
G1 X90.955 Y114.752 E9.04601
G1 X90.731 Y114.264 E9.07311
G1 X90.633 Y113.96 E9.08923
G1 X90.487 Y113.427 E9.11712
G1 X90.384 Y112.901 E9.14417
G1 X90.359 Y112.476 E9.16565
G1 X90.36 Y97.511 E9.92087
G1 X90.4 Y96.976 E9.94794
G1 X90.478 Y96.596 E9.96752
G1 X90.607 Y96.105 E9.99314
G1 X90.782 Y95.598 E10.0202
G1 X91.03 Y95.123 E10.04724
G1 X91.498 Y94.521 E10.08572
G1 X91.849 Y94.157 E10.11124
G0 F3600 X92.136 Y94.435
G1 F1200 X92.515 Y94.1 E10.13677
G1 X92.942 Y93.828 E10.16232
G1 X93.591 Y93.571 E10.19755
G1 X94.125 Y93.424 E10.2255
G1 X94.621 Y93.329 E10.25098
G1 X94.975 Y93.309 E10.26888
G1 X115.124 Y93.317 E11.2857
G1 X115.628 Y93.357 E11.31122
G1 X116.042 Y93.452 E11.33265
G1 X116.449 Y93.574 E11.35409
G1 X116.92 Y93.757 E11.37959
G1 X117.357 Y94.012 E11.40513
G1 X117.751 Y94.336 E11.43087
G1 X118.116 Y94.688 E11.45646
G1 X118.451 Y95.066 E11.48195
G1 X118.723 Y95.493 E11.5075
G1 X118.923 Y95.957 E11.533
G1 X119.044 Y96.42 E11.55715
G1 X119.199 Y97.274 E11.60095
G1 X119.25 Y97.849 E11.63008
G1 X119.233 Y112.577 E12.37333
G1 X119.192 Y113.081 E12.39885
G1 X119.1 Y113.487 E12.41986
G1 X118.979 Y113.893 E12.44124
G1 X118.796 Y114.365 E12.46679
G1 X118.542 Y114.802 E12.4923
G1 X118.215 Y115.2 E12.51829
G1 X117.863 Y115.565 E12.54388
G1 X117.485 Y115.9 E12.56937
G1 X117.058 Y116.172 E12.59492
G1 X116.409 Y116.429 E12.63014
G1 X115.875 Y116.576 E12.6581
G1 X115.379 Y116.671 E12.68358
G1 X115.026 Y116.691 E12.70142
G1 X94.96 Y116.69 E13.71406
G1 X94.456 Y116.65 E13.73958
G1 X94.145 Y116.585 E13.75561
G1 X93.655 Y116.456 E13.78118
G1 X93.178 Y116.289 E13.80668
G1 X92.733 Y116.049 E13.8322
G1 X92.249 Y115.664 E13.86341
G1 X91.884 Y115.312 E13.889
G1 X91.549 Y114.934 E13.91449
G1 X91.277 Y114.507 E13.94004
G1 X91.019 Y113.854 E13.97547
G1 X90.873 Y113.321 E14.00336
G1 X90.778 Y112.825 E14.02885
G1 X90.759 Y112.476 E14.04648
G1 X90.76 Y97.511 E14.8017
G1 X90.8 Y97.007 E14.82721
G1 X90.865 Y96.698 E14.84315
G1 X90.994 Y96.207 E14.86877
G1 X91.161 Y95.73 E14.89427
G1 X91.401 Y95.284 E14.91983
G1 X91.785 Y94.799 E14.95105
G1 X92.136 Y94.435 E14.97657
G1 F1500 E8.47657
G0 F3600 X94.486 Y95.901
G0 X94.991 Y97.119
G0 X115.128 Y97.215
G0 X115.153 Y97.119
;TYPE:WALL-INNER
G1 F1500 E14.97657
G1 F1200 X115.245 Y97.157 E14.98159
G1 X115.329 Y97.221 E14.98692
G1 X115.393 Y97.305 E14.99225
G1 X115.431 Y97.397 E14.99727
G1 X115.45 Y97.54 E15.00455
G1 X115.45 Y112.46 E15.75749
G1 X115.431 Y112.603 E15.76477
G1 X115.393 Y112.695 E15.7698
G1 X115.329 Y112.779 E15.77513
G1 X115.245 Y112.843 E15.78046
G1 X115.153 Y112.881 E15.78548
G1 X115.01 Y112.9 E15.79276
G1 X94.99 Y112.9 E16.80307
G1 X94.847 Y112.881 E16.81035
G1 X94.755 Y112.843 E16.81538
G1 X94.671 Y112.779 E16.82071
G1 X94.607 Y112.695 E16.82604
G1 X94.569 Y112.603 E16.83106
G1 X94.55 Y112.46 E16.83834
G1 X94.55 Y97.54 E17.59128
G1 X94.569 Y97.397 E17.59856
G1 X94.607 Y97.305 E17.60359
G1 X94.671 Y97.221 E17.60891
G1 X94.755 Y97.157 E17.61424
G1 X94.847 Y97.119 E17.61927
G1 X94.99 Y97.1 E17.62655
G1 X115.01 Y97.1 E18.63686
G1 X115.153 Y97.119 E18.64414
G0 F3600 X115.254 Y96.728
;TYPE:WALL-OUTER
G1 F1200 X115.449 Y96.809 E18.6548
G1 X115.614 Y96.936 E18.66531
G1 X115.741 Y97.101 E18.67581
G1 X115.822 Y97.296 E18.68647
G1 X115.85 Y97.511 E18.69741
G1 X115.85 Y112.489 E19.45328
G1 X115.822 Y112.704 E19.46422
G1 X115.741 Y112.899 E19.47488
G1 X115.614 Y113.064 E19.48539
G1 X115.449 Y113.191 E19.49589
G1 X115.254 Y113.272 E19.50655
G1 X115.039 Y113.3 E19.51749
G1 X94.961 Y113.3 E20.53073
G1 X94.746 Y113.272 E20.54168
G1 X94.551 Y113.191 E20.55233
G1 X94.386 Y113.064 E20.56284
G1 X94.259 Y112.899 E20.57335
G1 X94.178 Y112.704 E20.584
G1 X94.15 Y112.489 E20.59494
G1 X94.15 Y97.511 E21.35081
G1 X94.178 Y97.296 E21.36176
G1 X94.259 Y97.101 E21.37241
G1 X94.386 Y96.936 E21.38292
G1 X94.551 Y96.809 E21.39343
G1 X94.746 Y96.728 E21.40408
G1 X94.961 Y96.7 E21.41502
G1 X115.039 Y96.7 E22.42827
G1 X115.254 Y96.728 E22.43921
G0 F3600 X115.438 Y96.804
G0 X115.048 Y97.497
;TYPE:SKIN
G1 F1200 X115.06 Y97.559 E22.44239
G1 X115.06 Y112.441 E23.19342
G1 X115.048 Y112.503 E23.19661
G1 X114.991 Y112.51 E23.1995
G1 X95.009 Y112.51 E24.2079
G1 X94.947 Y112.498 E24.21109
G1 X94.94 Y112.441 E24.21399
G1 X94.94 Y97.559 E24.96501
G1 X94.952 Y97.497 E24.9682
G1 X95.009 Y97.49 E24.9711
G1 X114.991 Y97.49 E25.97949
G1 X115.048 Y97.497 E25.98239
G0 F3600 X114.879 Y97.908
G1 F1200 X114.64 Y97.669 E25.99945
G0 F3600 X114.074 Y97.669
G1 F1200 X114.879 Y98.474 E26.0569
G1 X114.949 Y98.544
G0 F3600 X114.879 Y99.04
G1 F1200 X113.509 Y97.669 E26.15471
G1 X113.439 Y97.599
G0 F3600 X112.943 Y97.669
G1 F1200 X114.879 Y99.605 E26.29288
G1 X114.949 Y99.675
G0 F3600 X114.879 Y100.171
G1 F1200 X112.377 Y97.669 E26.47145
G1 X112.307 Y97.599
G0 F3600 X111.811 Y97.669
G1 F1200 X114.879 Y100.737 E26.69041
G1 X114.949 Y100.807
G0 F3600 X114.879 Y101.302
G1 F1200 X111.246 Y97.669 E26.94969
G1 X111.176 Y97.599
G0 F3600 X110.68 Y97.669
G1 F1200 X114.879 Y101.868 E27.24937
G1 X114.949 Y101.938
G0 F3600 X114.879 Y102.434
G1 F1200 X110.114 Y97.669 E27.58944
G1 X110.044 Y97.599
G0 F3600 X109.549 Y97.669
G1 F1200 X114.879 Y103 E27.96987
G1 X114.949 Y103.07
G0 F3600 X114.879 Y103.565
G1 F1200 X108.983 Y97.669 E28.39066
G1 X108.913 Y97.599
G0 F3600 X108.417 Y97.669
G1 F1200 X114.879 Y104.131 E28.85184
G1 X114.949 Y104.201
G0 F3600 X114.879 Y104.697
G1 F1200 X107.852 Y97.669 E29.35339
G1 X107.782 Y97.599
G0 F3600 X107.286 Y97.669
G1 F1200 X114.879 Y105.262 E29.89529
G1 X114.949 Y105.332
G0 F3600 X114.879 Y105.828
G1 F1200 X106.72 Y97.669 E30.47759
G1 X106.65 Y97.599
G0 F3600 X106.155 Y97.669
G1 F1200 X114.879 Y106.394 E31.10024
G1 X114.949 Y106.464
G0 F3600 X114.879 Y106.959
G1 F1200 X105.589 Y97.669 E31.76326
G1 X105.519 Y97.599
G0 F3600 X105.023 Y97.669
G1 F1200 X114.879 Y107.525 E32.46667
G1 X114.949 Y107.595
G0 F3600 X114.879 Y108.091
G1 F1200 X104.458 Y97.669 E33.21044
G1 X104.388 Y97.599
G0 F3600 X103.892 Y97.669
G1 F1200 X114.879 Y108.656 E33.99457
G1 X114.949 Y108.726
G0 F3600 X114.879 Y109.222
G1 F1200 X103.326 Y97.669 E34.81909
G1 X103.256 Y97.599
G0 F3600 X102.761 Y97.669
G1 F1200 X114.879 Y109.788 E35.68397
G1 X114.949 Y109.858
G0 F3600 X114.879 Y110.353
G1 F1200 X102.195 Y97.669 E36.58921
G1 X102.125 Y97.599
G0 F3600 X101.629 Y97.669
G1 F1200 X114.879 Y110.919 E37.53485
G1 X114.949 Y110.989
G0 F3600 X114.879 Y111.485
G1 F1200 X101.063 Y97.669 E38.52088
G1 X100.993 Y97.599
G0 F3600 X100.498 Y97.669
G1 F1200 X114.879 Y112.05 E39.54723
G1 X114.949 Y112.12
G0 F3600 X114.592 Y112.329
G1 F1200 X99.932 Y97.669 E40.5935
G1 X99.862 Y97.599
G0 F3600 X99.366 Y97.669
G1 F1200 X114.026 Y112.329 E41.63976
G1 X114.096 Y112.399
G0 F3600 X113.46 Y112.329
G1 F1200 X98.801 Y97.669 E42.68599
G1 X98.731 Y97.599
G0 F3600 X98.235 Y97.669
G1 F1200 X112.895 Y112.329 E43.73226
G1 X112.965 Y112.399
G0 F3600 X112.329 Y112.329
G1 F1200 X97.669 Y97.669 E44.77852
G1 X97.599 Y97.599
G0 F3600 X97.104 Y97.669
G1 F1200 X111.763 Y112.329 E45.82475
G1 X111.833 Y112.399
G0 F3600 X111.198 Y112.329
G1 F1200 X96.538 Y97.669 E46.87102
G1 X96.468 Y97.599
G0 F3600 X95.972 Y97.669
G1 F1200 X110.632 Y112.329 E47.91728
G1 X110.702 Y112.399
G0 F3600 X110.066 Y112.329
G1 F1200 X95.407 Y97.669 E48.96351
G1 X95.337 Y97.599
G0 F3600 X95.12 Y97.948
G1 F1200 X109.501 Y112.329 E49.98986
G1 X109.571 Y112.399
G0 F3600 X108.935 Y112.329
G1 F1200 X95.12 Y98.514 E50.97582
G1 X95.05 Y98.444
G0 F3600 X95.12 Y99.079
G1 F1200 X108.369 Y112.329 E51.92142
G1 X108.439 Y112.399
G0 F3600 X107.804 Y112.329
G1 F1200 X95.12 Y99.645 E52.82666
G1 X95.05 Y99.575
G0 F3600 X95.12 Y100.211
G1 F1200 X107.238 Y112.329 E53.69151
G1 X107.308 Y112.399
G0 F3600 X106.672 Y112.329
G1 F1200 X95.12 Y100.776 E54.516
G1 X95.05 Y100.706
G0 F3600 X95.12 Y101.342
G1 F1200 X106.107 Y112.329 E55.30012
G1 X106.177 Y112.399
G0 F3600 X105.541 Y112.329
G1 F1200 X95.12 Y101.908 E56.04386
G1 X95.05 Y101.838
G0 F3600 X95.12 Y102.473
G1 F1200 X104.975 Y112.329 E56.74723
G1 X105.045 Y112.399
G0 F3600 X104.409 Y112.329
G1 F1200 X95.12 Y103.039 E57.41021
G1 X95.05 Y102.969
G0 F3600 X95.12 Y103.605
G1 F1200 X103.844 Y112.329 E58.03283
G1 X103.914 Y112.399
G0 F3600 X103.278 Y112.329
G1 F1200 X95.12 Y104.17 E58.61509
G1 X95.05 Y104.1
G0 F3600 X95.12 Y104.736
G1 F1200 X102.712 Y112.329 E59.15696
G1 X102.782 Y112.399
G0 F3600 X102.147 Y112.329
G1 F1200 X95.12 Y105.302 E59.65847
G1 X95.05 Y105.232
G0 F3600 X95.12 Y105.868
G1 F1200 X101.581 Y112.329 E60.11958
G1 X101.651 Y112.399
G0 F3600 X101.015 Y112.329
G1 F1200 X95.12 Y106.433 E60.54034
G1 X95.05 Y106.363
G0 F3600 X95.12 Y106.999
G1 F1200 X100.45 Y112.329 E60.92073
G1 X100.52 Y112.399
G0 F3600 X99.884 Y112.329
G1 F1200 X95.12 Y107.565 E61.26073
G1 X95.05 Y107.495
G0 F3600 X95.12 Y108.13
G1 F1200 X99.318 Y112.329 E61.56037
G1 X99.388 Y112.399
G0 F3600 X98.753 Y112.329
G1 F1200 X95.12 Y108.696 E61.81966
G1 X95.05 Y108.626
G0 F3600 X95.12 Y109.262
G1 F1200 X98.187 Y112.329 E62.03854
G1 X98.257 Y112.399
G0 F3600 X97.621 Y112.329
G1 F1200 X95.12 Y109.827 E62.21707
G1 X95.05 Y109.757
G0 F3600 X95.12 Y110.393
G1 F1200 X97.056 Y112.329 E62.35524
G1 X97.126 Y112.399
G0 F3600 X96.49 Y112.329
G1 F1200 X95.12 Y110.959 E62.45302
G1 X95.05 Y110.889
G0 F3600 X95.12 Y111.524
G1 F1200 X95.924 Y112.329 E62.51043
G1 X95.994 Y112.399
G0 F3600 X95.359 Y112.329
G1 F1200 X95.12 Y112.09 E62.52749
G0 F3600 X115.128 Y97.215
G0 X115.153 Y97.119
;TIME_ELAPSED:66.923311
;LAYER:1
M140 S50
M106 S255
G0 F5400 X115.153 Y97.119 Z0.5
;TYPE:WALL-INNER
G1 F1800 X115.245 Y97.157 E62.53084
G1 X115.329 Y97.221 E62.53439
G1 X115.393 Y97.305 E62.53795
G1 X115.431 Y97.397 E62.54129
G1 X115.45 Y97.54 E62.54615
G1 X115.45 Y112.46 E63.04811
G1 X115.431 Y112.603 E63.05296
G1 X115.393 Y112.695 E63.05631
G1 X115.329 Y112.779 E63.05986
G1 X115.245 Y112.843 E63.06342
G1 X115.153 Y112.881 E63.06677
G1 X115.01 Y112.9 E63.07162
G1 X94.99 Y112.9 E63.74516
G1 X94.847 Y112.881 E63.75002
G1 X94.755 Y112.843 E63.75337
G1 X94.671 Y112.779 E63.75692
G1 X94.607 Y112.695 E63.76047
G1 X94.569 Y112.603 E63.76382
G1 X94.55 Y112.46 E63.76867
G1 X94.55 Y97.54 E64.27063
G1 X94.569 Y97.397 E64.27549
G1 X94.607 Y97.305 E64.27884
G1 X94.671 Y97.221 E64.28239
G1 X94.755 Y97.157 E64.28594
G1 X94.847 Y97.119 E64.28929
G1 X94.99 Y97.1 E64.29414
G1 X115.01 Y97.1 E64.96769
G1 X115.153 Y97.119 E64.97254
G0 F5400 X115.254 Y96.728
;TYPE:WALL-OUTER
G1 F1200 X115.449 Y96.809 E64.97965
G1 X115.614 Y96.936 E64.98665
G1 X115.741 Y97.101 E64.99366
G1 X115.822 Y97.296 E65.00076
G1 X115.85 Y97.511 E65.00805
G1 X115.85 Y112.489 E65.51197
G1 X115.822 Y112.704 E65.51926
G1 X115.741 Y112.899 E65.52637
G1 X115.614 Y113.064 E65.53337
G1 X115.449 Y113.191 E65.54038
G1 X115.254 Y113.272 E65.54748
G1 X115.039 Y113.3 E65.55477
G1 X94.961 Y113.3 E66.23027
G1 X94.746 Y113.272 E66.23756
G1 X94.551 Y113.191 E66.24467
G1 X94.386 Y113.064 E66.25167
G1 X94.259 Y112.899 E66.25868
G1 X94.178 Y112.704 E66.26578
G1 X94.15 Y112.489 E66.27308
G1 X94.15 Y97.511 E66.77699
G1 X94.178 Y97.296 E66.78428
G1 X94.259 Y97.101 E66.79139
G1 X94.386 Y96.936 E66.79839
G1 X94.551 Y96.809 E66.8054
G1 X94.746 Y96.728 E66.8125
G1 X94.961 Y96.7 E66.8198
G1 X115.039 Y96.7 E67.49529
G1 X115.254 Y96.728 E67.50259
G0 F5400 X115.438 Y96.804
G0 X115.048 Y97.497
;TYPE:SKIN
G1 F1200 X115.06 Y97.559 E67.50471
G1 X115.06 Y112.441 E68.00539
G1 X115.048 Y112.503 E68.00752
G1 X114.991 Y112.51 E68.00945
G1 X95.009 Y112.51 E68.68172
G1 X94.947 Y112.498 E68.68384
G1 X94.94 Y112.441 E68.68577
G1 X94.94 Y97.559 E69.18645
G1 X94.952 Y97.497 E69.18858
G1 X95.009 Y97.49 E69.19051
G1 X114.991 Y97.49 E69.86278
G1 X115.048 Y97.497 E69.86471
G0 F5400 X114.51 Y112.329
G1 F1200 X114.879 Y111.96 E69.88227
G0 F5400 X114.879 Y111.394
G1 F1200 X113.944 Y112.329 E69.92675
G1 X113.874 Y112.399
G0 F5400 X113.378 Y112.329
G1 F1200 X114.879 Y110.829 E69.99814
G1 X114.949 Y110.759
G0 F5400 X114.879 Y110.263
G1 F1200 X112.813 Y112.329 E70.09644
G1 X112.743 Y112.399
G0 F5400 X112.247 Y112.329
G1 F1200 X114.879 Y109.697 E70.22167
G1 X114.949 Y109.627
G0 F5400 X114.879 Y109.132
G1 F1200 X111.681 Y112.329 E70.37381
G1 X111.611 Y112.399
G0 F5400 X111.116 Y112.329
G1 F1200 X114.879 Y108.566 E70.55285
G1 X114.949 Y108.496
G0 F5400 X114.879 Y108
G1 F1200 X110.55 Y112.329 E70.75882
G1 X110.48 Y112.399
G0 F5400 X109.984 Y112.329
G1 F1200 X114.879 Y107.434 E70.99172
G1 X114.949 Y107.364
G0 F5400 X114.879 Y106.869
G1 F1200 X109.419 Y112.329 E71.2515
G1 X109.349 Y112.399
G0 F5400 X108.853 Y112.329
G1 F1200 X114.879 Y106.303 E71.53821
G1 X114.949 Y106.233
G0 F5400 X114.879 Y105.737
G1 F1200 X108.287 Y112.329 E71.85185
G1 X108.217 Y112.399
G0 F5400 X107.722 Y112.329
G1 F1200 X114.879 Y105.172 E72.19238
