;FLAVOR:Marlin
;TIME:154
;Filament used: 0.119232m
;Layer height: 0.2
;Generated with Cura_SteamEngine 3.2.1
M190 S50
M104 S200
M109 S200
M82 ;absolute extrusion mode
G28 ;Home
G1 Z15.0 F6000 ;Move the platform down 15mm
;Prime the extruder
G92 E0
G1 F200 E3
G92 E0
;LAYER_COUNT:3
;LAYER:0
M107
G0 F4500 X92.061 Y93.879 Z0.3
;TYPE:SKIRT
G1 F1200 X92.481 Y93.501 E0.02819
G1 X92.95 Y93.186 E0.05638
G1 X93.459 Y92.94 E0.08458
G1 X93.878 Y92.799 E0.10664
G1 X94.412 Y92.652 E0.13427
G1 X94.967 Y92.541 E0.16251
G1 X95.476 Y92.509 E0.18795
G1 X114.625 Y92.517 E1.1433
G1 X115.189 Y92.557 E1.17151
G1 X115.772 Y92.685 E1.20129
G1 X116.179 Y92.807 E1.22248
G1 X116.707 Y93.008 E1.25067
G1 X117.202 Y93.28 E1.27885
G1 X117.807 Y93.76 E1.31738
G1 X118.172 Y94.112 E1.34268
G1 X118.55 Y94.532 E1.37087
G1 X118.865 Y95.001 E1.39905
G1 X119.111 Y95.51 E1.42726
G1 X119.331 Y96.277 E1.46707
G1 X119.486 Y97.131 E1.51037
G1 X119.55 Y97.85 E1.54638
G1 X119.533 Y112.578 E2.28117
G1 X119.492 Y113.141 E2.30933
G1 X119.366 Y113.715 E2.33865
G1 X119.245 Y114.121 E2.35978
G1 X119.046 Y114.65 E2.38798
G1 X118.774 Y115.146 E2.4162
G1 X118.291 Y115.756 E2.45502
G1 X117.939 Y116.121 E2.48032
G1 X117.519 Y116.499 E2.50851
G1 X117.05 Y116.814 E2.5367
G1 X116.541 Y117.06 E2.5649
G1 X116.122 Y117.201 E2.58696
G1 X115.588 Y117.348 E2.61459
G1 X115.033 Y117.459 E2.64283
G1 X114.526 Y117.491 E2.66817
G1 X95.46 Y117.49 E3.61938
G1 X94.896 Y117.45 E3.64759
G1 X94.442 Y117.358 E3.6707
G1 X93.952 Y117.229 E3.69597
G1 X93.416 Y117.047 E3.72422
G1 X92.912 Y116.791 E3.75242
G1 X92.449 Y116.467 E3.78061
G1 X92.193 Y116.24 E3.79768
G1 X91.828 Y115.888 E3.82298
G1 X91.45 Y115.468 E3.85117
G1 X91.135 Y114.999 E3.87936
G1 X90.889 Y114.49 E3.90756
G1 X90.747 Y114.066 E3.92987
G1 X90.601 Y113.533 E3.95744
G1 X90.491 Y112.978 E3.98567
G1 X90.459 Y112.476 E4.01076
G1 X90.46 Y97.511 E4.75737
G1 X90.5 Y96.947 E4.78558
G1 X90.591 Y96.495 E4.80858
G1 X90.72 Y96.004 E4.83391
G1 X90.902 Y95.468 E4.86215
G1 X91.158 Y94.964 E4.89035
G1 X91.482 Y94.501 E4.91855
G1 X91.71 Y94.243 E4.93572
G1 X92.061 Y93.879 E4.96095
G0 F4500 X92.349 Y94.157
G1 F1200 X92.749 Y93.8 E4.9877
G1 X93.197 Y93.506 E5.01443
G1 X93.684 Y93.282 E5.04118
G1 X93.985 Y93.185 E5.05695
G1 X94.519 Y93.038 E5.08459
G1 X95.045 Y92.935 E5.11133
G1 X95.476 Y92.909 E5.13287
G1 X114.625 Y92.917 E6.08822
G1 X115.159 Y92.957 E6.11493
G1 X115.657 Y93.069 E6.1404
G1 X116.064 Y93.191 E6.1616
G1 X116.564 Y93.382 E6.1883
G1 X117.031 Y93.646 E6.21506
G1 X117.529 Y94.048 E6.24699
G1 X117.894 Y94.4 E6.27229
G1 X118.251 Y94.8 E6.29904
G1 X118.545 Y95.248 E6.32577
G1 X118.769 Y95.736 E6.35256
G1 X118.937 Y96.348 E6.38422
G1 X119.092 Y97.202 E6.42753
G1 X119.15 Y97.849 E6.45994
G1 X119.133 Y112.577 E7.19472
G1 X119.092 Y113.112 E7.22149
G1 X118.983 Y113.601 E7.24648
G1 X118.862 Y114.007 E7.26762
G1 X118.671 Y114.508 E7.29437
G1 X118.408 Y114.975 E7.32111
G1 X118.003 Y115.478 E7.35333
G1 X117.651 Y115.843 E7.37862
G1 X117.251 Y116.2 E7.40537
G1 X116.803 Y116.494 E7.43211
G1 X116.315 Y116.718 E7.4589
G1 X116.015 Y116.815 E7.47463
G1 X115.481 Y116.962 E7.50226
G1 X114.955 Y117.065 E7.529
G1 X114.526 Y117.091 E7.55044
G1 X95.46 Y117.09 E8.50165
G1 X94.925 Y117.05 E8.52841
G1 X94.543 Y116.971 E8.54787
G1 X94.053 Y116.842 E8.57315
G1 X93.546 Y116.668 E8.5999
G1 X93.071 Y116.419 E8.62665
G1 X92.471 Y115.952 E8.66459
G1 X92.106 Y115.6 E8.68988
G1 X91.749 Y115.2 E8.71663
G1 X91.455 Y114.752 E8.74337
G1 X91.231 Y114.264 E8.77015
G1 X91.133 Y113.96 E8.78609
G1 X90.987 Y113.427 E8.81366
G1 X90.884 Y112.901 E8.8404
G1 X90.859 Y112.476 E8.86164
G1 X90.86 Y97.511 E9.60825
G1 X90.9 Y96.976 E9.63501
G1 X90.978 Y96.596 E9.65437
G1 X91.107 Y96.105 E9.67969
G1 X91.282 Y95.598 E9.70645
G1 X91.53 Y95.123 E9.73319
G1 X91.998 Y94.521 E9.77123
G1 X92.349 Y94.157 E9.79646
G0 F4500 X92.636 Y94.435
G1 F1200 X93.015 Y94.1 E9.82169
G1 X93.442 Y93.828 E9.84695
G1 X94.091 Y93.571 E9.88178
G1 X94.625 Y93.424 E9.90941
G1 X95.121 Y93.329 E9.9346
G1 X95.475 Y93.309 E9.95229
G1 X114.624 Y93.317 E10.90764
G1 X115.128 Y93.357 E10.93286
G1 X115.542 Y93.452 E10.95406
G1 X115.949 Y93.574 E10.97525
G1 X116.42 Y93.757 E11.00046
G1 X116.857 Y94.012 E11.02571
G1 X117.251 Y94.336 E11.05115
G1 X117.616 Y94.688 E11.07645
G1 X117.951 Y95.066 E11.10165
G1 X118.223 Y95.493 E11.12691
G1 X118.423 Y95.957 E11.15212
G1 X118.544 Y96.42 E11.17599
G1 X118.699 Y97.274 E11.2193
G1 X118.75 Y97.849 E11.24809
G1 X118.733 Y112.577 E11.98288
G1 X118.692 Y113.081 E12.00811
G1 X118.6 Y113.487 E12.02887
G1 X118.479 Y113.893 E12.05001
G1 X118.296 Y114.365 E12.07527
G1 X118.042 Y114.802 E12.10048
G1 X117.715 Y115.2 E12.12618
G1 X117.363 Y115.565 E12.15148
G1 X116.985 Y115.9 E12.17668
G1 X116.558 Y116.172 E12.20194
G1 X115.909 Y116.429 E12.23676
G1 X115.375 Y116.576 E12.2644
G1 X114.879 Y116.671 E12.28959
G1 X114.526 Y116.691 E12.30723
G1 X95.46 Y116.69 E13.25844
G1 X94.956 Y116.65 E13.28366
G1 X94.645 Y116.585 E13.29951
G1 X94.155 Y116.456 E13.32479
G1 X93.678 Y116.289 E13.35
G1 X93.233 Y116.049 E13.37523
G1 X92.749 Y115.664 E13.40608
G1 X92.384 Y115.312 E13.43138
G1 X92.049 Y114.934 E13.45658
G1 X91.777 Y114.507 E13.48184
G1 X91.519 Y113.854 E13.51687
G1 X91.373 Y113.321 E13.54444
G1 X91.278 Y112.825 E13.56963
G1 X91.259 Y112.476 E13.58707
G1 X91.26 Y97.511 E14.33368
G1 X91.3 Y97.007 E14.3589
G1 X91.365 Y96.698 E14.37466
G1 X91.494 Y96.207 E14.39998
G1 X91.661 Y95.73 E14.4252
G1 X91.901 Y95.284 E14.45046
G1 X92.285 Y94.799 E14.48133
G1 X92.636 Y94.435 E14.50656
G1 F1800 E8.00656
G0 F4500 X94.986 Y95.901
G0 X95.491 Y97.119
G0 X114.628 Y97.215
G0 X114.653 Y97.119
;TYPE:WALL-INNER
G1 F1800 E14.50656
G1 F1200 X114.745 Y97.157 E14.51152
G1 X114.829 Y97.221 E14.51679
G1 X114.893 Y97.305 E14.52206
G1 X114.931 Y97.397 E14.52702
G1 X114.95 Y97.54 E14.53422
G1 X114.95 Y112.46 E15.27858
G1 X114.931 Y112.603 E15.28578
G1 X114.893 Y112.695 E15.29075
G1 X114.829 Y112.779 E15.29601
G1 X114.745 Y112.843 E15.30128
G1 X114.653 Y112.881 E15.30625
G1 X114.51 Y112.9 E15.31345
G1 X95.49 Y112.9 E16.26236
G1 X95.347 Y112.881 E16.26955
G1 X95.255 Y112.843 E16.27452
G1 X95.171 Y112.779 E16.27979
G1 X95.107 Y112.695 E16.28506
G1 X95.069 Y112.603 E16.29002
G1 X95.05 Y112.46 E16.29722
G1 X95.05 Y97.54 E17.04158
G1 X95.069 Y97.397 E17.04878
G1 X95.107 Y97.305 E17.05375
G1 X95.171 Y97.221 E17.05901
G1 X95.255 Y97.157 E17.06428
G1 X95.347 Y97.119 E17.06925
G1 X95.49 Y97.1 E17.07645
G1 X114.51 Y97.1 E18.02536
G1 X114.653 Y97.119 E18.03255
G0 F4500 X114.754 Y96.728
;TYPE:WALL-OUTER
G1 F1200 X114.949 Y96.809 E18.04309
G1 X115.114 Y96.936 E18.05348
G1 X115.241 Y97.101 E18.06387
G1 X115.322 Y97.296 E18.0744
G1 X115.35 Y97.511 E18.08522
G1 X115.35 Y112.489 E18.83247
G1 X115.322 Y112.704 E18.84329
G1 X115.241 Y112.899 E18.85382
G1 X115.114 Y113.064 E18.86421
G1 X114.949 Y113.191 E18.8746
G1 X114.754 Y113.272 E18.88513
G1 X114.539 Y113.3 E18.89595
G1 X95.461 Y113.3 E19.84776
G1 X95.246 Y113.272 E19.85857
G1 X95.051 Y113.191 E19.86911
G1 X94.886 Y113.064 E19.8795
G1 X94.759 Y112.899 E19.88988
G1 X94.678 Y112.704 E19.90042
G1 X94.65 Y112.489 E19.91124
G1 X94.65 Y97.511 E20.65849
G1 X94.678 Y97.296 E20.66931
G1 X94.759 Y97.101 E20.67984
G1 X94.886 Y96.936 E20.69023
G1 X95.051 Y96.809 E20.70062
G1 X95.246 Y96.728 E20.71115
G1 X95.461 Y96.7 E20.72197
G1 X114.539 Y96.7 E21.67377
G1 X114.754 Y96.728 E21.68459
G0 F4500 X114.938 Y96.804
G0 X114.548 Y97.497
;TYPE:SKIN
G1 F1200 X114.56 Y97.559 E21.68774
G1 X114.56 Y112.441 E22.43021
G1 X114.548 Y112.503 E22.43336
G1 X114.491 Y112.51 E22.43622
G1 X95.509 Y112.51 E23.38324
G1 X95.447 Y112.498 E23.38639
G1 X95.44 Y112.441 E23.38926
G1 X95.44 Y97.559 E24.13172
G1 X95.452 Y97.497 E24.13487
G1 X95.509 Y97.49 E24.13774
G1 X114.491 Y97.49 E25.08475
G1 X114.548 Y97.497 E25.08762
G0 F4500 X114.379 Y97.974
G1 F1200 X114.074 Y97.669 E25.10914
G0 F4500 X113.509 Y97.669
G1 F1200 X114.379 Y98.54 E25.17056
G1 X114.449 Y98.61
G0 F4500 X114.379 Y99.105
G1 F1200 X112.943 Y97.669 E25.27187
G1 X112.873 Y97.599
G0 F4500 X112.377 Y97.669
G1 F1200 X114.379 Y99.671 E25.41313
G1 X114.449 Y99.741
G0 F4500 X114.379 Y100.237
G1 F1200 X111.811 Y97.669 E25.59431
G1 X111.741 Y97.599
G0 F4500 X111.246 Y97.669
G1 F1200 X114.379 Y100.803 E25.8154
G1 X114.449 Y100.873
G0 F4500 X114.379 Y101.368
G1 F1200 X110.68 Y97.669 E26.07638
G1 X110.61 Y97.599
G0 F4500 X110.114 Y97.669
G1 F1200 X114.379 Y101.934 E26.3773
G1 X114.449 Y102.004
G0 F4500 X114.379 Y102.5
G1 F1200 X109.549 Y97.669 E26.71812
G1 X109.479 Y97.599
G0 F4500 X108.983 Y97.669
G1 F1200 X114.379 Y103.065 E27.09884
G1 X114.449 Y103.135
G0 F4500 X114.379 Y103.631
G1 F1200 X108.417 Y97.669 E27.51949
G1 X108.347 Y97.599
G0 F4500 X107.852 Y97.669
G1 F1200 X114.379 Y104.197 E27.98004
G1 X114.449 Y104.267
G0 F4500 X114.379 Y104.762
G1 F1200 X107.286 Y97.669 E28.48049
G1 X107.216 Y97.599
G0 F4500 X106.72 Y97.669
G1 F1200 X114.379 Y105.328 E29.02087
G1 X114.449 Y105.398
G0 F4500 X114.379 Y105.894
G1 F1200 X106.155 Y97.669 E29.60115
G1 X106.085 Y97.599
G0 F4500 X105.589 Y97.669
G1 F1200 X114.379 Y106.459 E30.22133
G1 X114.449 Y106.529
G0 F4500 X114.379 Y107.025
G1 F1200 X105.023 Y97.669 E30.88145
G1 X104.953 Y97.599
G0 F4500 X104.458 Y97.669
G1 F1200 X114.379 Y107.591 E31.58147
G1 X114.449 Y107.661
G0 F4500 X114.379 Y108.156
G1 F1200 X103.892 Y97.669 E32.32138
G1 X103.822 Y97.599
G0 F4500 X103.326 Y97.669
G1 F1200 X114.379 Y108.722 E33.10123
G1 X114.449 Y108.792
G0 F4500 X114.379 Y109.288
G1 F1200 X102.761 Y97.669 E33.92098
G1 X102.691 Y97.599
G0 F4500 X102.195 Y97.669
G1 F1200 X114.379 Y109.853 E34.78062
G1 X114.449 Y109.923
G0 F4500 X114.379 Y110.419
G1 F1200 X101.629 Y97.669 E35.68021
G1 X101.559 Y97.599
G0 F4500 X101.063 Y97.669
G1 F1200 X114.379 Y110.985 E36.61972
G1 X114.449 Y111.055
G0 F4500 X114.379 Y111.551
G1 F1200 X100.498 Y97.669 E37.59914
G1 X100.428 Y97.599
G0 F4500 X99.932 Y97.669
G1 F1200 X114.379 Y112.116 E38.61845
G1 X114.449 Y112.186
G0 F4500 X114.026 Y112.329
G1 F1200 X99.366 Y97.669 E39.65279
G1 X99.296 Y97.599
G0 F4500 X98.801 Y97.669
G1 F1200 X113.46 Y112.329 E40.6871
G1 X113.53 Y112.399
G0 F4500 X112.895 Y112.329
G1 F1200 X98.235 Y97.669 E41.72144
G1 X98.165 Y97.599
G0 F4500 X97.669 Y97.669
G1 F1200 X112.329 Y112.329 E42.75578
G1 X112.399 Y112.399
G0 F4500 X111.763 Y112.329
G1 F1200 X97.104 Y97.669 E43.79009
G1 X97.034 Y97.599
G0 F4500 X96.538 Y97.669
G1 F1200 X111.198 Y112.329 E44.82443
G1 X111.268 Y112.399
G0 F4500 X110.632 Y112.329
G1 F1200 X95.972 Y97.669 E45.85878
G1 X95.902 Y97.599
G0 F4500 X95.619 Y97.882
G1 F1200 X110.066 Y112.329 E46.87809
G1 X110.136 Y112.399
G0 F4500 X109.501 Y112.329
G1 F1200 X95.619 Y98.448 E47.8575
G1 X95.549 Y98.378
G0 F4500 X95.619 Y99.014
G1 F1200 X108.935 Y112.329 E48.79698
G1 X109.005 Y112.399
G0 F4500 X108.369 Y112.329
G1 F1200 X95.619 Y99.579 E49.69657
G1 X95.549 Y99.509
G0 F4500 X95.619 Y100.145
G1 F1200 X107.804 Y112.329 E50.55625
G1 X107.874 Y112.399
G0 F4500 X107.238 Y112.329
G1 F1200 X95.619 Y100.711 E51.376
G1 X95.549 Y100.641
G0 F4500 X95.619 Y101.276
G1 F1200 X106.672 Y112.329 E52.15584
G1 X106.742 Y112.399
G0 F4500 X106.107 Y112.329
G1 F1200 X95.619 Y101.842 E52.89579
G1 X95.549 Y101.772
G0 F4500 X95.619 Y102.408
G1 F1200 X105.541 Y112.329 E53.59581
G1 X105.611 Y112.399
G0 F4500 X104.974 Y112.328
G1 F1200 X95.619 Y102.973 E54.25586
G1 X95.549 Y102.903
G0 F4500 X95.619 Y103.539
G1 F1200 X104.409 Y112.328 E54.876
G1 X104.479 Y112.398
G0 F4500 X103.843 Y112.328
G1 F1200 X95.619 Y104.105 E55.45621
G1 X95.549 Y104.035
G0 F4500 X95.619 Y104.67
G1 F1200 X103.277 Y112.328 E55.99653
G1 X103.347 Y112.398
G0 F4500 X102.712 Y112.328
G1 F1200 X95.619 Y105.236 E56.49694
G1 X95.549 Y105.166
G0 F4500 X95.619 Y105.802
G1 F1200 X102.146 Y112.328 E56.95742
G1 X102.216 Y112.398
G0 F4500 X101.58 Y112.328
G1 F1200 X95.619 Y106.367 E57.378
G1 X95.549 Y106.297
G0 F4500 X95.619 Y106.933
G1 F1200 X101.015 Y112.328 E57.75868
G1 X101.085 Y112.398
G0 F4500 X100.449 Y112.328
G1 F1200 X95.619 Y107.499 E58.09943
G1 X95.549 Y107.429
G0 F4500 X95.619 Y108.065
G1 F1200 X99.883 Y112.328 E58.40024
G1 X99.953 Y112.398
G0 F4500 X99.318 Y112.328
G1 F1200 X95.619 Y108.63 E58.66119
G1 X95.549 Y108.56
G0 F4500 X95.619 Y109.196
G1 F1200 X98.752 Y112.328 E58.88221
G1 X98.822 Y112.398
G0 F4500 X98.186 Y112.328
G1 F1200 X95.619 Y109.762 E59.06329
G1 X95.549 Y109.692
G0 F4500 X95.619 Y110.327
G1 F1200 X97.621 Y112.328 E59.20451
G1 X97.691 Y112.398
G0 F4500 X97.055 Y112.328
G1 F1200 X95.619 Y110.893 E59.30579
G1 X95.549 Y110.823
G0 F4500 X95.619 Y111.459
G1 F1200 X96.489 Y112.328 E59.36714
G1 X96.559 Y112.398
G0 F4500 X95.923 Y112.328
G1 F1200 X95.619 Y112.024 E59.38858
G0 F4500 X114.628 Y97.215
G0 X114.653 Y97.119
;TIME_ELAPSED:63.829238
;LAYER:1
M140 S50
M106 S255
G0 F6750 X114.653 Y97.119 Z0.5
;TYPE:WALL-INNER
G1 F1800 X114.745 Y97.157 E59.3919
G1 X114.829 Y97.221 E59.39541
G1 X114.893 Y97.305 E59.39892
G1 X114.931 Y97.397 E59.40223
G1 X114.95 Y97.54 E59.40703
G1 X114.95 Y112.46 E59.90327
G1 X114.931 Y112.603 E59.90807
G1 X114.893 Y112.695 E59.91138
G1 X114.829 Y112.779 E59.91489
G1 X114.745 Y112.843 E59.9184
G1 X114.653 Y112.881 E59.92171
G1 X114.51 Y112.9 E59.92651
G1 X95.49 Y112.9 E60.55912
G1 X95.347 Y112.881 E60.56392
G1 X95.255 Y112.843 E60.56723
G1 X95.171 Y112.779 E60.57074
G1 X95.107 Y112.695 E60.57425
G1 X95.069 Y112.603 E60.57756
G1 X95.05 Y112.46 E60.58236
G1 X95.05 Y97.54 E61.0786
G1 X95.069 Y97.397 E61.0834
G1 X95.107 Y97.305 E61.08671
G1 X95.171 Y97.221 E61.09022
G1 X95.255 Y97.157 E61.09374
G1 X95.347 Y97.119 E61.09705
G1 X95.49 Y97.1 E61.10185
G1 X114.51 Y97.1 E61.73445
G1 X114.653 Y97.119 E61.73925
G0 F6750 X114.754 Y96.728
;TYPE:WALL-OUTER
G1 F1200 X114.949 Y96.809 E61.74627
G1 X115.114 Y96.936 E61.7532
G1 X115.241 Y97.101 E61.76012
G1 X115.322 Y97.296 E61.76715
G1 X115.35 Y97.511 E61.77436
G1 X115.35 Y112.489 E62.27253
G1 X115.322 Y112.704 E62.27974
G1 X115.241 Y112.899 E62.28676
G1 X115.114 Y113.064 E62.29369
G1 X114.949 Y113.191 E62.30061
G1 X114.754 Y113.272 E62.30764
G1 X114.539 Y113.3 E62.31485
G1 X95.461 Y113.3 E62.94939
G1 X95.246 Y113.272 E62.9566
G1 X95.051 Y113.191 E62.96362
G1 X94.886 Y113.064 E62.97055
G1 X94.759 Y112.899 E62.97747
G1 X94.678 Y112.704 E62.98449
G1 X94.65 Y112.489 E62.9917
G1 X94.65 Y97.511 E63.48988
G1 X94.678 Y97.296 E63.49709
G1 X94.759 Y97.101 E63.50411
G1 X94.886 Y96.936 E63.51103
G1 X95.051 Y96.809 E63.51796
G1 X95.246 Y96.728 E63.52498
G1 X95.461 Y96.7 E63.53219
G1 X114.539 Y96.7 E64.16673
G1 X114.754 Y96.728 E64.17394
G0 F6750 X114.938 Y96.804
G0 X114.548 Y97.497
;TYPE:SKIN
G1 F1200 X114.56 Y97.559 E64.17604
G1 X114.56 Y112.441 E64.67102
G1 X114.548 Y112.503 E64.67312
G1 X114.491 Y112.51 E64.67503
G1 X95.509 Y112.51 E65.30637
G1 X95.447 Y112.498 E65.30848
G1 X95.44 Y112.441 E65.31039
G1 X95.44 Y97.559 E65.80536
G1 X95.452 Y97.497 E65.80746
G1 X95.509 Y97.49 E65.80937
G1 X114.491 Y97.49 E66.44072
G1 X114.548 Y97.497 E66.44263
G0 F6750 X114.378 Y111.895
G1 F1200 X113.943 Y112.33 E66.46309
G0 F6750 X113.378 Y112.33
G1 F1200 X114.378 Y111.329 E66.51015
G1 X114.448 Y111.259
G0 F6750 X114.378 Y110.764
G1 F1200 X112.812 Y112.33 E66.58381
G1 X112.742 Y112.4
G0 F6750 X112.246 Y112.33
G1 F1200 X114.378 Y110.198 E66.68409
G1 X114.448 Y110.128
G0 F6750 X114.378 Y109.632
G1 F1200 X111.681 Y112.33 E66.81097
G1 X111.611 Y112.4
G0 F6750 X111.115 Y112.33
G1 F1200 X114.378 Y109.066 E66.96448
G1 X114.448 Y108.996
G0 F6750 X114.378 Y108.501
G1 F1200 X110.549 Y112.33 E67.14458
G1 X110.479 Y112.4
G0 F6750 X109.984 Y112.33
G1 F1200 X114.378 Y107.935 E67.35129
G1 X114.448 Y107.865
G0 F6750 X114.378 Y107.369
G1 F1200 X109.418 Y112.33 E67.58461
G1 X109.348 Y112.4
G0 F6750 X108.852 Y112.33
G1 F1200 X114.378 Y106.804 E67.84454
G1 X114.448 Y106.734
G0 F6750 X114.378 Y106.238
G1 F1200 X108.287 Y112.33 E68.13106
G1 X108.217 Y112.4
G0 F6750 X107.721 Y112.33
G1 F1200 X114.378 Y105.672 E68.44421
G1 X114.448 Y105.602
G0 F6750 X114.378 Y105.107
G1 F1200 X107.155 Y112.33 E68.78396
G1 X107.085 Y112.4
G0 F6750 X106.589 Y112.33
G1 F1200 X114.378 Y104.541 E69.15033
G1 X114.448 Y104.471
G0 F6750 X114.378 Y103.975
