;FLAVOR:Marlin
;TIME:629
;Filament used: 0.485038m
;Layer height: 0.2
;Generated with Cura_SteamEngine 3.2.1
M190 S50
M104 S200
M109 S200
M82 ;absolute extrusion mode
G28 ;Home
G1 Z15.0 F6000 ;Move the platform down 15mm
;Prime the extruder
G92 E0
G1 F200 E3
G92 E0
;LAYER_COUNT:3
;LAYER:0
M107
G0 F4500 X57.297 Y93.506 Z0.3
;TYPE:SKIRT
G1 F1200 X57.784 Y93.282 E0.02674
G1 X58.085 Y93.185 E0.04252
G1 X58.619 Y93.038 E0.07015
G1 X59.145 Y92.935 E0.09689
G1 X59.574 Y92.909 E0.11834
G1 X150.523 Y92.917 E4.6558
G1 X151.058 Y92.957 E4.68257
G1 X151.557 Y93.069 E4.70808
G1 X151.964 Y93.191 E4.72928
G1 X152.464 Y93.382 E4.75598
G1 X152.931 Y93.646 E4.78275
G1 X153.429 Y94.048 E4.81468
G1 X153.794 Y94.4 E4.83997
G1 X154.151 Y94.8 E4.86672
G1 X154.445 Y95.248 E4.89346
G1 X154.669 Y95.736 E4.92024
G1 X154.837 Y96.348 E4.95191
G1 X154.992 Y97.202 E4.99521
G1 X155.05 Y97.849 E5.02762
G1 X155.033 Y112.577 E5.7624
G1 X154.992 Y113.112 E5.78917
G1 X154.883 Y113.601 E5.81417
G1 X154.762 Y114.007 E5.8353
G1 X154.571 Y114.508 E5.86205
G1 X154.308 Y114.975 E5.88879
G1 X153.903 Y115.478 E5.92101
G1 X153.551 Y115.843 E5.94631
G1 X153.151 Y116.2 E5.97306
G1 X152.703 Y116.494 E5.99979
G1 X152.215 Y116.718 E6.02658
G1 X151.915 Y116.815 E6.04231
G1 X151.381 Y116.962 E6.06994
G1 X150.855 Y117.065 E6.09668
G1 X150.426 Y117.091 E6.11812
G1 X59.56 Y117.09 E10.65145
G1 X59.025 Y117.05 E10.67821
G1 X58.643 Y116.971 E10.69767
G1 X58.153 Y116.842 E10.72295
G1 X57.646 Y116.668 E10.7497
G1 X57.171 Y116.419 E10.77645
G1 X56.571 Y115.952 E10.81438
G1 X56.206 Y115.6 E10.83968
G1 X55.849 Y115.2 E10.86643
G1 X55.555 Y114.752 E10.89316
G1 X55.331 Y114.264 E10.91995
G1 X55.233 Y113.96 E10.93589
G1 X55.087 Y113.427 E10.96346
G1 X54.984 Y112.901 E10.9902
G1 X54.959 Y112.476 E11.01144
G1 X54.96 Y97.511 E11.75805
G1 X55 Y96.976 E11.78481
G1 X55.078 Y96.596 E11.80417
G1 X55.207 Y96.105 E11.82949
G1 X55.382 Y95.598 E11.85625
G1 X55.63 Y95.123 E11.88299
G1 X56.098 Y94.521 E11.92103
G1 X56.449 Y94.157 E11.94626
G1 X56.849 Y93.8 E11.973
G1 X57.297 Y93.506 E11.99974
G0 F4500 X57.542 Y93.828
G1 F1200 X58.191 Y93.571 E12.03456
G1 X58.725 Y93.424 E12.0622
G1 X59.221 Y93.329 E12.08739
G1 X59.574 Y93.309 E12.10503
G1 X150.523 Y93.317 E16.64249
G1 X151.027 Y93.357 E16.66772
G1 X151.442 Y93.452 E16.68896
G1 X151.849 Y93.574 E16.71016
G1 X152.32 Y93.757 E16.73537
G1 X152.757 Y94.012 E16.76061
G1 X153.151 Y94.336 E16.78606
G1 X153.516 Y94.688 E16.81136
G1 X153.851 Y95.066 E16.83655
G1 X154.123 Y95.493 E16.86181
G1 X154.323 Y95.957 E16.88702
G1 X154.444 Y96.42 E16.9109
G1 X154.599 Y97.274 E16.9542
G1 X154.65 Y97.849 E16.983
G1 X154.633 Y112.577 E17.71778
G1 X154.592 Y113.081 E17.74301
G1 X154.5 Y113.487 E17.76378
G1 X154.379 Y113.893 E17.78491
G1 X154.196 Y114.365 E17.81017
G1 X153.942 Y114.802 E17.83539
G1 X153.615 Y115.2 E17.86109
G1 X153.263 Y115.565 E17.88638
G1 X152.885 Y115.9 E17.91158
G1 X152.458 Y116.172 E17.93684
G1 X151.809 Y116.429 E17.97167
G1 X151.275 Y116.576 E17.9993
G1 X150.779 Y116.671 E18.02449
G1 X150.426 Y116.691 E18.04213
G1 X59.56 Y116.69 E22.57546
G1 X59.056 Y116.65 E22.60068
G1 X58.745 Y116.585 E22.61653
G1 X58.255 Y116.456 E22.64181
G1 X57.778 Y116.289 E22.66702
G1 X57.333 Y116.049 E22.69225
G1 X56.849 Y115.664 E22.7231
G1 X56.484 Y115.312 E22.7484
G1 X56.149 Y114.934 E22.7736
G1 X55.877 Y114.507 E22.79886
G1 X55.619 Y113.854 E22.83389
G1 X55.473 Y113.321 E22.86146
G1 X55.378 Y112.825 E22.88665
G1 X55.359 Y112.476 E22.90409
G1 X55.36 Y97.511 E23.6507
G1 X55.4 Y97.007 E23.67592
G1 X55.465 Y96.698 E23.69167
G1 X55.594 Y96.207 E23.717
G1 X55.761 Y95.73 E23.74222
G1 X56.001 Y95.284 E23.76748
G1 X56.385 Y94.799 E23.79835
G1 X56.736 Y94.435 E23.82357
G1 X57.115 Y94.1 E23.84881
G1 X57.542 Y93.828 E23.87407
G1 F1800 E17.37407
G0 F4500 X59.423 Y95.847
G0 X59.591 Y97.119
G0 X150.528 Y97.215
G0 X150.553 Y97.119
;TYPE:WALL-INNER
G1 F1800 E23.87407
G1 F1200 X150.645 Y97.157 E23.87903
G1 X150.729 Y97.221 E23.8843
G1 X150.793 Y97.305 E23.88957
G1 X150.831 Y97.397 E23.89454
G1 X150.85 Y97.54 E23.90173
G1 X150.85 Y112.46 E24.6461
G1 X150.831 Y112.603 E24.65329
G1 X150.793 Y112.695 E24.65826
G1 X150.729 Y112.779 E24.66353
G1 X150.645 Y112.843 E24.6688
G1 X150.553 Y112.881 E24.67376
G1 X150.41 Y112.9 E24.68096
G1 X59.59 Y112.9 E29.21199
G1 X59.447 Y112.881 E29.21918
G1 X59.355 Y112.843 E29.22415
G1 X59.271 Y112.779 E29.22942
G1 X59.207 Y112.695 E29.23469
G1 X59.169 Y112.603 E29.23965
G1 X59.15 Y112.46 E29.24685
G1 X59.15 Y97.54 E29.99121
G1 X59.169 Y97.397 E29.99841
G1 X59.207 Y97.305 E30.00338
G1 X59.271 Y97.221 E30.00864
G1 X59.355 Y97.157 E30.01391
G1 X59.447 Y97.119 E30.01888
G1 X59.59 Y97.1 E30.02608
G1 X150.41 Y97.1 E34.5571
G1 X150.553 Y97.119 E34.5643
G0 F4500 X150.654 Y96.728
;TYPE:WALL-OUTER
G1 F1200 X150.849 Y96.809 E34.57484
G1 X151.014 Y96.936 E34.58522
G1 X151.141 Y97.101 E34.59561
G1 X151.222 Y97.296 E34.60615
G1 X151.25 Y97.511 E34.61696
G1 X151.25 Y112.489 E35.36422
G1 X151.222 Y112.704 E35.37504
G1 X151.141 Y112.899 E35.38557
G1 X151.014 Y113.064 E35.39596
G1 X150.849 Y113.191 E35.40635
G1 X150.654 Y113.272 E35.41688
G1 X150.439 Y113.3 E35.4277
G1 X59.561 Y113.3 E39.96162
G1 X59.346 Y113.272 E39.97244
G1 X59.151 Y113.191 E39.98297
G1 X58.986 Y113.064 E39.99336
G1 X58.859 Y112.899 E40.00375
G1 X58.778 Y112.704 E40.01428
G1 X58.75 Y112.489 E40.0251
G1 X58.75 Y97.511 E40.77235
G1 X58.778 Y97.296 E40.78317
G1 X58.859 Y97.101 E40.7937
G1 X58.986 Y96.936 E40.80409
G1 X59.151 Y96.809 E40.81448
G1 X59.346 Y96.728 E40.82502
G1 X59.561 Y96.7 E40.83583
G1 X150.439 Y96.7 E45.36975
G1 X150.654 Y96.728 E45.38057
G0 F4500 X150.838 Y96.804
G0 X150.448 Y97.497
;TYPE:SKIN
G1 F1200 X150.46 Y97.559 E45.38372
G1 X150.46 Y112.441 E46.12619
G1 X150.448 Y112.503 E46.12934
G1 X150.391 Y112.51 E46.1322
G1 X59.609 Y112.51 E50.66134
G1 X59.547 Y112.498 E50.66449
G1 X59.54 Y112.441 E50.66735
G1 X59.54 Y97.559 E51.40982
G1 X59.552 Y97.497 E51.41297
G1 X59.609 Y97.49 E51.41583
G1 X150.391 Y97.49 E55.94497
G1 X150.448 Y97.497 E55.94783
G0 F4500 X150.279 Y98.236
G1 F1200 X149.713 Y97.67 E55.98776
G1 X149.643 Y97.6
G0 F4500 X149.147 Y97.67
G1 F1200 X150.279 Y98.801 E56.0676
G1 X150.349 Y98.871
G0 F4500 X150.279 Y99.367
G1 F1200 X148.582 Y97.67 E56.18733
G1 X148.512 Y97.6
G0 F4500 X148.016 Y97.67
G1 F1200 X150.279 Y99.933 E56.347
G1 X150.349 Y100.003
G0 F4500 X150.279 Y100.498
G1 F1200 X147.45 Y97.67 E56.54656
G1 X147.38 Y97.6
G0 F4500 X146.885 Y97.67
G1 F1200 X150.279 Y101.064 E56.78603
G1 X150.349 Y101.134
G0 F4500 X150.279 Y101.63
G1 F1200 X146.319 Y97.67 E57.06543
G1 X146.249 Y97.6
G0 F4500 X145.753 Y97.67
G1 F1200 X150.279 Y102.196 E57.38476
G1 X150.349 Y102.266
G0 F4500 X150.279 Y102.761
G1 F1200 X145.188 Y97.67 E57.74396
G1 X145.118 Y97.6
G0 F4500 X144.622 Y97.67
G1 F1200 X150.279 Y103.327 E58.14309
G1 X150.349 Y103.397
G0 F4500 X150.279 Y103.893
G1 F1200 X144.056 Y97.67 E58.58216
G1 X143.986 Y97.6
G0 F4500 X143.491 Y97.67
G1 F1200 X150.279 Y104.458 E59.06109
G1 X150.349 Y104.528
G0 F4500 X150.279 Y105.024
G1 F1200 X142.925 Y97.67 E59.57995
G1 X142.855 Y97.6
G0 F4500 X142.359 Y97.67
G1 F1200 X150.279 Y105.59 E60.13875
G1 X150.349 Y105.66
G0 F4500 X150.279 Y106.155
G1 F1200 X141.794 Y97.67 E60.73741
G1 X141.724 Y97.6
G0 F4500 X141.228 Y97.67
G1 F1200 X150.279 Y106.721 E61.37601
G1 X150.349 Y106.791
G0 F4500 X150.279 Y107.287
G1 F1200 X140.662 Y97.67 E62.05454
G1 X140.592 Y97.6
G0 F4500 X140.096 Y97.67
G1 F1200 X150.279 Y107.852 E62.77297
G1 X150.349 Y107.922
G0 F4500 X150.279 Y108.418
G1 F1200 X139.531 Y97.67 E63.5313
G1 X139.461 Y97.6
G0 F4500 X138.965 Y97.67
G1 F1200 X150.279 Y108.984 E64.32957
G1 X150.349 Y109.054
G0 F4500 X150.279 Y109.549
G1 F1200 X138.399 Y97.67 E65.16773
G1 X138.329 Y97.6
G0 F4500 X137.834 Y97.67
G1 F1200 X150.279 Y110.115 E66.04579
G1 X150.349 Y110.185
G0 F4500 X150.279 Y110.681
G1 F1200 X137.268 Y97.67 E66.96379
G1 X137.198 Y97.6
G0 F4500 X136.702 Y97.67
G1 F1200 X150.279 Y111.246 E67.92168
G1 X150.349 Y111.316
G0 F4500 X150.279 Y111.812
G1 F1200 X136.137 Y97.67 E68.91948
G1 X136.067 Y97.6
G0 F4500 X135.571 Y97.67
G1 F1200 X150.23 Y112.329 E69.95375
G1 X150.3 Y112.399
G0 F4500 X149.664 Y112.329
G1 F1200 X135.005 Y97.67 E70.98802
G1 X134.935 Y97.6
G0 F4500 X134.44 Y97.67
G1 F1200 X149.099 Y112.329 E72.02229
G1 X149.169 Y112.399
G0 F4500 X148.533 Y112.329
G1 F1200 X133.874 Y97.67 E73.05656
G1 X133.804 Y97.6
G0 F4500 X133.308 Y97.67
G1 F1200 X147.967 Y112.329 E74.09083
G1 X148.037 Y112.399
G0 F4500 X147.402 Y112.329
G1 F1200 X132.743 Y97.67 E75.12511
G1 X132.673 Y97.6
G0 F4500 X132.177 Y97.67
G1 F1200 X146.836 Y112.329 E76.15938
G1 X146.906 Y112.399
G0 F4500 X146.27 Y112.329
G1 F1200 X131.611 Y97.67 E77.19365
G1 X131.541 Y97.6
G0 F4500 X131.045 Y97.67
G1 F1200 X145.705 Y112.329 E78.22796
G1 X145.775 Y112.399
G0 F4500 X145.139 Y112.329
G1 F1200 X130.48 Y97.67 E79.26223
G1 X130.41 Y97.6
G0 F4500 X129.914 Y97.67
G1 F1200 X144.573 Y112.329 E80.2965
G1 X144.643 Y112.399
G0 F4500 X144.007 Y112.329
G1 F1200 X129.348 Y97.67 E81.33077
G1 X129.278 Y97.6
G0 F4500 X128.783 Y97.67
G1 F1200 X143.442 Y112.329 E82.36504
G1 X143.512 Y112.399
G0 F4500 X142.876 Y112.329
G1 F1200 X128.217 Y97.67 E83.39931
G1 X128.147 Y97.6
G0 F4500 X127.651 Y97.67
G1 F1200 X142.31 Y112.329 E84.43359
G1 X142.38 Y112.399
G0 F4500 X141.745 Y112.329
G1 F1200 X127.086 Y97.67 E85.46786
G1 X127.016 Y97.6
G0 F4500 X126.52 Y97.67
G1 F1200 X141.179 Y112.329 E86.50213
G1 X141.249 Y112.399
G0 F4500 X140.613 Y112.329
G1 F1200 X125.954 Y97.67 E87.5364
G1 X125.884 Y97.6
G0 F4500 X125.389 Y97.67
G1 F1200 X140.048 Y112.329 E88.57067
G1 X140.118 Y112.399
G0 F4500 X139.482 Y112.329
G1 F1200 X124.823 Y97.67 E89.60494
G1 X124.753 Y97.6
G0 F4500 X124.257 Y97.67
G1 F1200 X138.916 Y112.329 E90.63922
G1 X138.986 Y112.399
G0 F4500 X138.351 Y112.329
G1 F1200 X123.692 Y97.67 E91.67349
G1 X123.622 Y97.6
G0 F4500 X123.126 Y97.67
G1 F1200 X137.785 Y112.329 E92.70776
G1 X137.855 Y112.399
G0 F4500 X137.219 Y112.329
G1 F1200 X122.56 Y97.67 E93.74203
G1 X122.49 Y97.6
G0 F4500 X121.995 Y97.67
G1 F1200 X136.654 Y112.329 E94.7763
G1 X136.724 Y112.399
G0 F4500 X136.088 Y112.329
G1 F1200 X121.429 Y97.67 E95.81057
G1 X121.359 Y97.6
G0 F4500 X120.863 Y97.67
G1 F1200 X135.522 Y112.329 E96.84485
G1 X135.592 Y112.399
G0 F4500 X134.956 Y112.329
G1 F1200 X120.297 Y97.67 E97.87912
G1 X120.227 Y97.6
G0 F4500 X119.732 Y97.67
G1 F1200 X134.391 Y112.329 E98.91339
G1 X134.461 Y112.399
G0 F4500 X133.825 Y112.329
G1 F1200 X119.166 Y97.67 E99.94766
G1 X119.096 Y97.6
G0 F4500 X118.6 Y97.67
G1 F1200 X133.259 Y112.329 E100.98193
G1 X133.329 Y112.399
G0 F4500 X132.694 Y112.329
G1 F1200 X118.035 Y97.67 E102.0162
G1 X117.965 Y97.6
G0 F4500 X117.469 Y97.67
G1 F1200 X132.128 Y112.329 E103.05048
G1 X132.198 Y112.399
G0 F4500 X131.562 Y112.329
G1 F1200 X116.903 Y97.67 E104.08475
G1 X116.833 Y97.6
G0 F4500 X116.338 Y97.67
G1 F1200 X130.997 Y112.329 E105.11902
G1 X131.067 Y112.399
G0 F4500 X130.431 Y112.329
G1 F1200 X115.772 Y97.67 E106.15329
G1 X115.702 Y97.6
G0 F4500 X115.206 Y97.67
G1 F1200 X129.865 Y112.329 E107.18756
G1 X129.935 Y112.399
G0 F4500 X129.3 Y112.329
G1 F1200 X114.641 Y97.67 E108.22183
G1 X114.571 Y97.6
G0 F4500 X114.075 Y97.67
G1 F1200 X128.734 Y112.329 E109.2561
G1 X128.804 Y112.399
G0 F4500 X128.168 Y112.329
G1 F1200 X113.509 Y97.67 E110.29038
G1 X113.439 Y97.6
G0 F4500 X112.944 Y97.67
G1 F1200 X127.603 Y112.329 E111.32465
G1 X127.673 Y112.399
G0 F4500 X127.037 Y112.329
G1 F1200 X112.378 Y97.67 E112.35892
G1 X112.308 Y97.6
G0 F4500 X111.812 Y97.67
G1 F1200 X126.471 Y112.329 E113.39319
G1 X126.541 Y112.399
G0 F4500 X125.906 Y112.329
G1 F1200 X111.246 Y97.67 E114.4275
G1 X111.176 Y97.6
G0 F4500 X110.681 Y97.67
G1 F1200 X125.34 Y112.329 E115.46177
G1 X125.41 Y112.399
G0 F4500 X124.774 Y112.329
G1 F1200 X110.115 Y97.67 E116.49604
G1 X110.045 Y97.6
G0 F4500 X109.549 Y97.67
G1 F1200 X124.208 Y112.329 E117.53031
G1 X124.278 Y112.399
G0 F4500 X123.643 Y112.329
G1 F1200 X108.984 Y97.67 E118.56458
G1 X108.914 Y97.6
G0 F4500 X108.418 Y97.67
G1 F1200 X123.077 Y112.329 E119.59886
G1 X123.147 Y112.399
G0 F4500 X122.511 Y112.329
G1 F1200 X107.852 Y97.67 E120.63313
G1 X107.782 Y97.6
G0 F4500 X107.287 Y97.67
G1 F1200 X121.946 Y112.329 E121.6674
G1 X122.016 Y112.399
G0 F4500 X121.38 Y112.329
G1 F1200 X106.721 Y97.67 E122.70167
G1 X106.651 Y97.6
G0 F4500 X106.155 Y97.67
G1 F1200 X120.814 Y112.329 E123.73594
G1 X120.884 Y112.399
G0 F4500 X120.249 Y112.329
G1 F1200 X105.59 Y97.67 E124.77021
G1 X105.52 Y97.6
G0 F4500 X105.024 Y97.67
G1 F1200 X119.683 Y112.329 E125.80449
G1 X119.753 Y112.399
G0 F4500 X119.117 Y112.329
G1 F1200 X104.458 Y97.669 E126.83879
G1 X104.388 Y97.599
G0 F4500 X103.892 Y97.669
G1 F1200 X118.552 Y112.329 E127.87314
G1 X118.622 Y112.399
G0 F4500 X117.986 Y112.329
G1 F1200 X103.326 Y97.669 E128.90748
G1 X103.256 Y97.599
G0 F4500 X102.761 Y97.669
G1 F1200 X117.42 Y112.329 E129.94178
G1 X117.49 Y112.399
G0 F4500 X116.855 Y112.329
G1 F1200 X102.195 Y97.669 E130.97613
G1 X102.125 Y97.599
G0 F4500 X101.629 Y97.669
G1 F1200 X116.289 Y112.329 E132.01047
G1 X116.359 Y112.399
G0 F4500 X115.723 Y112.329
G1 F1200 X101.063 Y97.669 E133.04481
G1 X100.993 Y97.599
G0 F4500 X100.498 Y97.669
G1 F1200 X115.157 Y112.329 E134.07912
G1 X115.227 Y112.399
G0 F4500 X114.592 Y112.329
G1 F1200 X99.932 Y97.669 E135.11346
G1 X99.862 Y97.599
G0 F4500 X99.366 Y97.669
G1 F1200 X114.026 Y112.329 E136.1478
G1 X114.096 Y112.399
G0 F4500 X113.46 Y112.329
G1 F1200 X98.801 Y97.669 E137.18211
G1 X98.731 Y97.599
G0 F4500 X98.235 Y97.669
G1 F1200 X112.895 Y112.329 E138.21645
G1 X112.965 Y112.399
G0 F4500 X112.329 Y112.329
G1 F1200 X97.669 Y97.669 E139.25079
G1 X97.599 Y97.599
G0 F4500 X97.104 Y97.669
G1 F1200 X111.763 Y112.329 E140.2851
G1 X111.833 Y112.399
G0 F4500 X111.198 Y112.329
G1 F1200 X96.538 Y97.669 E141.31944
G1 X96.468 Y97.599
G0 F4500 X95.972 Y97.669
G1 F1200 X110.632 Y112.329 E142.35378
G1 X110.702 Y112.399
G0 F4500 X110.066 Y112.329
G1 F1200 X95.407 Y97.669 E143.38809
G1 X95.337 Y97.599
G0 F4500 X94.841 Y97.669
G1 F1200 X109.501 Y112.329 E144.42243
G1 X109.571 Y112.399
G0 F4500 X108.935 Y112.329
G1 F1200 X94.275 Y97.669 E145.45678
G1 X94.205 Y97.599
G0 F4500 X93.71 Y97.669
G1 F1200 X108.369 Y112.329 E146.49108
G1 X108.439 Y112.399
G0 F4500 X107.804 Y112.329
G1 F1200 X93.144 Y97.669 E147.52542
G1 X93.074 Y97.599
G0 F4500 X92.578 Y97.669
G1 F1200 X107.238 Y112.329 E148.55977
G1 X107.308 Y112.399
G0 F4500 X106.672 Y112.329
G1 F1200 X92.012 Y97.669 E149.59411
G1 X91.942 Y97.599
G0 F4500 X91.447 Y97.669
G1 F1200 X106.107 Y112.329 E150.62845
G1 X106.177 Y112.399
G0 F4500 X105.541 Y112.329
G1 F1200 X90.881 Y97.669 E151.66279
G1 X90.811 Y97.599
G0 F4500 X90.315 Y97.669
G1 F1200 X104.974 Y112.328 E152.69707
G1 X105.044 Y112.398
G0 F4500 X104.409 Y112.328
G1 F1200 X89.75 Y97.669 E153.73134
G1 X89.68 Y97.599
G0 F4500 X89.184 Y97.669
G1 F1200 X103.843 Y112.328 E154.76561
G1 X103.913 Y112.398
G0 F4500 X103.277 Y112.328
G1 F1200 X88.618 Y97.669 E155.79988
G1 X88.548 Y97.599
G0 F4500 X88.053 Y97.669
G1 F1200 X102.712 Y112.328 E156.83415
G1 X102.782 Y112.398
G0 F4500 X102.146 Y112.328
G1 F1200 X87.487 Y97.669 E157.86842
G1 X87.417 Y97.599
G0 F4500 X86.921 Y97.669
G1 F1200 X101.58 Y112.328 E158.9027
G1 X101.65 Y112.398
G0 F4500 X101.015 Y112.328
G1 F1200 X86.356 Y97.669 E159.93697
G1 X86.286 Y97.599
G0 F4500 X85.79 Y97.669
G1 F1200 X100.449 Y112.328 E160.97124
G1 X100.519 Y112.398
G0 F4500 X99.883 Y112.328
G1 F1200 X85.224 Y97.669 E162.00551
G1 X85.154 Y97.599
G0 F4500 X84.659 Y97.669
G1 F1200 X99.318 Y112.328 E163.03978
G1 X99.388 Y112.398
G0 F4500 X98.752 Y112.328
G1 F1200 X84.093 Y97.669 E164.07405
G1 X84.023 Y97.599
G0 F4500 X83.527 Y97.669
G1 F1200 X98.186 Y112.328 E165.10832
G1 X98.256 Y112.398
G0 F4500 X97.621 Y112.328
G1 F1200 X82.962 Y97.669 E166.1426
G1 X82.892 Y97.599
G0 F4500 X82.396 Y97.669
G1 F1200 X97.055 Y112.328 E167.17687
G1 X97.125 Y112.398
G0 F4500 X96.489 Y112.328
G1 F1200 X81.83 Y97.669 E168.21114
G1 X81.76 Y97.599
G0 F4500 X81.264 Y97.669
G1 F1200 X95.923 Y112.328 E169.24541
G1 X95.993 Y112.398
G0 F4500 X95.358 Y112.328
