;FLAVOR:Marlin
;TIME:313
;Filament used: 0.243229m
;Layer height: 0.2
;Generated with Cura_SteamEngine 3.2.1
M190 S50
M104 S210
M109 S210
M82 ;absolute extrusion mode
G28 ;Home
G1 Z15.0 F6000 ;Move the platform down 15mm
;Prime the extruder
G92 E0
G1 F200 E3
G92 E0
;LAYER_COUNT:3
;LAYER:0
M107
G0 F3600 X80.184 Y94.093 Z0.3
;TYPE:SKIRT
G1 F1200 X80.691 Y93.725 E0.03162
G1 X81.119 Y93.468 E0.05681
G1 X81.598 Y93.227 E0.08387
G1 X82.107 Y93.059 E0.11092
G1 X82.617 Y92.972 E0.13703
G1 X83.152 Y92.919 E0.16416
G1 X83.508 Y92.901 E0.18215
G1 X126.824 Y92.917 E2.3681
G1 X127.359 Y92.957 E2.39518
G1 X127.857 Y93.069 E2.42094
G1 X128.264 Y93.191 E2.44238
G1 X128.764 Y93.382 E2.46939
G1 X129.231 Y93.646 E2.49646
G1 X129.729 Y94.048 E2.52876
G1 X130.094 Y94.4 E2.55435
G1 X130.451 Y94.8 E2.58141
G1 X130.745 Y95.248 E2.60845
G1 X130.969 Y95.736 E2.63555
G1 X131.137 Y96.348 E2.66757
G1 X131.292 Y97.202 E2.71138
G1 X131.35 Y97.847 E2.74406
G1 X131.341 Y113.493 E3.53364
G1 X131.301 Y114.028 E3.56071
G1 X131.181 Y114.551 E3.58779
G1 X130.986 Y115.05 E3.61483
G1 X130.718 Y115.515 E3.64191
G1 X130.385 Y115.935 E3.66896
G1 X129.992 Y116.3 E3.69603
G1 X129.55 Y116.603 E3.72307
G1 X129.068 Y116.838 E3.75013
G1 X128.556 Y116.998 E3.7772
G1 X128.026 Y117.08 E3.80427
G1 X127.741 Y117.091 E3.81866
G1 X82.259 Y117.091 E6.11392
G1 X81.724 Y117.051 E6.141
G1 X81.201 Y116.932 E6.16807
G1 X80.702 Y116.737 E6.1951
G1 X80.237 Y116.469 E6.22219
G1 X79.817 Y116.136 E6.24924
G1 X79.451 Y115.744 E6.2763
G1 X79.148 Y115.302 E6.30335
G1 X78.913 Y114.819 E6.33045
G1 X78.753 Y114.308 E6.35747
G1 X78.67 Y113.778 E6.38455
G1 X78.659 Y113.49 E6.39909
G1 X78.664 Y97.457 E7.2082
G1 X78.704 Y96.922 E7.23528
G1 X78.823 Y96.399 E7.26234
G1 X78.96 Y96.028 E7.2823
G1 X79.24 Y95.381 E7.31788
G1 X79.489 Y94.906 E7.34495
G1 X79.806 Y94.474 E7.37199
G1 X80.184 Y94.093 E7.39907
G0 F3600 X80.512 Y94.339
G1 F1200 X80.897 Y94.068 E7.42283
G1 X81.325 Y93.811 E7.44802
G1 X81.777 Y93.585 E7.47353
G1 X82.26 Y93.434 E7.49907
G1 X82.657 Y93.37 E7.51936
G1 X83.192 Y93.317 E7.54649
G1 X83.508 Y93.301 E7.56246
G1 X126.824 Y93.317 E9.74841
G1 X127.328 Y93.357 E9.77393
G1 X127.742 Y93.452 E9.79536
G1 X128.149 Y93.574 E9.8168
G1 X128.62 Y93.757 E9.8423
G1 X129.057 Y94.012 E9.86784
G1 X129.451 Y94.336 E9.89358
G1 X129.816 Y94.688 E9.91917
G1 X130.151 Y95.066 E9.94466
G1 X130.423 Y95.493 E9.97021
G1 X130.623 Y95.957 E9.99571
G1 X130.744 Y96.42 E10.01986
G1 X130.899 Y97.274 E10.06366
G1 X130.95 Y97.847 E10.09269
G1 X130.941 Y113.493 E10.88227
G1 X130.901 Y113.997 E10.90779
G1 X130.782 Y114.488 E10.93328
G1 X130.587 Y114.955 E10.95882
G1 X130.321 Y115.385 E10.98434
G1 X129.99 Y115.767 E11.00984
G1 X129.604 Y116.093 E11.03534
G1 X129.171 Y116.354 E11.06086
G1 X128.702 Y116.543 E11.08637
G1 X128.209 Y116.657 E11.11191
G1 X127.741 Y116.691 E11.13559
G1 X82.259 Y116.691 E13.43085
G1 X81.755 Y116.651 E13.45637
G1 X81.264 Y116.532 E13.48186
G1 X80.797 Y116.338 E13.50738
G1 X80.367 Y116.072 E13.5329
G1 X79.984 Y115.742 E13.55841
G1 X79.658 Y115.355 E13.58395
G1 X79.397 Y114.922 E13.60946
G1 X79.207 Y114.454 E13.63495
G1 X79.094 Y113.961 E13.66048
G1 X79.059 Y113.49 E13.68431
G1 X79.064 Y97.457 E14.49342
G1 X79.104 Y96.953 E14.51894
G1 X79.223 Y96.462 E14.54443
G1 X79.327 Y96.187 E14.55927
G1 X79.607 Y95.54 E14.59485
G1 X79.844 Y95.093 E14.62038
G1 X80.148 Y94.69 E14.64585
G1 X80.512 Y94.339 E14.67137
G1 F1500 E8.17137
G0 F3600 X82.786 Y95.901
G0 X83.291 Y97.119
G0 X126.828 Y97.215
G0 X126.853 Y97.119
;TYPE:WALL-INNER
G1 F1500 E14.67137
G1 F1200 X126.945 Y97.157 E14.6764
G1 X127.029 Y97.221 E14.68173
G1 X127.093 Y97.305 E14.68706
G1 X127.131 Y97.397 E14.69208
G1 X127.15 Y97.54 E14.69936
G1 X127.15 Y112.9 E15.47451
G1 X82.85 Y112.9 E17.71012
G1 X82.85 Y97.54 E18.48527
G1 X82.869 Y97.397 E18.49255
G1 X82.907 Y97.305 E18.49757
G1 X82.971 Y97.221 E18.5029
G1 X83.055 Y97.157 E18.50823
G1 X83.147 Y97.119 E18.51325
G1 X83.29 Y97.1 E18.52053
G1 X126.71 Y97.1 E20.71173
G1 X126.853 Y97.119 E20.71901
G0 F3600 X126.954 Y96.728
;TYPE:WALL-OUTER
G1 F1200 X127.149 Y96.809 E20.72967
G1 X127.314 Y96.936 E20.74018
G1 X127.441 Y97.101 E20.75068
G1 X127.522 Y97.296 E20.76134
G1 X127.55 Y97.511 E20.77228
G1 X127.55 Y113.3 E21.56908
G1 X82.45 Y113.3 E23.84506
G1 X82.45 Y97.511 E24.64186
G1 X82.478 Y97.296 E24.6528
G1 X82.559 Y97.101 E24.66346
G1 X82.686 Y96.936 E24.67397
G1 X82.851 Y96.809 E24.68447
G1 X83.046 Y96.728 E24.69513
G1 X83.261 Y96.7 E24.70607
G1 X126.739 Y96.7 E26.9002
G1 X126.954 Y96.728 E26.91114
G0 F3600 X127.138 Y96.804
G0 X126.75 Y97.5
;TYPE:SKIN
G1 F1200 X126.76 Y97.559 E26.91416
G1 X126.76 Y112.51 E27.66867
G1 X83.24 Y112.51 E29.86492
G1 X83.24 Y97.559 E30.61943
G1 X83.252 Y97.497 E30.62261
G1 X83.309 Y97.49 E30.62551
G1 X126.691 Y97.49 E32.8148
G1 X126.75 Y97.5 E32.81782
G0 F3600 X126.549 Y97.699
G1 F1200 X126.266 Y97.981 E32.84221
G1 X126.649 Y98.364
G0 F3600 X126.579 Y98.86
G1 F1200 X125.388 Y97.669 E32.92721
G1 X125.318 Y97.599
G0 F3600 X124.822 Y97.669
G1 F1200 X126.579 Y99.426 E33.05261
G1 X126.649 Y99.496
G0 F3600 X126.579 Y99.991
G1 F1200 X124.257 Y97.669 E33.21833
G1 X124.187 Y97.599
G0 F3600 X123.691 Y97.669
G1 F1200 X126.579 Y100.557 E33.42444
G1 X126.649 Y100.627
G0 F3600 X126.579 Y101.123
G1 F1200 X123.125 Y97.669 E33.67095
G1 X123.055 Y97.599
G0 F3600 X122.559 Y97.669
G1 F1200 X126.579 Y101.689 E33.95785
G1 X126.649 Y101.759
G0 F3600 X126.579 Y102.254
G1 F1200 X121.994 Y97.669 E34.28507
G1 X121.924 Y97.599
G0 F3600 X121.428 Y97.669
G1 F1200 X126.579 Y102.82 E34.65269
G1 X126.649 Y102.89
G0 F3600 X126.579 Y103.386
G1 F1200 X120.862 Y97.669 E35.06071
G1 X120.792 Y97.599
G0 F3600 X120.297 Y97.669
G1 F1200 X126.579 Y103.951 E35.50905
G1 X126.649 Y104.021
G0 F3600 X126.579 Y104.517
G1 F1200 X119.731 Y97.669 E35.99778
G1 X119.661 Y97.599
G0 F3600 X119.165 Y97.669
G1 F1200 X126.579 Y105.083 E36.52691
G1 X126.649 Y105.153
G0 F3600 X126.579 Y105.648
G1 F1200 X118.6 Y97.669 E37.09636
G1 X118.53 Y97.599
G0 F3600 X118.034 Y97.669
G1 F1200 X126.579 Y106.214 E37.7062
G1 X126.649 Y106.284
G0 F3600 X126.579 Y106.78
G1 F1200 X117.468 Y97.669 E38.35645
G1 X117.398 Y97.599
G0 F3600 X116.903 Y97.669
G1 F1200 X126.579 Y107.345 E39.04701
G1 X126.649 Y107.415
G0 F3600 X126.579 Y107.911
G1 F1200 X116.337 Y97.669 E39.77797
G1 X116.267 Y97.599
G0 F3600 X115.771 Y97.669
G1 F1200 X126.579 Y108.477 E40.54932
G1 X126.649 Y108.547
G0 F3600 X126.579 Y109.042
G1 F1200 X115.206 Y97.669 E41.361
G1 X115.136 Y97.599
G0 F3600 X114.64 Y97.669
G1 F1200 X126.579 Y109.608 E42.21307
G1 X126.649 Y109.678
G0 F3600 X126.579 Y110.174
G1 F1200 X114.074 Y97.669 E43.10553
G1 X114.004 Y97.599
G0 F3600 X113.509 Y97.669
G1 F1200 X126.579 Y110.739 E44.03832
G1 X126.649 Y110.809
G0 F3600 X126.579 Y111.305
G1 F1200 X112.943 Y97.669 E45.01151
G1 X112.873 Y97.599
G0 F3600 X112.377 Y97.669
G1 F1200 X126.579 Y111.871 E46.02508
G1 X126.649 Y111.941
G0 F3600 X126.471 Y112.329
G1 F1200 X111.811 Y97.669 E47.07135
G1 X111.741 Y97.599
G0 F3600 X111.246 Y97.669
G1 F1200 X125.906 Y112.329 E48.11762
G1 X125.976 Y112.399
G0 F3600 X125.34 Y112.329
G1 F1200 X110.68 Y97.669 E49.16388
G1 X110.61 Y97.599
G0 F3600 X110.114 Y97.669
G1 F1200 X124.774 Y112.329 E50.21015
G1 X124.844 Y112.399
G0 F3600 X124.208 Y112.329
G1 F1200 X109.549 Y97.669 E51.25638
G1 X109.479 Y97.599
G0 F3600 X108.983 Y97.669
G1 F1200 X123.643 Y112.329 E52.30264
G1 X123.713 Y112.399
G0 F3600 X123.077 Y112.329
G1 F1200 X108.417 Y97.669 E53.34891
G1 X108.347 Y97.599
G0 F3600 X107.852 Y97.669
G1 F1200 X122.511 Y112.329 E54.39514
G1 X122.581 Y112.399
G0 F3600 X121.946 Y112.329
G1 F1200 X107.286 Y97.669 E55.4414
G1 X107.216 Y97.599
G0 F3600 X106.72 Y97.669
G1 F1200 X121.38 Y112.329 E56.48767
G1 X121.45 Y112.399
G0 F3600 X120.814 Y112.329
G1 F1200 X106.155 Y97.669 E57.5339
G1 X106.085 Y97.599
G0 F3600 X105.589 Y97.669
G1 F1200 X120.249 Y112.329 E58.58016
G1 X120.319 Y112.399
G0 F3600 X119.683 Y112.329
G1 F1200 X105.023 Y97.669 E59.62643
G1 X104.953 Y97.599
G0 F3600 X104.458 Y97.669
G1 F1200 X119.117 Y112.329 E60.67266
G1 X119.187 Y112.399
G0 F3600 X118.552 Y112.329
G1 F1200 X103.892 Y97.669 E61.71892
G1 X103.822 Y97.599
G0 F3600 X103.326 Y97.669
G1 F1200 X117.986 Y112.329 E62.76519
G1 X118.056 Y112.399
G0 F3600 X117.42 Y112.329
G1 F1200 X102.761 Y97.669 E63.81142
G1 X102.691 Y97.599
G0 F3600 X102.195 Y97.669
G1 F1200 X116.855 Y112.329 E64.85768
G1 X116.925 Y112.399
G0 F3600 X116.289 Y112.329
G1 F1200 X101.629 Y97.669 E65.90395
G1 X101.559 Y97.599
G0 F3600 X101.063 Y97.669
G1 F1200 X115.723 Y112.329 E66.95021
G1 X115.793 Y112.399
G0 F3600 X115.157 Y112.329
G1 F1200 X100.498 Y97.669 E67.99644
G1 X100.428 Y97.599
G0 F3600 X99.932 Y97.669
G1 F1200 X114.592 Y112.329 E69.04271
G1 X114.662 Y112.399
G0 F3600 X114.026 Y112.329
G1 F1200 X99.366 Y97.669 E70.08897
G1 X99.296 Y97.599
G0 F3600 X98.801 Y97.669
G1 F1200 X113.46 Y112.329 E71.1352
G1 X113.53 Y112.399
G0 F3600 X112.895 Y112.329
G1 F1200 X98.235 Y97.669 E72.18147
G1 X98.165 Y97.599
G0 F3600 X97.669 Y97.669
G1 F1200 X112.329 Y112.329 E73.22773
G1 X112.399 Y112.399
G0 F3600 X111.763 Y112.329
G1 F1200 X97.104 Y97.669 E74.27396
G1 X97.034 Y97.599
G0 F3600 X96.538 Y97.669
G1 F1200 X111.198 Y112.329 E75.32023
G1 X111.268 Y112.399
G0 F3600 X110.632 Y112.329
G1 F1200 X95.972 Y97.669 E76.36649
G1 X95.902 Y97.599
G0 F3600 X95.407 Y97.669
G1 F1200 X110.066 Y112.329 E77.41272
G1 X110.136 Y112.399
G0 F3600 X109.501 Y112.329
G1 F1200 X94.841 Y97.669 E78.45899
G1 X94.771 Y97.599
G0 F3600 X94.275 Y97.669
G1 F1200 X108.935 Y112.329 E79.50525
G1 X109.005 Y112.399
G0 F3600 X108.369 Y112.329
G1 F1200 X93.71 Y97.669 E80.55148
G1 X93.64 Y97.599
G0 F3600 X93.144 Y97.669
G1 F1200 X107.804 Y112.329 E81.59775
G1 X107.874 Y112.399
G0 F3600 X107.238 Y112.329
G1 F1200 X92.578 Y97.669 E82.64401
G1 X92.508 Y97.599
G0 F3600 X92.012 Y97.669
G1 F1200 X106.672 Y112.329 E83.69028
G1 X106.742 Y112.399
G0 F3600 X106.107 Y112.329
G1 F1200 X91.447 Y97.669 E84.73655
G1 X91.377 Y97.599
G0 F3600 X90.881 Y97.669
G1 F1200 X105.541 Y112.329 E85.78281
G1 X105.611 Y112.399
G0 F3600 X104.975 Y112.329
G1 F1200 X90.315 Y97.669 E86.82908
G1 X90.245 Y97.599
G0 F3600 X89.75 Y97.669
G1 F1200 X104.409 Y112.329 E87.87531
G1 X104.479 Y112.399
G0 F3600 X103.844 Y112.329
G1 F1200 X89.184 Y97.669 E88.92157
G1 X89.114 Y97.599
G0 F3600 X88.618 Y97.669
G1 F1200 X103.278 Y112.329 E89.96784
G1 X103.348 Y112.399
G0 F3600 X102.712 Y112.329
G1 F1200 X88.053 Y97.669 E91.01407
G1 X87.983 Y97.599
G0 F3600 X87.487 Y97.669
G1 F1200 X102.147 Y112.329 E92.06033
G1 X102.217 Y112.399
G0 F3600 X101.581 Y112.329
G1 F1200 X86.921 Y97.669 E93.1066
G1 X86.851 Y97.599
G0 F3600 X86.356 Y97.669
G1 F1200 X101.015 Y112.329 E94.15283
G1 X101.085 Y112.399
G0 F3600 X100.45 Y112.329
G1 F1200 X85.79 Y97.669 E95.19909
G1 X85.72 Y97.599
G0 F3600 X85.224 Y97.669
G1 F1200 X99.884 Y112.329 E96.24536
G1 X99.954 Y112.399
G0 F3600 X99.318 Y112.329
G1 F1200 X84.659 Y97.669 E97.29159
G1 X84.589 Y97.599
G0 F3600 X84.093 Y97.669
G1 F1200 X98.753 Y112.329 E98.33785
G1 X98.823 Y112.399
G0 F3600 X98.187 Y112.329
G1 F1200 X83.527 Y97.669 E99.38412
G1 X83.457 Y97.599
G0 F3600 X83.419 Y98.127
G1 F1200 X97.621 Y112.329 E100.3977
G1 X97.691 Y112.399
G0 F3600 X97.056 Y112.329
G1 F1200 X83.419 Y98.693 E101.37092
G1 X83.349 Y98.623
G0 F3600 X83.419 Y99.258
G1 F1200 X96.49 Y112.329 E102.30378
G1 X96.56 Y112.399
G0 F3600 X95.924 Y112.329
G1 F1200 X83.419 Y99.824 E103.19624
G1 X83.349 Y99.754
G0 F3600 X83.419 Y100.39
G1 F1200 X95.359 Y112.329 E104.04835
G1 X95.429 Y112.399
G0 F3600 X94.793 Y112.329
G1 F1200 X83.419 Y100.955 E104.8601
G1 X83.349 Y100.885
G0 F3600 X83.419 Y101.521
G1 F1200 X94.227 Y112.329 E105.63145
G1 X94.297 Y112.399
G0 F3600 X93.661 Y112.329
G1 F1200 X83.419 Y102.087 E106.36241
G1 X83.349 Y102.017
G0 F3600 X83.419 Y102.652
G1 F1200 X93.096 Y112.329 E107.05304
G1 X93.166 Y112.399
G0 F3600 X92.53 Y112.329
G1 F1200 X83.419 Y103.218 E107.70328
G1 X83.349 Y103.148
G0 F3600 X83.419 Y103.784
G1 F1200 X91.964 Y112.329 E108.31313
G1 X92.034 Y112.399
G0 F3600 X91.399 Y112.329
G1 F1200 X83.419 Y104.349 E108.88265
G1 X83.349 Y104.279
G0 F3600 X83.419 Y104.915
G1 F1200 X90.833 Y112.329 E109.41178
G1 X90.903 Y112.399
G0 F3600 X90.267 Y112.329
G1 F1200 X83.419 Y105.481 E109.90051
G1 X83.349 Y105.411
G0 F3600 X83.419 Y106.046
G1 F1200 X89.702 Y112.329 E110.34892
G1 X89.772 Y112.399
G0 F3600 X89.136 Y112.329
G1 F1200 X83.419 Y106.612 E110.75694
G1 X83.349 Y106.542
G0 F3600 X83.419 Y107.178
G1 F1200 X88.57 Y112.329 E111.12456
G1 X88.64 Y112.399
G0 F3600 X88.005 Y112.329
G1 F1200 X83.419 Y107.743 E111.45185
G1 X83.349 Y107.673
G0 F3600 X83.419 Y108.309
G1 F1200 X87.439 Y112.329 E111.73876
G1 X87.509 Y112.399
G0 F3600 X86.873 Y112.329
G1 F1200 X83.419 Y108.875 E111.98526
G1 X83.349 Y108.805
G0 F3600 X83.419 Y109.441
G1 F1200 X86.308 Y112.329 E112.19141
G1 X86.378 Y112.399
G0 F3600 X85.742 Y112.329
G1 F1200 X83.419 Y110.006 E112.3572
G1 X83.349 Y109.936
G0 F3600 X83.419 Y110.572
G1 F1200 X85.176 Y112.329 E112.4826
G1 X85.246 Y112.399
G0 F3600 X84.61 Y112.329
G1 F1200 X83.419 Y111.138 E112.5676
G1 X83.349 Y111.068
G0 F3600 X83.419 Y111.703
G1 F1200 X84.045 Y112.329 E112.61227
G1 X84.115 Y112.399
G0 F3600 X83.479 Y112.329
G1 F1200 X83.419 Y112.269 E112.61655
G0 F3600 X126.828 Y97.215
G0 X126.853 Y97.119
;TIME_ELAPSED:118.184304
;LAYER:1
M140 S50
M106 S255
G0 F5400 X126.853 Y97.119 Z0.5
;TYPE:WALL-INNER
G1 F1800 X126.945 Y97.157 E112.6199
G1 X127.029 Y97.221 E112.62346
G1 X127.093 Y97.305 E112.62701
G1 X127.131 Y97.397 E112.63036
G1 X127.15 Y97.54 E112.63521
G1 X127.15 Y112.9 E113.15198
G1 X82.85 Y112.9 E114.64238
G1 X82.85 Y97.54 E115.15915
G1 X82.869 Y97.397 E115.164
G1 X82.907 Y97.305 E115.16735
G1 X82.971 Y97.221 E115.1709
G1 X83.055 Y97.157 E115.17446
G1 X83.147 Y97.119 E115.17781
G1 X83.29 Y97.1 E115.18266
G1 X126.71 Y97.1 E116.64346
G1 X126.853 Y97.119 E116.64831
G0 F5400 X126.954 Y96.728
;TYPE:WALL-OUTER
G1 F1200 X127.149 Y96.809 E116.65542
G1 X127.314 Y96.936 E116.66242
G1 X127.441 Y97.101 E116.66943
G1 X127.522 Y97.296 E116.67653
G1 X127.55 Y97.511 E116.68383
G1 X127.55 Y113.3 E117.21503
G1 X82.45 Y113.3 E118.73235
G1 X82.45 Y97.511 E119.26355
G1 X82.478 Y97.296 E119.27084
G1 X82.559 Y97.101 E119.27794
G1 X82.686 Y96.936 E119.28495
G1 X82.851 Y96.809 E119.29196
G1 X83.046 Y96.728 E119.29906
G1 X83.261 Y96.7 E119.30635
G1 X126.739 Y96.7 E120.76911
G1 X126.954 Y96.728 E120.7764
G0 F5400 X127.138 Y96.804
G0 X126.75 Y97.5
;TYPE:SKIN
G1 F1200 X126.76 Y97.559 E120.77841
G1 X126.76 Y112.51 E121.28142
G1 X83.24 Y112.51 E122.74559
G1 X83.24 Y97.559 E123.24859
G1 X83.252 Y97.497 E123.25072
G1 X83.309 Y97.49 E123.25265
G1 X126.691 Y97.49 E124.71217
G1 X126.75 Y97.5 E124.71418
G0 F5400 X126.579 Y112.14
G1 F1200 X126.389 Y112.329 E124.7232
G0 F5400 X125.823 Y112.329
G1 F1200 X126.579 Y111.574 E124.75915
G1 X126.649 Y111.504
G0 F5400 X126.579 Y111.008
G1 F1200 X125.258 Y112.329 E124.822
G1 X125.188 Y112.399
G0 F5400 X124.692 Y112.329
G1 F1200 X126.579 Y110.443 E124.91176
G1 X126.649 Y110.373
G0 F5400 X126.579 Y109.877
G1 F1200 X124.126 Y112.329 E125.02844
G1 X124.056 Y112.399
G0 F5400 X123.561 Y112.329
G1 F1200 X126.579 Y109.311 E125.17204
G1 X126.649 Y109.241
G0 F5400 X126.579 Y108.745
G1 F1200 X122.995 Y112.329 E125.34256
G1 X122.925 Y112.399
G0 F5400 X122.429 Y112.329
G1 F1200 X126.579 Y108.18 E125.53999
G1 X126.649 Y108.11
G0 F5400 X126.579 Y107.614
G1 F1200 X121.864 Y112.329 E125.76433
G1 X121.794 Y112.399
G0 F5400 X121.298 Y112.329
G1 F1200 X126.579 Y107.048 E126.01559
G1 X126.649 Y106.978
G0 F5400 X126.579 Y106.483
G1 F1200 X120.732 Y112.329 E126.29376
G1 X120.662 Y112.399
G0 F5400 X120.167 Y112.329
G1 F1200 X126.579 Y105.917 E126.59884
G1 X126.649 Y105.847
G0 F5400 X126.579 Y105.351
G1 F1200 X119.601 Y112.329 E126.93085
G1 X119.531 Y112.399
G0 F5400 X119.035 Y112.329
G1 F1200 X126.579 Y104.786 E127.28976
G1 X126.649 Y104.716
G0 F5400 X126.579 Y104.22
G1 F1200 X118.47 Y112.329 E127.67558
G1 X118.4 Y112.399
G0 F5400 X117.904 Y112.329
G1 F1200 X126.579 Y103.654 E128.08833
G1 X126.649 Y103.584
G0 F5400 X126.579 Y103.089
