;FLAVOR:Marlin
;TIME:633
;Filament used: 0.493497m
;Layer height: 0.2
;Generated with Cura_SteamEngine 3.2.1
M190 S50
M104 S210
M109 S210
M82 ;absolute extrusion mode
G28 ;Home
G1 Z15.0 F6000 ;Move the platform down 15mm
;Prime the extruder
G92 E0
G1 F200 E3
G92 E0
;LAYER_COUNT:3
;LAYER:0
M107
G0 F3600 X56.741 Y93.725 Z0.3
;TYPE:SKIRT
G1 F1200 X57.169 Y93.468 E0.02519
G1 X57.648 Y93.227 E0.05225
G1 X58.157 Y93.059 E0.0793
G1 X58.667 Y92.972 E0.10541
G1 X59.202 Y92.919 E0.13254
G1 X59.558 Y92.901 E0.15053
G1 X150.774 Y92.917 E4.75378
G1 X151.308 Y92.957 E4.7808
G1 X151.807 Y93.069 E4.80661
G1 X152.214 Y93.191 E4.82805
G1 X152.714 Y93.382 E4.85506
G1 X153.181 Y93.646 E4.88213
G1 X153.679 Y94.048 E4.91443
G1 X154.044 Y94.4 E4.94002
G1 X154.401 Y94.8 E4.96708
G1 X154.695 Y95.248 E4.99412
G1 X154.919 Y95.736 E5.02122
G1 X155.087 Y96.348 E5.05325
G1 X155.242 Y97.202 E5.09705
G1 X155.3 Y97.847 E5.12973
G1 X155.291 Y113.493 E5.91931
G1 X155.251 Y114.028 E5.94638
G1 X155.131 Y114.551 E5.97346
G1 X154.936 Y115.05 E6.0005
G1 X154.668 Y115.515 E6.02758
G1 X154.335 Y115.935 E6.05463
G1 X153.942 Y116.3 E6.0817
G1 X153.5 Y116.603 E6.10874
G1 X153.018 Y116.838 E6.1358
G1 X152.506 Y116.998 E6.16288
G1 X151.976 Y117.08 E6.18994
G1 X151.691 Y117.091 E6.20433
G1 X58.309 Y117.091 E10.91688
G1 X57.774 Y117.051 E10.94396
G1 X57.251 Y116.932 E10.97103
G1 X56.752 Y116.737 E10.99806
G1 X56.287 Y116.469 E11.02515
G1 X55.867 Y116.136 E11.0522
G1 X55.501 Y115.744 E11.07926
G1 X55.198 Y115.302 E11.10631
G1 X54.963 Y114.819 E11.13341
G1 X54.803 Y114.308 E11.16043
G1 X54.72 Y113.778 E11.18751
G1 X54.709 Y113.49 E11.20205
G1 X54.714 Y97.457 E12.01116
G1 X54.754 Y96.922 E12.03824
G1 X54.873 Y96.399 E12.0653
G1 X55.01 Y96.028 E12.08526
G1 X55.29 Y95.381 E12.12084
G1 X55.539 Y94.906 E12.1479
G1 X55.856 Y94.474 E12.17495
G1 X56.234 Y94.093 E12.20203
G1 X56.741 Y93.725 E12.23365
G0 F3600 X56.947 Y94.068
G1 F1200 X57.375 Y93.811 E12.25884
G1 X57.827 Y93.585 E12.28434
G1 X58.31 Y93.434 E12.30988
G1 X58.707 Y93.37 E12.33017
G1 X59.242 Y93.317 E12.3573
G1 X59.558 Y93.301 E12.37327
G1 X150.774 Y93.317 E16.97652
G1 X151.278 Y93.357 E17.00203
G1 X151.692 Y93.452 E17.02347
G1 X152.099 Y93.574 E17.04491
G1 X152.57 Y93.757 E17.07041
G1 X153.007 Y94.012 E17.09594
G1 X153.401 Y94.336 E17.12168
G1 X153.766 Y94.688 E17.14727
G1 X154.101 Y95.066 E17.17276
G1 X154.373 Y95.493 E17.19831
G1 X154.573 Y95.957 E17.22381
G1 X154.694 Y96.42 E17.24796
G1 X154.849 Y97.274 E17.29176
G1 X154.9 Y97.847 E17.32079
G1 X154.891 Y113.493 E18.11037
G1 X154.851 Y113.997 E18.13589
G1 X154.732 Y114.488 E18.16138
G1 X154.537 Y114.955 E18.18692
G1 X154.271 Y115.385 E18.21244
G1 X153.94 Y115.767 E18.23795
G1 X153.554 Y116.093 E18.26344
G1 X153.121 Y116.354 E18.28896
G1 X152.652 Y116.543 E18.31448
G1 X152.159 Y116.657 E18.34001
G1 X151.691 Y116.691 E18.36369
G1 X58.309 Y116.691 E23.07624
G1 X57.805 Y116.651 E23.10176
G1 X57.314 Y116.532 E23.12725
G1 X56.847 Y116.338 E23.15277
G1 X56.417 Y116.072 E23.17829
G1 X56.034 Y115.742 E23.2038
G1 X55.708 Y115.355 E23.22934
G1 X55.447 Y114.922 E23.25485
G1 X55.257 Y114.454 E23.28034
G1 X55.144 Y113.961 E23.30587
G1 X55.109 Y113.49 E23.3297
G1 X55.114 Y97.457 E24.13881
G1 X55.154 Y96.953 E24.16433
G1 X55.273 Y96.462 E24.18982
G1 X55.377 Y96.187 E24.20466
G1 X55.657 Y95.54 E24.24024
G1 X55.894 Y95.093 E24.26577
G1 X56.198 Y94.69 E24.29125
G1 X56.562 Y94.339 E24.31676
G1 X56.947 Y94.068 E24.34052
G1 F1500 E17.84052
G0 F3600 X58.836 Y95.901
G0 X59.341 Y97.119
G0 X150.778 Y97.215
G0 X150.803 Y97.119
;TYPE:WALL-INNER
G1 F1500 E24.34052
G1 F1200 X150.895 Y97.157 E24.34555
G1 X150.979 Y97.221 E24.35088
G1 X151.043 Y97.305 E24.35621
G1 X151.081 Y97.397 E24.36123
G1 X151.1 Y97.54 E24.36851
G1 X151.1 Y112.9 E25.14366
G1 X58.9 Y112.9 E29.79656
G1 X58.9 Y97.54 E30.5717
G1 X58.919 Y97.397 E30.57898
G1 X58.957 Y97.305 E30.58401
G1 X59.021 Y97.221 E30.58934
G1 X59.105 Y97.157 E30.59467
G1 X59.197 Y97.119 E30.59969
G1 X59.34 Y97.1 E30.60697
G1 X150.66 Y97.1 E35.21546
G1 X150.803 Y97.119 E35.22274
G0 F3600 X150.904 Y96.728
;TYPE:WALL-OUTER
G1 F1200 X151.099 Y96.809 E35.2334
G1 X151.264 Y96.936 E35.2439
G1 X151.391 Y97.101 E35.25441
G1 X151.472 Y97.296 E35.26507
G1 X151.5 Y97.511 E35.27601
G1 X151.5 Y113.3 E36.07281
G1 X58.5 Y113.3 E40.76608
G1 X58.5 Y97.511 E41.56288
G1 X58.528 Y97.296 E41.57382
G1 X58.609 Y97.101 E41.58447
G1 X58.736 Y96.936 E41.59498
G1 X58.901 Y96.809 E41.60549
G1 X59.096 Y96.728 E41.61614
G1 X59.311 Y96.7 E41.62709
G1 X150.689 Y96.7 E46.2385
G1 X150.904 Y96.728 E46.24945
G0 F3600 X151.088 Y96.804
G0 X150.7 Y97.5
;TYPE:SKIN
G1 F1200 X150.71 Y97.559 E46.25247
G1 X150.71 Y112.51 E47.00697
G1 X59.29 Y112.51 E51.62051
G1 X59.29 Y97.559 E52.37502
G1 X59.302 Y97.497 E52.3782
G1 X59.359 Y97.49 E52.3811
G1 X150.641 Y97.49 E56.98768
G1 X150.7 Y97.5 E56.9907
G0 F3600 X150.529 Y97.92
G1 F1200 X150.278 Y97.669 E57.00861
G0 F3600 X149.712 Y97.669
G1 F1200 X150.529 Y98.486 E57.06692
G1 X150.599 Y98.556
G0 F3600 X150.529 Y99.052
G1 F1200 X149.147 Y97.669 E57.16558
G1 X149.077 Y97.599
G0 F3600 X148.581 Y97.669
G1 F1200 X150.529 Y99.617 E57.30461
G1 X150.599 Y99.687
G0 F3600 X150.529 Y100.183
G1 F1200 X148.015 Y97.669 E57.48403
G1 X147.945 Y97.599
G0 F3600 X147.45 Y97.669
G1 F1200 X150.529 Y100.749 E57.70381
G1 X150.599 Y100.819
G0 F3600 X150.529 Y101.314
G1 F1200 X146.884 Y97.669 E57.96395
G1 X146.814 Y97.599
G0 F3600 X146.318 Y97.669
G1 F1200 X150.529 Y101.88 E58.26448
G1 X150.599 Y101.95
G0 F3600 X150.529 Y102.446
G1 F1200 X145.753 Y97.669 E58.60538
G1 X145.683 Y97.599
G0 F3600 X145.187 Y97.669
G1 F1200 X150.529 Y103.012 E58.98666
G1 X150.599 Y103.082
G0 F3600 X150.529 Y103.577
G1 F1200 X144.621 Y97.669 E59.40831
G1 X144.551 Y97.599
G0 F3600 X144.056 Y97.669
G1 F1200 X150.529 Y104.143 E59.87032
G1 X150.599 Y104.213
G0 F3600 X150.529 Y104.709
G1 F1200 X143.49 Y97.669 E60.37272
G1 X143.42 Y97.599
G0 F3600 X142.924 Y97.669
G1 F1200 X150.529 Y105.274 E60.91548
G1 X150.599 Y105.344
G0 F3600 X150.529 Y105.84
G1 F1200 X142.358 Y97.669 E61.49863
G1 X142.288 Y97.599
G0 F3600 X141.793 Y97.669
G1 F1200 X150.529 Y106.406 E62.12214
G1 X150.599 Y106.476
G0 F3600 X150.529 Y106.971
G1 F1200 X141.227 Y97.669 E62.78601
G1 X141.157 Y97.599
G0 F3600 X140.661 Y97.669
G1 F1200 X150.529 Y107.537 E63.49028
G1 X150.599 Y107.607
G0 F3600 X150.529 Y108.103
G1 F1200 X140.096 Y97.669 E64.23491
G1 X140.026 Y97.599
G0 F3600 X139.53 Y97.669
G1 F1200 X150.529 Y108.668 E65.01989
G1 X150.599 Y108.738
G0 F3600 X150.529 Y109.234
G1 F1200 X138.964 Y97.669 E65.84527
G1 X138.894 Y97.599
G0 F3600 X138.399 Y97.669
G1 F1200 X150.529 Y109.8 E66.71101
G1 X150.599 Y109.87
G0 F3600 X150.529 Y110.365
G1 F1200 X137.833 Y97.669 E67.6171
G1 X137.763 Y97.599
G0 F3600 X137.267 Y97.669
G1 F1200 X150.529 Y110.931 E68.5636
G1 X150.599 Y111.001
G0 F3600 X150.529 Y111.497
G1 F1200 X136.702 Y97.669 E69.55045
G1 X136.632 Y97.599
G0 F3600 X136.136 Y97.669
G1 F1200 X150.529 Y112.062 E70.57766
G1 X150.599 Y112.132
G0 F3600 X150.23 Y112.329
G1 F1200 X135.57 Y97.669 E71.62392
G1 X135.5 Y97.599
G0 F3600 X135.005 Y97.669
G1 F1200 X149.664 Y112.329 E72.67015
G1 X149.734 Y112.399
G0 F3600 X149.099 Y112.329
G1 F1200 X134.439 Y97.669 E73.71642
G1 X134.369 Y97.599
G0 F3600 X133.873 Y97.669
G1 F1200 X148.533 Y112.329 E74.76268
G1 X148.603 Y112.399
G0 F3600 X147.967 Y112.329
G1 F1200 X133.308 Y97.669 E75.80891
G1 X133.238 Y97.599
G0 F3600 X132.742 Y97.669
G1 F1200 X147.402 Y112.329 E76.85518
G1 X147.472 Y112.399
G0 F3600 X146.836 Y112.329
G1 F1200 X132.176 Y97.669 E77.90144
G1 X132.106 Y97.599
G0 F3600 X131.61 Y97.669
G1 F1200 X146.27 Y112.329 E78.94771
G1 X146.34 Y112.399
G0 F3600 X145.705 Y112.329
G1 F1200 X131.045 Y97.669 E79.99397
G1 X130.975 Y97.599
G0 F3600 X130.479 Y97.669
G1 F1200 X145.139 Y112.329 E81.04024
G1 X145.209 Y112.399
G0 F3600 X144.573 Y112.329
G1 F1200 X129.913 Y97.669 E82.0865
G1 X129.843 Y97.599
G0 F3600 X129.348 Y97.669
G1 F1200 X144.007 Y112.329 E83.13273
G1 X144.077 Y112.399
G0 F3600 X143.442 Y112.329
G1 F1200 X128.782 Y97.669 E84.179
G1 X128.712 Y97.599
G0 F3600 X128.216 Y97.669
G1 F1200 X142.876 Y112.329 E85.22526
G1 X142.946 Y112.399
G0 F3600 X142.31 Y112.329
G1 F1200 X127.651 Y97.669 E86.27149
G1 X127.581 Y97.599
G0 F3600 X127.085 Y97.669
G1 F1200 X141.745 Y112.329 E87.31776
G1 X141.815 Y112.399
G0 F3600 X141.179 Y112.329
G1 F1200 X126.519 Y97.669 E88.36402
G1 X126.449 Y97.599
G0 F3600 X125.954 Y97.669
G1 F1200 X140.613 Y112.329 E89.41025
G1 X140.683 Y112.399
G0 F3600 X140.048 Y112.329
G1 F1200 X125.388 Y97.669 E90.45652
G1 X125.318 Y97.599
G0 F3600 X124.822 Y97.669
G1 F1200 X139.482 Y112.329 E91.50279
G1 X139.552 Y112.399
G0 F3600 X138.916 Y112.329
G1 F1200 X124.257 Y97.669 E92.54901
G1 X124.187 Y97.599
G0 F3600 X123.691 Y97.669
G1 F1200 X138.351 Y112.329 E93.59528
G1 X138.421 Y112.399
G0 F3600 X137.785 Y112.329
G1 F1200 X123.125 Y97.669 E94.64155
G1 X123.055 Y97.599
G0 F3600 X122.559 Y97.669
G1 F1200 X137.219 Y112.329 E95.68781
G1 X137.289 Y112.399
G0 F3600 X136.654 Y112.329
G1 F1200 X121.994 Y97.669 E96.73408
G1 X121.924 Y97.599
G0 F3600 X121.428 Y97.669
G1 F1200 X136.088 Y112.329 E97.78034
G1 X136.158 Y112.399
G0 F3600 X135.522 Y112.329
G1 F1200 X120.862 Y97.669 E98.82661
G1 X120.792 Y97.599
G0 F3600 X120.297 Y97.669
G1 F1200 X134.956 Y112.329 E99.87284
G1 X135.026 Y112.399
G0 F3600 X134.391 Y112.329
G1 F1200 X119.731 Y97.669 E100.9191
G1 X119.661 Y97.599
G0 F3600 X119.165 Y97.669
G1 F1200 X133.825 Y112.329 E101.96537
G1 X133.895 Y112.399
G0 F3600 X133.259 Y112.329
G1 F1200 X118.6 Y97.669 E103.0116
G1 X118.53 Y97.599
G0 F3600 X118.034 Y97.669
G1 F1200 X132.694 Y112.329 E104.05786
G1 X132.764 Y112.399
G0 F3600 X132.128 Y112.329
G1 F1200 X117.468 Y97.669 E105.10413
G1 X117.398 Y97.599
G0 F3600 X116.903 Y97.669
G1 F1200 X131.562 Y112.329 E106.15036
G1 X131.632 Y112.399
G0 F3600 X130.997 Y112.329
G1 F1200 X116.337 Y97.669 E107.19662
G1 X116.267 Y97.599
G0 F3600 X115.771 Y97.669
G1 F1200 X130.431 Y112.329 E108.24289
G1 X130.501 Y112.399
G0 F3600 X129.865 Y112.329
G1 F1200 X115.206 Y97.669 E109.28912
G1 X115.136 Y97.599
G0 F3600 X114.64 Y97.669
G1 F1200 X129.3 Y112.329 E110.33538
G1 X129.37 Y112.399
G0 F3600 X128.734 Y112.329
G1 F1200 X114.074 Y97.669 E111.38165
G1 X114.004 Y97.599
G0 F3600 X113.509 Y97.669
G1 F1200 X128.168 Y112.329 E112.42788
G1 X128.238 Y112.399
G0 F3600 X127.603 Y112.329
G1 F1200 X112.943 Y97.669 E113.47414
G1 X112.873 Y97.599
G0 F3600 X112.377 Y97.669
G1 F1200 X127.037 Y112.329 E114.52041
G1 X127.107 Y112.399
G0 F3600 X126.471 Y112.329
G1 F1200 X111.811 Y97.669 E115.56667
G1 X111.741 Y97.599
G0 F3600 X111.246 Y97.669
G1 F1200 X125.906 Y112.329 E116.61294
G1 X125.976 Y112.399
G0 F3600 X125.34 Y112.329
G1 F1200 X110.68 Y97.669 E117.6592
G1 X110.61 Y97.599
G0 F3600 X110.114 Y97.669
G1 F1200 X124.774 Y112.329 E118.70547
G1 X124.844 Y112.399
G0 F3600 X124.208 Y112.329
G1 F1200 X109.549 Y97.669 E119.7517
G1 X109.479 Y97.599
G0 F3600 X108.983 Y97.669
G1 F1200 X123.643 Y112.329 E120.79796
G1 X123.713 Y112.399
G0 F3600 X123.077 Y112.329
G1 F1200 X108.417 Y97.669 E121.84423
G1 X108.347 Y97.599
G0 F3600 X107.852 Y97.669
G1 F1200 X122.511 Y112.329 E122.89046
G1 X122.581 Y112.399
G0 F3600 X121.946 Y112.329
G1 F1200 X107.286 Y97.669 E123.93673
G1 X107.216 Y97.599
G0 F3600 X106.72 Y97.669
G1 F1200 X121.38 Y112.329 E124.98299
G1 X121.45 Y112.399
G0 F3600 X120.814 Y112.329
G1 F1200 X106.155 Y97.669 E126.02922
G1 X106.085 Y97.599
G0 F3600 X105.589 Y97.669
G1 F1200 X120.249 Y112.329 E127.07549
G1 X120.319 Y112.399
G0 F3600 X119.683 Y112.329
G1 F1200 X105.023 Y97.669 E128.12175
G1 X104.953 Y97.599
G0 F3600 X104.458 Y97.669
G1 F1200 X119.117 Y112.329 E129.16798
G1 X119.187 Y112.399
G0 F3600 X118.552 Y112.329
G1 F1200 X103.892 Y97.669 E130.21425
G1 X103.822 Y97.599
G0 F3600 X103.326 Y97.669
G1 F1200 X117.986 Y112.329 E131.26051
G1 X118.056 Y112.399
G0 F3600 X117.42 Y112.329
G1 F1200 X102.761 Y97.669 E132.30674
G1 X102.691 Y97.599
G0 F3600 X102.195 Y97.669
G1 F1200 X116.855 Y112.329 E133.35301
G1 X116.925 Y112.399
G0 F3600 X116.289 Y112.329
G1 F1200 X101.629 Y97.669 E134.39927
G1 X101.559 Y97.599
G0 F3600 X101.063 Y97.669
G1 F1200 X115.723 Y112.329 E135.44554
G1 X115.793 Y112.399
G0 F3600 X115.157 Y112.329
G1 F1200 X100.498 Y97.669 E136.49177
G1 X100.428 Y97.599
G0 F3600 X99.932 Y97.669
G1 F1200 X114.592 Y112.329 E137.53803
G1 X114.662 Y112.399
G0 F3600 X114.026 Y112.329
G1 F1200 X99.366 Y97.669 E138.5843
G1 X99.296 Y97.599
G0 F3600 X98.801 Y97.669
G1 F1200 X113.46 Y112.329 E139.63053
G1 X113.53 Y112.399
G0 F3600 X112.895 Y112.329
G1 F1200 X98.235 Y97.669 E140.67679
G1 X98.165 Y97.599
G0 F3600 X97.669 Y97.669
G1 F1200 X112.329 Y112.329 E141.72306
G1 X112.399 Y112.399
G0 F3600 X111.763 Y112.329
G1 F1200 X97.104 Y97.669 E142.76929
G1 X97.034 Y97.599
G0 F3600 X96.538 Y97.669
G1 F1200 X111.198 Y112.329 E143.81555
G1 X111.268 Y112.399
G0 F3600 X110.632 Y112.329
G1 F1200 X95.972 Y97.669 E144.86182
G1 X95.902 Y97.599
G0 F3600 X95.407 Y97.669
G1 F1200 X110.066 Y112.329 E145.90805
G1 X110.136 Y112.399
G0 F3600 X109.501 Y112.329
G1 F1200 X94.841 Y97.669 E146.95431
G1 X94.771 Y97.599
G0 F3600 X94.275 Y97.669
G1 F1200 X108.935 Y112.329 E148.00058
G1 X109.005 Y112.399
G0 F3600 X108.369 Y112.329
G1 F1200 X93.71 Y97.669 E149.04681
G1 X93.64 Y97.599
G0 F3600 X93.144 Y97.669
G1 F1200 X107.804 Y112.329 E150.09307
G1 X107.874 Y112.399
G0 F3600 X107.238 Y112.329
G1 F1200 X92.578 Y97.669 E151.13934
G1 X92.508 Y97.599
G0 F3600 X92.012 Y97.669
G1 F1200 X106.672 Y112.329 E152.1856
G1 X106.742 Y112.399
G0 F3600 X106.107 Y112.329
G1 F1200 X91.447 Y97.669 E153.23187
G1 X91.377 Y97.599
G0 F3600 X90.881 Y97.669
G1 F1200 X105.541 Y112.329 E154.27813
G1 X105.611 Y112.399
G0 F3600 X104.974 Y112.328
G1 F1200 X90.315 Y97.669 E155.32433
G1 X90.245 Y97.599
G0 F3600 X89.75 Y97.669
G1 F1200 X104.409 Y112.328 E156.37052
G1 X104.479 Y112.398
G0 F3600 X103.843 Y112.328
G1 F1200 X89.184 Y97.669 E157.41672
G1 X89.114 Y97.599
G0 F3600 X88.618 Y97.669
G1 F1200 X103.277 Y112.328 E158.46291
G1 X103.347 Y112.398
G0 F3600 X102.712 Y112.328
G1 F1200 X88.053 Y97.669 E159.5091
G1 X87.983 Y97.599
G0 F3600 X87.487 Y97.669
G1 F1200 X102.146 Y112.328 E160.5553
G1 X102.216 Y112.398
G0 F3600 X101.58 Y112.328
G1 F1200 X86.921 Y97.669 E161.60149
G1 X86.851 Y97.599
G0 F3600 X86.356 Y97.669
G1 F1200 X101.015 Y112.328 E162.64769
G1 X101.085 Y112.398
G0 F3600 X100.449 Y112.328
G1 F1200 X85.79 Y97.669 E163.69388
G1 X85.72 Y97.599
G0 F3600 X85.224 Y97.669
G1 F1200 X99.883 Y112.328 E164.74007
G1 X99.953 Y112.398
G0 F3600 X99.318 Y112.328
G1 F1200 X84.659 Y97.669 E165.78627
G1 X84.589 Y97.599
G0 F3600 X84.093 Y97.669
G1 F1200 X98.752 Y112.328 E166.83246
G1 X98.822 Y112.398
G0 F3600 X98.186 Y112.328
G1 F1200 X83.527 Y97.669 E167.87866
G1 X83.457 Y97.599
G0 F3600 X82.962 Y97.669
G1 F1200 X97.621 Y112.328 E168.92485
G1 X97.691 Y112.398
G0 F3600 X97.055 Y112.328
G1 F1200 X82.396 Y97.669 E169.97104
G1 X82.326 Y97.599
G0 F3600 X81.83 Y97.669
G1 F1200 X96.489 Y112.328 E171.01724
G1 X96.559 Y112.398
G0 F3600 X95.923 Y112.328
G1 F1200 X81.264 Y97.669 E172.06343
G1 X81.194 Y97.599
G0 F3600 X80.699 Y97.669
G1 F1200 X95.358 Y112.328 E173.10963
G1 X95.428 Y112.398
G0 F3600 X94.792 Y112.328
G1 F1200 X80.133 Y97.669 E174.15582
G1 X80.063 Y97.599
G0 F3600 X79.567 Y97.669
G1 F1200 X94.226 Y112.328 E175.20201
G1 X94.296 Y112.398
G0 F3600 X93.661 Y112.328
G1 F1200 X79.002 Y97.669 E176.24821
G1 X78.932 Y97.599
G0 F3600 X78.436 Y97.669
G1 F1200 X93.095 Y112.328 E177.2944
G1 X93.165 Y112.398
G0 F3600 X92.529 Y112.328
G1 F1200 X77.87 Y97.669 E178.3406
G1 X77.8 Y97.599
G0 F3600 X77.305 Y97.669
G1 F1200 X91.964 Y112.328 E179.38679
G1 X92.034 Y112.398
G0 F3600 X91.398 Y112.328
G1 F1200 X76.739 Y97.669 E180.43298
G1 X76.669 Y97.599
G0 F3600 X76.173 Y97.669
G1 F1200 X90.832 Y112.328 E181.47918
G1 X90.902 Y112.398
G0 F3600 X90.267 Y112.328
G1 F1200 X75.608 Y97.669 E182.52537
G1 X75.538 Y97.599
G0 F3600 X75.042 Y97.669
G1 F1200 X89.701 Y112.328 E183.57157
G1 X89.771 Y112.398
G0 F3600 X89.135 Y112.328
G1 F1200 X74.476 Y97.669 E184.61776
G1 X74.406 Y97.599
G0 F3600 X73.911 Y97.669
