;FLAVOR:Marlin
;TIME:290
;Filament used: 0.321392m
;Layer height: 0.2
;Generated with Cura_SteamEngine 3.2.1
M190 S50
M104 S210
M109 S210
M82 ;absolute extrusion mode
G28 ;Home
G1 Z15.0 F6000 ;Move the platform down 15mm
;Prime the extruder
G92 E0
G1 F200 E3
G92 E0
;LAYER_COUNT:4
;LAYER:0
M107
G0 F3600 X79.884 Y93.843 Z0.3
;TYPE:SKIRT
G1 F1800 X80.391 Y93.475 E0.03162
G1 X80.819 Y93.218 E0.05681
G1 X81.298 Y92.977 E0.08387
G1 X81.807 Y92.809 E0.11092
G1 X82.317 Y92.722 E0.13703
G1 X82.852 Y92.669 E0.16416
G1 X83.208 Y92.651 E0.18215
G1 X127.124 Y92.667 E2.39838
G1 X127.659 Y92.707 E2.42546
G1 X128.157 Y92.819 E2.45122
G1 X128.564 Y92.941 E2.47266
G1 X129.064 Y93.132 E2.49967
G1 X129.531 Y93.396 E2.52674
G1 X130.029 Y93.798 E2.55904
G1 X130.394 Y94.15 E2.58463
G1 X130.751 Y94.55 E2.61169
G1 X131.045 Y94.998 E2.63873
G1 X131.269 Y95.486 E2.66583
G1 X131.437 Y96.098 E2.69785
G1 X131.592 Y96.952 E2.74165
G1 X131.65 Y97.597 E2.77434
G1 X131.641 Y113.743 E3.58915
G1 X131.601 Y114.278 E3.61622
G1 X131.482 Y114.801 E3.64329
G1 X131.286 Y115.3 E3.67035
G1 X131.018 Y115.765 E3.69743
G1 X130.685 Y116.185 E3.72448
G1 X130.292 Y116.55 E3.75155
G1 X129.85 Y116.853 E3.77859
G1 X129.368 Y117.088 E3.80565
G1 X128.856 Y117.248 E3.83272
G1 X128.326 Y117.33 E3.85979
G1 X128.041 Y117.341 E3.87418
G1 X81.959 Y117.341 E6.19972
G1 X81.424 Y117.301 E6.2268
G1 X80.901 Y117.182 E6.25387
G1 X80.402 Y116.987 E6.2809
G1 X79.937 Y116.719 E6.30799
G1 X79.517 Y116.386 E6.33504
G1 X79.151 Y115.994 E6.3621
G1 X78.848 Y115.552 E6.38914
G1 X78.613 Y115.069 E6.41625
G1 X78.453 Y114.558 E6.44327
G1 X78.37 Y114.028 E6.47035
G1 X78.359 Y113.74 E6.48489
G1 X78.364 Y97.207 E7.31923
G1 X78.404 Y96.672 E7.34631
G1 X78.523 Y96.149 E7.37338
G1 X78.66 Y95.778 E7.39333
G1 X78.94 Y95.131 E7.42891
G1 X79.189 Y94.656 E7.45598
G1 X79.506 Y94.224 E7.48302
G1 X79.884 Y93.843 E7.5101
G0 F3600 X80.212 Y94.089
G1 F1800 X80.597 Y93.818 E7.53386
G1 X81.025 Y93.561 E7.55906
G1 X81.477 Y93.335 E7.58456
G1 X81.96 Y93.184 E7.6101
G1 X82.357 Y93.12 E7.63039
G1 X82.892 Y93.067 E7.65752
G1 X83.208 Y93.051 E7.67349
G1 X127.124 Y93.067 E9.88972
G1 X127.628 Y93.107 E9.91524
G1 X128.042 Y93.202 E9.93667
G1 X128.449 Y93.324 E9.95811
G1 X128.92 Y93.507 E9.98361
G1 X129.357 Y93.762 E10.00915
G1 X129.751 Y94.086 E10.03489
G1 X130.116 Y94.438 E10.06048
G1 X130.451 Y94.816 E10.08597
G1 X130.723 Y95.243 E10.11152
G1 X130.923 Y95.707 E10.13702
G1 X131.044 Y96.17 E10.16117
G1 X131.199 Y97.024 E10.20497
G1 X131.25 Y97.597 E10.234
G1 X131.241 Y113.743 E11.04881
G1 X131.201 Y114.247 E11.07433
G1 X131.082 Y114.738 E11.09982
G1 X130.887 Y115.205 E11.12536
G1 X130.621 Y115.634 E11.15084
G1 X130.29 Y116.017 E11.17638
G1 X129.904 Y116.343 E11.20188
G1 X129.471 Y116.604 E11.22739
G1 X129.002 Y116.793 E11.25291
G1 X128.509 Y116.907 E11.27845
G1 X128.041 Y116.941 E11.30213
G1 X81.959 Y116.941 E13.62767
G1 X81.455 Y116.901 E13.65318
G1 X80.964 Y116.782 E13.67868
G1 X80.497 Y116.588 E13.7042
G1 X80.067 Y116.322 E13.72972
G1 X79.684 Y115.992 E13.75523
G1 X79.358 Y115.605 E13.78077
G1 X79.097 Y115.172 E13.80628
G1 X78.907 Y114.704 E13.83177
G1 X78.794 Y114.211 E13.85729
G1 X78.759 Y113.74 E13.88113
G1 X78.764 Y97.207 E14.71547
G1 X78.804 Y96.703 E14.74099
G1 X78.923 Y96.212 E14.76648
G1 X79.027 Y95.937 E14.78132
G1 X79.307 Y95.29 E14.8169
G1 X79.544 Y94.843 E14.84243
G1 X79.848 Y94.44 E14.8679
G1 X80.212 Y94.089 E14.89342
G1 F1500 E8.39342
G0 F3600 X82.486 Y95.651
G0 X82.991 Y96.869
G0 X127.128 Y96.965
G0 X127.153 Y96.869
;TYPE:WALL-INNER
G1 F1500 E14.89342
G1 F1800 X127.245 Y96.907 E14.89845
G1 X127.329 Y96.971 E14.90378
G1 X127.393 Y97.055 E14.9091
G1 X127.431 Y97.147 E14.91413
G1 X127.45 Y97.29 E14.92141
G1 X127.45 Y113.15 E15.72179
G1 X82.55 Y113.15 E17.98768
G1 X82.55 Y97.29 E18.78806
G1 X82.569 Y97.147 E18.79534
G1 X82.607 Y97.055 E18.80036
G1 X82.671 Y96.971 E18.80569
G1 X82.755 Y96.907 E18.81102
G1 X82.847 Y96.869 E18.81604
G1 X82.99 Y96.85 E18.82332
G1 X127.01 Y96.85 E21.04481
G1 X127.153 Y96.869 E21.05209
G0 F3600 X127.254 Y96.478
;TYPE:WALL-OUTER
G1 F1800 X127.449 Y96.559 E21.06274
G1 X127.614 Y96.686 E21.07325
G1 X127.741 Y96.851 E21.08376
G1 X127.822 Y97.046 E21.09441
G1 X127.85 Y97.261 E21.10536
G1 X127.85 Y113.55 E21.92739
G1 X82.15 Y113.55 E24.23365
G1 X82.15 Y97.261 E25.05568
G1 X82.178 Y97.046 E25.06662
G1 X82.259 Y96.851 E25.07728
G1 X82.386 Y96.686 E25.08778
G1 X82.551 Y96.559 E25.09829
G1 X82.746 Y96.478 E25.10895
G1 X82.961 Y96.45 E25.11989
G1 X127.039 Y96.45 E27.3443
G1 X127.254 Y96.478 E27.35524
G0 F3600 X127.438 Y96.554
G0 X127.05 Y97.25
;TYPE:SKIN
G1 F1800 X127.06 Y97.309 E27.35826
G1 X127.06 Y112.76 E28.138
G1 X82.94 Y112.76 E30.36453
G1 X82.94 Y97.309 E31.14427
G1 X82.952 Y97.247 E31.14746
G1 X83.009 Y97.24 E31.15035
G1 X126.991 Y97.24 E33.36992
G1 X127.05 Y97.25 E33.37294
G0 F3600 X126.879 Y98.029
G1 F1800 X126.27 Y97.42 E33.4164
G1 X126.2 Y97.35
G0 F3600 X125.704 Y97.42
G1 F1800 X126.879 Y98.595 E33.50026
G1 X126.949 Y98.665
G0 F3600 X126.879 Y99.161
G1 F1800 X125.138 Y97.42 E33.62451
G1 X125.068 Y97.35
G0 F3600 X124.573 Y97.42
G1 F1800 X126.879 Y99.726 E33.78909
G1 X126.949 Y99.796
G0 F3600 X126.879 Y100.292
G1 F1800 X124.007 Y97.42 E33.99406
G1 X123.937 Y97.35
G0 F3600 X123.441 Y97.42
G1 F1800 X126.879 Y100.858 E34.23943
G1 X126.949 Y100.928
G0 F3600 X126.879 Y101.423
G1 F1800 X122.876 Y97.42 E34.52511
G1 X122.806 Y97.35
G0 F3600 X122.31 Y97.42
G1 F1800 X126.879 Y101.989 E34.8512
G1 X126.949 Y102.059
G0 F3600 X126.879 Y102.555
G1 F1800 X121.744 Y97.42 E35.21768
G1 X121.674 Y97.35
G0 F3600 X121.179 Y97.42
G1 F1800 X126.879 Y103.12 E35.62448
G1 X126.949 Y103.19
G0 F3600 X126.879 Y103.686
G1 F1800 X120.613 Y97.42 E36.07167
G1 X120.543 Y97.35
G0 F3600 X120.047 Y97.42
G1 F1800 X126.879 Y104.252 E36.55927
G1 X126.949 Y104.322
G0 F3600 X126.879 Y104.817
G1 F1800 X119.481 Y97.42 E37.08722
G1 X119.411 Y97.35
G0 F3600 X118.916 Y97.42
G1 F1800 X126.879 Y105.383 E37.65552
G1 X126.949 Y105.453
G0 F3600 X126.879 Y105.949
G1 F1800 X118.35 Y97.42 E38.26423
G1 X118.28 Y97.35
G0 F3600 X117.784 Y97.42
G1 F1800 X126.879 Y106.515 E38.91333
G1 X126.949 Y106.585
G0 F3600 X126.879 Y107.08
G1 F1800 X117.219 Y97.42 E39.60275
G1 X117.149 Y97.35
G0 F3600 X116.653 Y97.42
G1 F1800 X126.879 Y107.646 E40.33257
G1 X126.949 Y107.716
G0 F3600 X126.879 Y108.212
G1 F1800 X116.087 Y97.42 E41.10278
G1 X116.017 Y97.35
G0 F3600 X115.522 Y97.42
G1 F1800 X126.879 Y108.777 E41.91331
G1 X126.949 Y108.847
G0 F3600 X126.879 Y109.343
G1 F1800 X114.956 Y97.42 E42.76424
G1 X114.886 Y97.35
G0 F3600 X114.39 Y97.42
G1 F1800 X126.879 Y109.909 E43.65556
G1 X126.949 Y109.979
G0 F3600 X126.879 Y110.474
G1 F1800 X113.825 Y97.42 E44.58721
G1 X113.755 Y97.35
G0 F3600 X113.259 Y97.42
G1 F1800 X126.879 Y111.04 E45.55925
G1 X126.949 Y111.11
G0 F3600 X126.879 Y111.606
G1 F1800 X112.693 Y97.42 E46.57169
G1 X112.623 Y97.35
G0 F3600 X112.128 Y97.42
G1 F1800 X126.879 Y112.171 E47.62445
G1 X126.949 Y112.241
G0 F3600 X126.721 Y112.579
G1 F1800 X111.562 Y97.42 E48.70633
G1 X111.492 Y97.35
G0 F3600 X110.996 Y97.42
G1 F1800 X126.155 Y112.579 E49.78821
G1 X126.225 Y112.649
G0 F3600 X125.589 Y112.579
G1 F1800 X110.43 Y97.42 E50.87008
G1 X110.36 Y97.35
G0 F3600 X109.865 Y97.42
G1 F1800 X125.024 Y112.579 E51.95196
G1 X125.094 Y112.649
G0 F3600 X124.458 Y112.579
G1 F1800 X109.299 Y97.42 E53.03384
G1 X109.229 Y97.35
G0 F3600 X108.733 Y97.42
G1 F1800 X123.892 Y112.579 E54.11572
G1 X123.962 Y112.649
G0 F3600 X123.327 Y112.579
G1 F1800 X108.168 Y97.42 E55.1976
G1 X108.098 Y97.35
G0 F3600 X107.602 Y97.42
G1 F1800 X122.761 Y112.579 E56.27948
G1 X122.831 Y112.649
G0 F3600 X122.195 Y112.579
G1 F1800 X107.036 Y97.42 E57.36135
G1 X106.966 Y97.35
G0 F3600 X106.471 Y97.42
G1 F1800 X121.63 Y112.579 E58.44323
G1 X121.7 Y112.649
G0 F3600 X121.064 Y112.579
G1 F1800 X105.905 Y97.42 E59.52511
G1 X105.835 Y97.35
G0 F3600 X105.339 Y97.42
G1 F1800 X120.498 Y112.579 E60.60699
G1 X120.568 Y112.649
G0 F3600 X119.933 Y112.579
G1 F1800 X104.774 Y97.42 E61.68887
G1 X104.704 Y97.35
G0 F3600 X104.208 Y97.42
G1 F1800 X119.367 Y112.579 E62.77075
G1 X119.437 Y112.649
G0 F3600 X118.801 Y112.579
G1 F1800 X103.642 Y97.42 E63.85262
G1 X103.572 Y97.35
G0 F3600 X103.077 Y97.42
G1 F1800 X118.236 Y112.579 E64.9345
G1 X118.306 Y112.649
G0 F3600 X117.67 Y112.579
G1 F1800 X102.511 Y97.42 E66.01638
G1 X102.441 Y97.35
G0 F3600 X101.945 Y97.42
G1 F1800 X117.104 Y112.579 E67.09826
G1 X117.174 Y112.649
G0 F3600 X116.538 Y112.579
G1 F1800 X101.38 Y97.42 E68.1801
G1 X101.31 Y97.35
G0 F3600 X100.814 Y97.42
G1 F1800 X115.973 Y112.579 E69.26198
G1 X116.043 Y112.649
G0 F3600 X115.407 Y112.579
G1 F1800 X100.248 Y97.42 E70.34386
G1 X100.178 Y97.35
G0 F3600 X99.682 Y97.42
G1 F1800 X114.841 Y112.579 E71.42574
G1 X114.911 Y112.649
G0 F3600 X114.276 Y112.579
G1 F1800 X99.117 Y97.42 E72.50762
G1 X99.047 Y97.35
G0 F3600 X98.551 Y97.42
G1 F1800 X113.71 Y112.579 E73.58949
G1 X113.78 Y112.649
G0 F3600 X113.144 Y112.579
G1 F1800 X97.985 Y97.42 E74.67137
G1 X97.915 Y97.35
G0 F3600 X97.42 Y97.42
G1 F1800 X112.579 Y112.579 E75.75325
G1 X112.649 Y112.649
G0 F3600 X112.013 Y112.579
G1 F1800 X96.854 Y97.42 E76.83513
G1 X96.784 Y97.35
G0 F3600 X96.288 Y97.42
G1 F1800 X111.447 Y112.579 E77.91701
G1 X111.517 Y112.649
G0 F3600 X110.882 Y112.579
G1 F1800 X95.723 Y97.42 E78.99889
G1 X95.653 Y97.35
G0 F3600 X95.157 Y97.42
G1 F1800 X110.316 Y112.579 E80.08076
G1 X110.386 Y112.649
G0 F3600 X109.75 Y112.579
G1 F1800 X94.591 Y97.42 E81.16264
G1 X94.521 Y97.35
G0 F3600 X94.026 Y97.42
G1 F1800 X109.185 Y112.579 E82.24452
G1 X109.255 Y112.649
G0 F3600 X108.619 Y112.579
G1 F1800 X93.46 Y97.42 E83.3264
G1 X93.39 Y97.35
G0 F3600 X92.894 Y97.42
G1 F1800 X108.053 Y112.579 E84.40828
G1 X108.123 Y112.649
G0 F3600 X107.488 Y112.579
G1 F1800 X92.329 Y97.42 E85.49015
G1 X92.259 Y97.35
G0 F3600 X91.763 Y97.42
G1 F1800 X106.922 Y112.579 E86.57203
G1 X106.992 Y112.649
G0 F3600 X106.356 Y112.579
G1 F1800 X91.197 Y97.42 E87.65391
G1 X91.127 Y97.35
G0 F3600 X90.631 Y97.42
G1 F1800 X105.79 Y112.579 E88.73579
G1 X105.86 Y112.649
G0 F3600 X105.225 Y112.579
G1 F1800 X90.066 Y97.42 E89.81767
G1 X89.996 Y97.35
G0 F3600 X89.5 Y97.42
G1 F1800 X104.659 Y112.579 E90.89955
G1 X104.729 Y112.649
G0 F3600 X104.093 Y112.579
G1 F1800 X88.934 Y97.42 E91.98142
G1 X88.864 Y97.35
G0 F3600 X88.369 Y97.42
G1 F1800 X103.528 Y112.579 E93.0633
G1 X103.598 Y112.649
G0 F3600 X102.962 Y112.579
G1 F1800 X87.803 Y97.42 E94.14518
G1 X87.733 Y97.35
G0 F3600 X87.237 Y97.42
G1 F1800 X102.396 Y112.579 E95.22706
G1 X102.466 Y112.649
G0 F3600 X101.831 Y112.579
G1 F1800 X86.672 Y97.42 E96.30894
G1 X86.602 Y97.35
G0 F3600 X86.106 Y97.42
G1 F1800 X101.265 Y112.579 E97.39082
G1 X101.335 Y112.649
G0 F3600 X100.699 Y112.579
G1 F1800 X85.54 Y97.42 E98.47269
G1 X85.47 Y97.35
G0 F3600 X84.975 Y97.42
G1 F1800 X100.134 Y112.579 E99.55457
G1 X100.204 Y112.649
G0 F3600 X99.568 Y112.579
G1 F1800 X84.409 Y97.42 E100.63645
G1 X84.339 Y97.35
G0 F3600 X83.843 Y97.42
G1 F1800 X99.002 Y112.579 E101.71833
G1 X99.072 Y112.649
G0 F3600 X98.437 Y112.579
G1 F1800 X83.278 Y97.42 E102.80021
G1 X83.208 Y97.35
G0 F3600 X83.119 Y97.827
G1 F1800 X97.871 Y112.579 E103.85304
G1 X97.941 Y112.649
G0 F3600 X97.305 Y112.579
G1 F1800 X83.119 Y98.393 E104.86548
G1 X83.049 Y98.323
G0 F3600 X83.119 Y98.958
G1 F1800 X96.739 Y112.579 E105.83755
G1 X96.809 Y112.649
G0 F3600 X96.174 Y112.579
G1 F1800 X83.119 Y99.524 E106.76927
G1 X83.049 Y99.454
G0 F3600 X83.119 Y100.09
G1 F1800 X95.608 Y112.579 E107.6606
G1 X95.678 Y112.649
G0 F3600 X95.042 Y112.579
G1 F1800 X83.119 Y100.655 E108.51156
G1 X83.049 Y100.585
G0 F3600 X83.119 Y101.221
G1 F1800 X94.477 Y112.579 E109.32217
G1 X94.547 Y112.649
G0 F3600 X93.911 Y112.579
G1 F1800 X83.119 Y101.787 E110.09238
G1 X83.049 Y101.717
G0 F3600 X83.119 Y102.352
G1 F1800 X93.345 Y112.579 E110.82223
G1 X93.415 Y112.649
G0 F3600 X92.78 Y112.579
G1 F1800 X83.119 Y102.918 E111.51172
G1 X83.049 Y102.848
G0 F3600 X83.119 Y103.484
G1 F1800 X92.214 Y112.579 E112.16082
G1 X92.284 Y112.649
G0 F3600 X91.648 Y112.579
G1 F1800 X83.119 Y104.05 E112.76953
G1 X83.049 Y103.98
G0 F3600 X83.119 Y104.615
G1 F1800 X91.083 Y112.579 E113.33791
G1 X91.153 Y112.649
G0 F3600 X90.517 Y112.579
G1 F1800 X83.119 Y105.181 E113.86589
G1 X83.049 Y105.111
G0 F3600 X83.119 Y105.747
G1 F1800 X89.951 Y112.579 E114.35348
G1 X90.021 Y112.649
G0 F3600 X89.386 Y112.579
G1 F1800 X83.119 Y106.312 E114.80075
G1 X83.049 Y106.242
G0 F3600 X83.119 Y106.878
G1 F1800 X88.82 Y112.579 E115.20762
G1 X88.89 Y112.649
G0 F3600 X88.254 Y112.579
G1 F1800 X83.119 Y107.444 E115.5741
G1 X83.049 Y107.374
G0 F3600 X83.119 Y108.009
G1 F1800 X87.689 Y112.579 E115.90026
G1 X87.759 Y112.649
G0 F3600 X87.123 Y112.579
G1 F1800 X83.119 Y108.575 E116.18602
G1 X83.049 Y108.505
G0 F3600 X83.119 Y109.141
G1 F1800 X86.557 Y112.579 E116.43138
G1 X86.627 Y112.649
G0 F3600 X85.991 Y112.579
G1 F1800 X83.119 Y109.706 E116.63639
G1 X83.049 Y109.636
G0 F3600 X83.119 Y110.272
G1 F1800 X85.426 Y112.579 E116.80104
G1 X85.496 Y112.649
G0 F3600 X84.86 Y112.579
G1 F1800 X83.119 Y110.838 E116.92529
G1 X83.049 Y110.768
G0 F3600 X83.119 Y111.403
G1 F1800 X84.294 Y112.579 E117.00918
G1 X84.364 Y112.649
G0 F3600 X83.729 Y112.579
G1 F1800 X83.119 Y111.969 E117.05272
G1 X83.049 Y111.899
G0 F3600 X127.128 Y96.965
G0 X127.153 Y96.869
;TIME_ELAPSED:83.808989
;LAYER:1
M140 S50
M106 S255
G0 F5400 X127.153 Y96.869 Z0.5
;TYPE:WALL-INNER
G1 F2700 X127.245 Y96.907 E117.05607
G1 X127.329 Y96.971 E117.05962
G1 X127.393 Y97.055 E117.06317
G1 X127.431 Y97.147 E117.06652
G1 X127.45 Y97.29 E117.07138
G1 X127.45 Y113.15 E117.60496
G1 X82.55 Y113.15 E119.11556
G1 X82.55 Y97.29 E119.64914
G1 X82.569 Y97.147 E119.654
G1 X82.607 Y97.055 E119.65735
G1 X82.671 Y96.971 E119.6609
G1 X82.755 Y96.907 E119.66445
G1 X82.847 Y96.869 E119.6678
G1 X82.99 Y96.85 E119.67265
G1 X127.01 Y96.85 E121.15364
G1 X127.153 Y96.869 E121.15849
G0 F5400 X127.254 Y96.478
;TYPE:WALL-OUTER
G1 F1800 X127.449 Y96.559 E121.1656
G1 X127.614 Y96.686 E121.1726
G1 X127.741 Y96.851 E121.17961
G1 X127.822 Y97.046 E121.18671
G1 X127.85 Y97.261 E121.19401
G1 X127.85 Y113.55 E121.74203
G1 X82.15 Y113.55 E123.27954
G1 X82.15 Y97.261 E123.82756
G1 X82.178 Y97.046 E123.83485
G1 X82.259 Y96.851 E123.84195
G1 X82.386 Y96.686 E123.84896
G1 X82.551 Y96.559 E123.85596
G1 X82.746 Y96.478 E123.86307
G1 X82.961 Y96.45 E123.87036
G1 X127.039 Y96.45 E125.3533
G1 X127.254 Y96.478 E125.3606
G0 F5400 X127.438 Y96.554
G0 X127.05 Y97.25
;TYPE:SKIN
G1 F1800 X127.06 Y97.309 E125.36261
G1 X127.06 Y112.76 E125.88244
G1 X82.94 Y112.76 E127.36679
G1 X82.94 Y97.309 E127.88662
G1 X82.952 Y97.247 E127.88874
G1 X83.009 Y97.24 E127.89067
G1 X126.991 Y97.24 E129.37038
G1 X127.05 Y97.25 E129.3724
G0 F5400 X126.878 Y112.405
G1 F1800 X126.705 Y112.579 E129.38065
G0 F5400 X126.139 Y112.579
G1 F1800 X126.878 Y111.84 E129.41581
G1 X126.948 Y111.77
G0 F5400 X126.878 Y111.274
G1 F1800 X125.573 Y112.579 E129.4779
G1 X125.503 Y112.649
G0 F5400 X125.007 Y112.579
G1 F1800 X126.878 Y110.708 E129.56692
G1 X126.948 Y110.638
G0 F5400 X126.878 Y110.143
G1 F1800 X124.442 Y112.579 E129.68283
G1 X124.372 Y112.649
G0 F5400 X123.876 Y112.579
G1 F1800 X126.878 Y109.577 E129.82566
G1 X126.948 Y109.507
G0 F5400 X126.878 Y109.011
G1 F1800 X123.31 Y112.579 E129.99542
G1 X123.24 Y112.649
G0 F5400 X122.745 Y112.579
G1 F1800 X126.878 Y108.446 E130.19207
G1 X126.948 Y108.376
G0 F5400 X126.878 Y107.88
G1 F1800 X122.179 Y112.579 E130.41564
G1 X122.109 Y112.649
G0 F5400 X121.613 Y112.579
G1 F1800 X126.878 Y107.314 E130.66614
G1 X126.948 Y107.244
G0 F5400 X126.878 Y106.749
G1 F1800 X121.048 Y112.579 E130.94353
G1 X120.978 Y112.649
G0 F5400 X120.482 Y112.579
G1 F1800 X126.878 Y106.183 E131.24785
G1 X126.948 Y106.113
G0 F5400 X126.878 Y105.617
G1 F1800 X119.916 Y112.579 E131.57909
G1 X119.846 Y112.649
G0 F5400 X119.351 Y112.579
G1 F1800 X126.878 Y105.052 E131.93722
G1 X126.948 Y104.982
G0 F5400 X126.878 Y104.486
G1 F1800 X118.785 Y112.579 E132.32228
G1 X118.715 Y112.649
G0 F5400 X118.219 Y112.579
G1 F1800 X126.878 Y103.92 E132.73427
G1 X126.948 Y103.85
G0 F5400 X126.878 Y103.354
