;FLAVOR:Marlin
;TIME:76
;Filament used: 0.0843957m
;Layer height: 0.2
;Generated with Cura_SteamEngine 3.2.1
M190 S50
M104 S210
M109 S210
M82 ;absolute extrusion mode
G28 ;Home
G1 Z15.0 F6000 ;Move the platform down 15mm
;Prime the extruder
G92 E0
G1 F200 E3
G92 E0
;LAYER_COUNT:4
;LAYER:0
M107
G0 F3600 X97.12 Y93.365 Z0.3
;TYPE:SKIRT
G1 F1800 X97.577 Y92.987 E0.02993
G1 X97.879 Y92.789 E0.04815
G1 X98.307 Y92.532 E0.07335
G1 X98.835 Y92.262 E0.10327
G1 X99.394 Y92.065 E0.13319
G1 X100.138 Y91.925 E0.17139
G1 X100.673 Y91.872 E0.19852
G1 X101.116 Y91.851 E0.2209
G1 X109.232 Y91.867 E0.63048
G1 X109.823 Y91.908 E0.66038
G1 X110.486 Y92.052 E0.69462
G1 X110.893 Y92.174 E0.71606
G1 X111.449 Y92.382 E0.74602
G1 X111.971 Y92.663 E0.77593
G1 X112.45 Y93.012 E0.80584
G1 X112.684 Y93.222 E0.82171
G1 X113.049 Y93.574 E0.8473
G1 X113.447 Y94.013 E0.8772
G1 X113.783 Y94.502 E0.90714
G1 X114.049 Y95.032 E0.93707
G1 X114.242 Y95.593 E0.96701
G1 X114.324 Y95.955 E0.98574
G1 X114.479 Y96.809 E1.02954
G1 X114.55 Y97.597 E1.06947
G1 X114.541 Y113.743 E1.88428
G1 X114.501 Y114.335 E1.91423
G1 X114.381 Y114.916 E1.94417
G1 X114.185 Y115.475 E1.97406
G1 X113.915 Y116.003 E2.00399
G1 X113.576 Y116.49 E2.03393
G1 X113.176 Y116.927 E2.06383
G1 X112.72 Y117.306 E2.09375
G1 X112.217 Y117.621 E2.1237
G1 X111.676 Y117.864 E2.15363
G1 X111.108 Y118.033 E2.18354
G1 X110.522 Y118.124 E2.21346
G1 X110.141 Y118.141 E2.23271
G1 X99.859 Y118.141 E2.7516
G1 X99.267 Y118.101 E2.78154
G1 X98.687 Y117.982 E2.81142
G1 X98.127 Y117.786 E2.84136
G1 X97.599 Y117.516 E2.87129
G1 X97.112 Y117.178 E2.9012
G1 X96.675 Y116.777 E2.93113
G1 X96.295 Y116.322 E2.96105
G1 X95.981 Y115.819 E2.99097
G1 X95.736 Y115.279 E3.0209
G1 X95.567 Y114.71 E3.05085
G1 X95.476 Y114.125 E3.08073
G1 X95.459 Y113.74 E3.10018
G1 X95.464 Y97.207 E3.93452
G1 X95.504 Y96.615 E3.96447
G1 X95.623 Y96.034 E3.9944
G1 X95.826 Y95.46 E4.02512
G1 X96.106 Y94.813 E4.0607
G1 X96.378 Y94.286 E4.09063
G1 X96.718 Y93.801 E4.12052
G1 X97.12 Y93.365 E4.15045
G0 F3600 X97.453 Y93.602
G1 F1800 X98.085 Y93.132 E4.19019
G1 X98.513 Y92.875 E4.21539
G1 X99.017 Y92.619 E4.24391
G1 X99.552 Y92.436 E4.27245
G1 X100.178 Y92.323 E4.30455
G1 X100.713 Y92.27 E4.33168
G1 X101.115 Y92.251 E4.35199
G1 X109.231 Y92.267 E4.76157
G1 X109.795 Y92.308 E4.79011
G1 X110.372 Y92.435 E4.81992
G1 X110.779 Y92.557 E4.84136
G1 X111.307 Y92.758 E4.86987
G1 X111.802 Y93.03 E4.89838
G1 X112.407 Y93.51 E4.93735
G1 X112.772 Y93.862 E4.96294
G1 X113.15 Y94.282 E4.99146
G1 X113.465 Y94.751 E5.01997
G1 X113.711 Y95.26 E5.0485
G1 X113.931 Y96.027 E5.08877
G1 X114.086 Y96.881 E5.13257
G1 X114.15 Y97.597 E5.16884
G1 X114.141 Y113.743 E5.98366
G1 X114.101 Y114.307 E6.01219
G1 X113.981 Y114.86 E6.04075
G1 X113.785 Y115.39 E6.06926
G1 X113.516 Y115.887 E6.09778
G1 X113.18 Y116.342 E6.12633
G1 X112.783 Y116.744 E6.15484
G1 X112.333 Y117.087 E6.18339
G1 X111.84 Y117.362 E6.21188
G1 X111.312 Y117.566 E6.24045
G1 X110.761 Y117.693 E6.26898
G1 X110.141 Y117.741 E6.30037
G1 X99.859 Y117.741 E6.81925
G1 X99.295 Y117.701 E6.84778
G1 X98.742 Y117.582 E6.87633
G1 X98.212 Y117.386 E6.90485
G1 X97.715 Y117.118 E6.93334
G1 X97.26 Y116.782 E6.96189
G1 X96.857 Y116.385 E6.99043
G1 X96.515 Y115.935 E7.01896
G1 X96.239 Y115.442 E7.04747
G1 X96.035 Y114.914 E7.07604
G1 X95.908 Y114.364 E7.10452
G1 X95.859 Y113.74 E7.13611
G1 X95.864 Y97.207 E7.97045
G1 X95.904 Y96.643 E7.99899
G1 X96.023 Y96.09 E8.02753
G1 X96.193 Y95.619 E8.0528
G1 X96.473 Y94.972 E8.08838
G1 X96.734 Y94.471 E8.11689
G1 X97.062 Y94.011 E8.1454
G1 X97.453 Y93.602 E8.17395
G0 F3600 X97.784 Y93.843
G1 F1800 X98.291 Y93.475 E8.20557
G1 X98.719 Y93.218 E8.23076
G1 X99.198 Y92.977 E8.25782
G1 X99.707 Y92.809 E8.28487
G1 X100.217 Y92.722 E8.31098
G1 X100.752 Y92.669 E8.33811
G1 X101.114 Y92.651 E8.3564
G1 X109.23 Y92.667 E8.76598
G1 X109.765 Y92.708 E8.79306
G1 X110.257 Y92.819 E8.81851
G1 X110.664 Y92.941 E8.83995
G1 X111.164 Y93.132 E8.86697
G1 X111.631 Y93.396 E8.89404
G1 X112.129 Y93.798 E8.92634
G1 X112.494 Y94.15 E8.95193
G1 X112.851 Y94.55 E8.97898
G1 X113.145 Y94.998 E9.00603
G1 X113.369 Y95.486 E9.03312
G1 X113.537 Y96.098 E9.06515
G1 X113.692 Y96.952 E9.10895
G1 X113.75 Y97.597 E9.14163
G1 X113.741 Y113.743 E9.95645
G1 X113.701 Y114.278 E9.98352
G1 X113.582 Y114.801 E10.01059
G1 X113.386 Y115.3 E10.03764
G1 X113.118 Y115.765 E10.06473
G1 X112.785 Y116.185 E10.09178
G1 X112.392 Y116.55 E10.11884
G1 X111.95 Y116.853 E10.14589
G1 X111.468 Y117.088 E10.17295
G1 X110.956 Y117.248 E10.20002
G1 X110.426 Y117.33 E10.22708
G1 X110.141 Y117.341 E10.24148
G1 X99.859 Y117.341 E10.76036
G1 X99.324 Y117.301 E10.78744
G1 X98.801 Y117.182 E10.8145
G1 X98.302 Y116.987 E10.84154
G1 X97.837 Y116.719 E10.86863
G1 X97.417 Y116.386 E10.89567
G1 X97.051 Y115.994 E10.92274
G1 X96.748 Y115.552 E10.94978
G1 X96.513 Y115.069 E10.97689
G1 X96.353 Y114.558 E11.00391
G1 X96.27 Y114.028 E11.03098
G1 X96.259 Y113.74 E11.04553
G1 X96.264 Y97.207 E11.87987
G1 X96.304 Y96.672 E11.90695
G1 X96.423 Y96.149 E11.93401
G1 X96.56 Y95.778 E11.95397
G1 X96.84 Y95.131 E11.98955
G1 X97.089 Y94.656 E12.01662
G1 X97.406 Y94.224 E12.04366
G1 X97.784 Y93.843 E12.07074
G0 F3600 X98.112 Y94.089
G1 F1800 X98.497 Y93.818 E12.0945
G1 X98.925 Y93.561 E12.11969
G1 X99.377 Y93.335 E12.1452
G1 X99.86 Y93.184 E12.17074
G1 X100.257 Y93.12 E12.19103
G1 X100.792 Y93.067 E12.21816
G1 X101.113 Y93.051 E12.23438
G1 X109.229 Y93.067 E12.64396
G1 X109.733 Y93.108 E12.66947
G1 X110.142 Y93.202 E12.69065
G1 X110.549 Y93.324 E12.7121
G1 X111.02 Y93.507 E12.7376
G1 X111.457 Y93.762 E12.76313
G1 X111.851 Y94.086 E12.78887
G1 X112.216 Y94.438 E12.81446
G1 X112.551 Y94.816 E12.83995
G1 X112.823 Y95.243 E12.8655
G1 X113.023 Y95.707 E12.891
G1 X113.144 Y96.17 E12.91515
G1 X113.299 Y97.024 E12.95895
G1 X113.35 Y97.597 E12.98798
G1 X113.341 Y113.743 E13.80279
G1 X113.301 Y114.247 E13.82831
G1 X113.182 Y114.738 E13.8538
G1 X112.987 Y115.205 E13.87934
G1 X112.721 Y115.634 E13.90482
G1 X112.39 Y116.017 E13.93036
G1 X112.004 Y116.343 E13.95586
G1 X111.571 Y116.604 E13.98137
G1 X111.102 Y116.793 E14.00689
G1 X110.609 Y116.907 E14.03243
G1 X110.141 Y116.941 E14.05611
G1 X99.859 Y116.941 E14.57499
G1 X99.355 Y116.901 E14.60051
G1 X98.864 Y116.782 E14.626
G1 X98.397 Y116.588 E14.65152
G1 X97.967 Y116.322 E14.67704
G1 X97.584 Y115.992 E14.70255
G1 X97.258 Y115.605 E14.72809
G1 X96.997 Y115.172 E14.7536
G1 X96.807 Y114.704 E14.77909
G1 X96.694 Y114.211 E14.80462
G1 X96.659 Y113.74 E14.82845
G1 X96.664 Y97.207 E15.66279
G1 X96.704 Y96.703 E15.68831
G1 X96.823 Y96.212 E15.71381
G1 X96.927 Y95.937 E15.72864
G1 X97.207 Y95.29 E15.76422
G1 X97.444 Y94.843 E15.78975
G1 X97.748 Y94.44 E15.81523
G1 X98.112 Y94.089 E15.84075
G1 F1500 E9.34075
G0 F3600 X100.386 Y95.651
G0 X100.891 Y96.869
G0 X109.228 Y96.965
G0 X109.253 Y96.869
;TYPE:WALL-INNER
G1 F1500 E15.84075
G1 F1800 X109.345 Y96.907 E15.84577
G1 X109.429 Y96.971 E15.8511
G1 X109.493 Y97.055 E15.85643
G1 X109.531 Y97.147 E15.86145
G1 X109.55 Y97.29 E15.86873
G1 X109.55 Y113.15 E16.66911
G1 X100.45 Y113.15 E17.12834
G1 X100.45 Y97.29 E17.92872
G1 X100.469 Y97.147 E17.936
G1 X100.507 Y97.055 E17.94103
G1 X100.571 Y96.971 E17.94636
G1 X100.655 Y96.907 E17.95169
G1 X100.747 Y96.869 E17.95671
G1 X100.89 Y96.85 E17.96399
G1 X109.11 Y96.85 E18.37881
G1 X109.253 Y96.869 E18.38609
G0 F3600 X109.354 Y96.478
;TYPE:WALL-OUTER
G1 F1800 X109.549 Y96.559 E18.39675
G1 X109.714 Y96.686 E18.40726
G1 X109.841 Y96.851 E18.41777
G1 X109.922 Y97.046 E18.42842
G1 X109.95 Y97.261 E18.43936
G1 X109.95 Y113.55 E19.26139
G1 X100.05 Y113.55 E19.761
G1 X100.05 Y97.261 E20.58303
G1 X100.078 Y97.046 E20.59397
G1 X100.159 Y96.851 E20.60463
G1 X100.286 Y96.686 E20.61513
G1 X100.451 Y96.559 E20.62564
G1 X100.646 Y96.478 E20.6363
G1 X100.861 Y96.45 E20.64724
G1 X109.139 Y96.45 E21.06499
G1 X109.354 Y96.478 E21.07593
G0 F3600 X109.538 Y96.554
G0 X109.15 Y97.25
;TYPE:SKIN
G1 F1800 X109.16 Y97.309 E21.07895
G1 X109.16 Y112.76 E21.85869
G1 X100.84 Y112.76 E22.27856
G1 X100.84 Y97.309 E23.0583
G1 X100.852 Y97.247 E23.06149
G1 X100.909 Y97.24 E23.06439
G1 X109.091 Y97.24 E23.47729
G1 X109.15 Y97.25 E23.48031
G0 F3600 X108.98 Y97.666
G1 F1800 X108.733 Y97.42 E23.49791
G0 F3600 X108.168 Y97.42
G1 F1800 X108.98 Y98.231 E23.55582
G1 X109.05 Y98.301
G0 F3600 X108.98 Y98.797
G1 F1800 X107.602 Y97.42 E23.65413
G1 X107.532 Y97.35
G0 F3600 X107.036 Y97.42
G1 F1800 X108.98 Y99.363 E23.79284
G1 X109.05 Y99.433
G0 F3600 X108.98 Y99.929
G1 F1800 X106.471 Y97.42 E23.9719
G1 X106.401 Y97.35
G0 F3600 X105.905 Y97.42
G1 F1800 X108.98 Y100.494 E24.19133
G1 X109.05 Y100.564
G0 F3600 X108.98 Y101.06
G1 F1800 X105.339 Y97.42 E24.45114
G1 X105.269 Y97.35
G0 F3600 X104.774 Y97.42
G1 F1800 X108.98 Y101.626 E24.75132
G1 X109.05 Y101.696
G0 F3600 X108.98 Y102.191
G1 F1800 X104.208 Y97.42 E25.09186
G1 X104.138 Y97.35
G0 F3600 X103.642 Y97.42
G1 F1800 X108.98 Y102.757 E25.47279
G1 X109.05 Y102.827
G0 F3600 X108.98 Y103.323
G1 F1800 X103.077 Y97.42 E25.89408
G1 X103.007 Y97.35
G0 F3600 X102.511 Y97.42
G1 F1800 X108.98 Y103.888 E26.35572
G1 X109.05 Y103.958
G0 F3600 X108.98 Y104.454
G1 F1800 X101.945 Y97.42 E26.85777
G1 X101.875 Y97.35
G0 F3600 X101.38 Y97.42
G1 F1800 X108.98 Y105.02 E27.40017
G1 X109.05 Y105.09
G0 F3600 X108.98 Y105.585
G1 F1800 X101.019 Y97.625 E27.9683
G1 X100.949 Y97.555
G0 F3600 X101.019 Y98.19
G1 F1800 X108.98 Y106.151 E28.53647
G1 X109.05 Y106.221
G0 F3600 X108.98 Y106.717
G1 F1800 X101.019 Y98.756 E29.10463
G1 X100.949 Y98.686
G0 F3600 X101.019 Y99.322
G1 F1800 X108.98 Y107.282 E29.67276
G1 X109.05 Y107.352
G0 F3600 X108.98 Y107.848
G1 F1800 X101.019 Y99.888 E30.24089
G1 X100.949 Y99.818
G0 F3600 X101.019 Y100.453
G1 F1800 X108.98 Y108.414 E30.80906
G1 X109.05 Y108.484
G0 F3600 X108.98 Y108.98
G1 F1800 X101.019 Y101.019 E31.37723
G1 X100.949 Y100.949
G0 F3600 X101.019 Y101.585
G1 F1800 X108.98 Y109.545 E31.94536
G1 X109.05 Y109.615
G0 F3600 X108.98 Y110.111
G1 F1800 X101.019 Y102.15 E32.51352
G1 X100.949 Y102.08
G0 F3600 X101.019 Y102.716
G1 F1800 X108.98 Y110.677 E33.08169
G1 X109.05 Y110.747
G0 F3600 X108.98 Y111.242
G1 F1800 X101.019 Y103.282 E33.64982
G1 X100.949 Y103.212
G0 F3600 X101.019 Y103.847
G1 F1800 X108.98 Y111.808 E34.21799
G1 X109.05 Y111.878
G0 F3600 X108.98 Y112.374
G1 F1800 X101.019 Y104.413 E34.78615
G1 X100.949 Y104.343
G0 F3600 X101.019 Y104.979
G1 F1800 X108.619 Y112.579 E35.32856
G1 X108.689 Y112.649
G0 F3600 X108.053 Y112.579
G1 F1800 X101.019 Y105.544 E35.8306
G1 X100.949 Y105.474
G0 F3600 X101.019 Y106.11
G1 F1800 X107.488 Y112.579 E36.29228
G1 X107.558 Y112.649
G0 F3600 X106.922 Y112.579
G1 F1800 X101.019 Y106.676 E36.71357
G1 X100.949 Y106.606
G0 F3600 X101.019 Y107.241
G1 F1800 X106.356 Y112.579 E37.0945
G1 X106.426 Y112.649
G0 F3600 X105.79 Y112.579
G1 F1800 X101.019 Y107.807 E37.43504
G1 X100.949 Y107.737
G0 F3600 X101.019 Y108.373
G1 F1800 X105.225 Y112.579 E37.73522
G1 X105.295 Y112.649
G0 F3600 X104.659 Y112.579
G1 F1800 X101.019 Y108.938 E37.99503
G1 X100.949 Y108.868
G0 F3600 X101.019 Y109.504
G1 F1800 X104.093 Y112.579 E38.21446
G1 X104.163 Y112.649
G0 F3600 X103.528 Y112.579
G1 F1800 X101.019 Y110.07 E38.39352
G1 X100.949 Y110
G0 F3600 X101.019 Y110.636
G1 F1800 X102.962 Y112.579 E38.53219
G1 X103.032 Y112.649
G0 F3600 X102.396 Y112.579
G1 F1800 X101.019 Y111.201 E38.6305
G1 X100.949 Y111.131
G0 F3600 X101.019 Y111.767
G1 F1800 X101.831 Y112.579 E38.68845
G1 X101.901 Y112.649
G0 F3600 X101.265 Y112.579
G1 F1800 X101.019 Y112.333 E38.70601
G0 F3600 X109.228 Y96.965
G0 X109.253 Y96.869
;TIME_ELAPSED:29.760015
;LAYER:1
M140 S50
M106 S255
G0 F5400 X109.253 Y96.869 Z0.5
;TYPE:WALL-INNER
G1 F2700 X109.345 Y96.907 E38.70936
G1 X109.429 Y96.971 E38.71291
G1 X109.493 Y97.055 E38.71646
G1 X109.531 Y97.147 E38.71981
G1 X109.55 Y97.29 E38.72467
G1 X109.55 Y113.15 E39.25825
G1 X100.45 Y113.15 E39.56441
G1 X100.45 Y97.29 E40.09799
G1 X100.469 Y97.147 E40.10285
G1 X100.507 Y97.055 E40.1062
G1 X100.571 Y96.971 E40.10975
G1 X100.655 Y96.907 E40.1133
G1 X100.747 Y96.869 E40.11665
G1 X100.89 Y96.85 E40.1215
G1 X109.11 Y96.85 E40.39805
G1 X109.253 Y96.869 E40.40291
G0 F5400 X109.354 Y96.478
;TYPE:WALL-OUTER
G1 F1800 X109.549 Y96.559 E40.41001
G1 X109.714 Y96.686 E40.41702
G1 X109.841 Y96.851 E40.42402
G1 X109.922 Y97.046 E40.43113
G1 X109.95 Y97.261 E40.43842
G1 X109.95 Y113.55 E40.98644
G1 X100.05 Y113.55 E41.31951
G1 X100.05 Y97.261 E41.86753
G1 X100.078 Y97.046 E41.87482
G1 X100.159 Y96.851 E41.88193
G1 X100.286 Y96.686 E41.88893
G1 X100.451 Y96.559 E41.89594
G1 X100.646 Y96.478 E41.90304
G1 X100.861 Y96.45 E41.91034
G1 X109.139 Y96.45 E42.18884
G1 X109.354 Y96.478 E42.19613
G0 F5400 X109.538 Y96.554
G0 X109.15 Y97.25
;TYPE:SKIN
G1 F1800 X109.16 Y97.309 E42.19815
G1 X109.16 Y112.76 E42.71797
G1 X100.84 Y112.76 E42.99789
G1 X100.84 Y97.309 E43.51771
G1 X100.852 Y97.247 E43.51984
G1 X100.909 Y97.24 E43.52177
G1 X109.091 Y97.24 E43.79704
G1 X109.15 Y97.25 E43.79905
G0 F5400 X101.02 Y97.535
G0 X101.078 Y97.477
G1 F1800 X101.36 Y97.76 E43.81801
G1 X100.95 Y98.171
G0 F5400 X101.02 Y98.666
G1 F1800 X102.267 Y97.419 E43.87734
G1 X102.337 Y97.349
G0 F5400 X102.833 Y97.419
G1 F1800 X101.02 Y99.232 E43.9636
G1 X100.95 Y99.302
G0 F5400 X101.02 Y99.798
G1 F1800 X103.398 Y97.419 E44.07677
G1 X103.468 Y97.349
G0 F5400 X103.964 Y97.419
G1 F1800 X101.02 Y100.363 E44.21684
G1 X100.95 Y100.433
G0 F5400 X101.02 Y100.929
G1 F1800 X104.53 Y97.419 E44.38384
G1 X104.6 Y97.349
G0 F5400 X105.095 Y97.419
G1 F1800 X101.02 Y101.495 E44.57775
G1 X100.95 Y101.565
G0 F5400 X101.02 Y102.06
G1 F1800 X105.661 Y97.419 E44.79856
G1 X105.731 Y97.349
G0 F5400 X106.227 Y97.419
G1 F1800 X101.02 Y102.626 E45.04631
G1 X100.95 Y102.696
G0 F5400 X101.02 Y103.192
G1 F1800 X106.792 Y97.419 E45.32096
G1 X106.862 Y97.349
G0 F5400 X107.358 Y97.419
G1 F1800 X101.02 Y103.758 E45.62254
G1 X100.95 Y103.828
G0 F5400 X101.02 Y104.323
G1 F1800 X107.924 Y97.419 E45.95103
G1 X107.994 Y97.349
G0 F5400 X108.489 Y97.419
G1 F1800 X101.02 Y104.889 E46.30642
G1 X100.95 Y104.959
G0 F5400 X101.02 Y105.455
G1 F1800 X108.979 Y97.495 E46.68513
G1 X109.049 Y97.425
G0 F5400 X108.979 Y98.061
G1 F1800 X101.02 Y106.02 E47.06381
G1 X100.95 Y106.09
G0 F5400 X101.02 Y106.586
G1 F1800 X108.979 Y98.627 E47.44249
G1 X109.049 Y98.557
G0 F5400 X108.979 Y99.192
G1 F1800 X101.02 Y107.152 E47.8212
G1 X100.95 Y107.222
G0 F5400 X101.02 Y107.717
G1 F1800 X108.979 Y99.758 E48.19988
G1 X109.049 Y99.688
G0 F5400 X108.979 Y100.324
G1 F1800 X101.02 Y108.283 E48.57856
G1 X100.95 Y108.353
G0 F5400 X101.02 Y108.849
G1 F1800 X108.979 Y100.889 E48.95727
G1 X109.049 Y100.819
G0 F5400 X108.979 Y101.455
G1 F1800 X101.02 Y109.414 E49.33595
G1 X100.95 Y109.484
G0 F5400 X101.02 Y109.98
G1 F1800 X108.979 Y102.021 E49.71463
G1 X109.049 Y101.951
G0 F5400 X108.979 Y102.587
G1 F1800 X101.02 Y110.546 E50.09331
G1 X100.95 Y110.616
G0 F5400 X101.02 Y111.111
G1 F1800 X108.979 Y103.152 E50.472
G1 X109.049 Y103.082
G0 F5400 X108.979 Y103.718
G1 F1800 X101.02 Y111.677 E50.85068
G1 X100.95 Y111.747
G0 F5400 X101.02 Y112.243
G1 F1800 X108.979 Y104.284 E51.22936
G1 X109.049 Y104.214
G0 F5400 X108.979 Y104.849
G1 F1800 X101.249 Y112.579 E51.59715
G1 X101.179 Y112.649
G0 F5400 X101.814 Y112.579
G1 F1800 X108.979 Y105.415 E51.93803
G1 X109.049 Y105.345
G0 F5400 X108.979 Y105.981
G1 F1800 X102.38 Y112.579 E52.25198
G1 X102.31 Y112.649
G0 F5400 X102.946 Y112.579
G1 F1800 X108.979 Y106.546 E52.53903
G1 X109.049 Y106.476
G0 F5400 X108.979 Y107.112
G1 F1800 X103.511 Y112.579 E52.79916
G1 X103.441 Y112.649
G0 F5400 X104.077 Y112.579
G1 F1800 X108.979 Y107.678 E53.03237
G1 X109.049 Y107.608
G0 F5400 X108.979 Y108.243
G1 F1800 X104.643 Y112.579 E53.23868
G1 X104.573 Y112.649
G0 F5400 X105.209 Y112.579
G1 F1800 X108.979 Y108.809 E53.41805
G1 X109.049 Y108.739
G0 F5400 X108.979 Y109.375
G1 F1800 X105.774 Y112.579 E53.57052
G1 X105.704 Y112.649
G0 F5400 X106.34 Y112.579
G1 F1800 X108.979 Y109.94 E53.69608
G1 X109.049 Y109.87
G0 F5400 X108.979 Y110.506
G1 F1800 X106.906 Y112.579 E53.79471
G1 X106.836 Y112.649
G0 F5400 X107.471 Y112.579
