;FLAVOR:Marlin
;TIME:583
;Filament used: 0.649444m
;Layer height: 0.2
;Generated with Cura_SteamEngine 3.2.1
M190 S50
M104 S210
M109 S210
M82 ;absolute extrusion mode
G28 ;Home
G1 Z15.0 F6000 ;Move the platform down 15mm
;Prime the extruder
G92 E0
G1 F200 E3
G92 E0
;LAYER_COUNT:4
;LAYER:0
M107
G0 F3600 X56.441 Y93.475 Z0.3
;TYPE:SKIRT
G1 F1800 X56.869 Y93.218 E0.02519
G1 X57.348 Y92.977 E0.05225
G1 X57.857 Y92.809 E0.0793
G1 X58.367 Y92.722 E0.10541
G1 X58.902 Y92.669 E0.13254
G1 X59.258 Y92.651 E0.15053
G1 X151.074 Y92.667 E4.78405
G1 X151.608 Y92.707 E4.81108
G1 X152.107 Y92.819 E4.83689
G1 X152.514 Y92.941 E4.85833
G1 X153.014 Y93.132 E4.88534
G1 X153.481 Y93.396 E4.91241
G1 X153.979 Y93.798 E4.94471
G1 X154.344 Y94.15 E4.9703
G1 X154.701 Y94.55 E4.99736
G1 X154.995 Y94.998 E5.0244
G1 X155.219 Y95.486 E5.0515
G1 X155.387 Y96.098 E5.08352
G1 X155.542 Y96.952 E5.12733
G1 X155.6 Y97.597 E5.16001
G1 X155.591 Y113.743 E5.97482
G1 X155.551 Y114.278 E6.00189
G1 X155.432 Y114.801 E6.02896
G1 X155.236 Y115.3 E6.05602
G1 X154.968 Y115.765 E6.0831
G1 X154.635 Y116.185 E6.11015
G1 X154.242 Y116.55 E6.13722
G1 X153.8 Y116.853 E6.16426
G1 X153.318 Y117.088 E6.19132
G1 X152.806 Y117.248 E6.21839
G1 X152.276 Y117.33 E6.24546
G1 X151.991 Y117.341 E6.25985
G1 X58.009 Y117.341 E11.00268
G1 X57.474 Y117.301 E11.02976
G1 X56.951 Y117.182 E11.05682
G1 X56.452 Y116.987 E11.08386
G1 X55.987 Y116.719 E11.11095
G1 X55.567 Y116.386 E11.138
G1 X55.201 Y115.994 E11.16506
G1 X54.898 Y115.552 E11.1921
G1 X54.663 Y115.069 E11.21921
G1 X54.503 Y114.558 E11.24623
G1 X54.42 Y114.028 E11.2733
G1 X54.409 Y113.74 E11.28785
G1 X54.414 Y97.207 E12.12219
G1 X54.454 Y96.672 E12.14927
G1 X54.573 Y96.149 E12.17633
G1 X54.71 Y95.778 E12.19629
G1 X54.99 Y95.131 E12.23187
G1 X55.239 Y94.656 E12.25894
G1 X55.556 Y94.224 E12.28598
G1 X55.934 Y93.843 E12.31306
G1 X56.441 Y93.475 E12.34468
G0 F3600 X56.647 Y93.818
G1 F1800 X57.075 Y93.561 E12.36987
G1 X57.527 Y93.335 E12.39537
G1 X58.01 Y93.184 E12.42091
G1 X58.407 Y93.12 E12.4412
G1 X58.942 Y93.067 E12.46834
G1 X59.258 Y93.051 E12.4843
G1 X151.074 Y93.067 E17.11783
G1 X151.578 Y93.107 E17.14334
G1 X151.992 Y93.202 E17.16478
G1 X152.399 Y93.324 E17.18622
G1 X152.87 Y93.507 E17.21172
G1 X153.307 Y93.762 E17.23725
G1 X153.701 Y94.086 E17.26299
G1 X154.066 Y94.438 E17.28858
G1 X154.401 Y94.816 E17.31407
G1 X154.673 Y95.243 E17.33962
G1 X154.873 Y95.707 E17.36512
G1 X154.994 Y96.17 E17.38927
G1 X155.149 Y97.024 E17.43307
G1 X155.2 Y97.597 E17.4621
G1 X155.191 Y113.743 E18.27692
G1 X155.151 Y114.247 E18.30243
G1 X155.032 Y114.738 E18.32793
G1 X154.837 Y115.205 E18.35347
G1 X154.571 Y115.634 E18.37894
G1 X154.24 Y116.017 E18.40449
G1 X153.854 Y116.343 E18.42998
G1 X153.421 Y116.604 E18.4555
G1 X152.952 Y116.793 E18.48101
G1 X152.459 Y116.907 E18.50655
G1 X151.991 Y116.941 E18.53023
G1 X58.009 Y116.941 E23.27306
G1 X57.505 Y116.901 E23.29858
G1 X57.014 Y116.782 E23.32407
G1 X56.547 Y116.588 E23.34959
G1 X56.117 Y116.322 E23.37511
G1 X55.734 Y115.992 E23.40062
G1 X55.408 Y115.605 E23.42616
G1 X55.147 Y115.172 E23.45167
G1 X54.957 Y114.704 E23.47716
G1 X54.844 Y114.211 E23.50269
G1 X54.809 Y113.74 E23.52652
G1 X54.814 Y97.207 E24.36086
G1 X54.854 Y96.703 E24.38638
G1 X54.973 Y96.212 E24.41187
G1 X55.077 Y95.937 E24.42671
G1 X55.357 Y95.29 E24.46229
G1 X55.594 Y94.843 E24.48782
G1 X55.898 Y94.44 E24.5133
G1 X56.262 Y94.089 E24.53881
G1 X56.647 Y93.818 E24.56257
G1 F1500 E18.06257
G0 F3600 X58.536 Y95.651
G0 X59.041 Y96.869
G0 X151.078 Y96.965
G0 X151.103 Y96.869
;TYPE:WALL-INNER
G1 F1500 E24.56257
G1 F1800 X151.195 Y96.907 E24.5676
G1 X151.279 Y96.971 E24.57293
G1 X151.343 Y97.055 E24.57826
G1 X151.381 Y97.147 E24.58328
G1 X151.4 Y97.29 E24.59056
G1 X151.4 Y113.15 E25.39094
G1 X58.6 Y113.15 E30.07412
G1 X58.6 Y97.29 E30.8745
G1 X58.619 Y97.147 E30.88178
G1 X58.657 Y97.055 E30.8868
G1 X58.721 Y96.971 E30.89213
G1 X58.805 Y96.907 E30.89746
G1 X58.897 Y96.869 E30.90248
G1 X59.04 Y96.85 E30.90976
G1 X150.96 Y96.85 E35.54853
G1 X151.103 Y96.869 E35.55581
G0 F3600 X151.204 Y96.478
;TYPE:WALL-OUTER
G1 F1800 X151.399 Y96.559 E35.56647
G1 X151.564 Y96.686 E35.57698
G1 X151.691 Y96.851 E35.58748
G1 X151.772 Y97.046 E35.59814
G1 X151.8 Y97.261 E35.60908
G1 X151.8 Y113.55 E36.43111
G1 X58.2 Y113.55 E41.15466
G1 X58.2 Y97.261 E41.97669
G1 X58.228 Y97.046 E41.98763
G1 X58.309 Y96.851 E41.99829
G1 X58.436 Y96.686 E42.0088
G1 X58.601 Y96.559 E42.01931
G1 X58.796 Y96.478 E42.02996
G1 X59.011 Y96.45 E42.0409
G1 X150.989 Y96.45 E46.6826
G1 X151.204 Y96.478 E46.69354
G0 F3600 X151.388 Y96.554
G0 X151 Y97.25
;TYPE:SKIN
G1 F1800 X151.01 Y97.309 E46.69656
G1 X151.01 Y112.76 E47.4763
G1 X58.99 Y112.76 E52.12012
G1 X58.99 Y97.309 E52.89986
G1 X59.002 Y97.247 E52.90305
G1 X59.059 Y97.24 E52.90594
G1 X150.941 Y97.24 E57.5428
G1 X151 Y97.25 E57.54582
G0 F3600 X150.829 Y97.654
G1 F1800 X150.594 Y97.42 E57.56255
G0 F3600 X150.028 Y97.42
G1 F1800 X150.829 Y98.22 E57.61968
G1 X150.899 Y98.29
G0 F3600 X150.829 Y98.786
G1 F1800 X149.463 Y97.42 E57.71717
G1 X149.393 Y97.35
G0 F3600 X148.897 Y97.42
G1 F1800 X150.829 Y99.352 E57.85506
G1 X150.899 Y99.422
G0 F3600 X150.829 Y99.917
G1 F1800 X148.331 Y97.42 E58.0333
G1 X148.261 Y97.35
G0 F3600 X147.766 Y97.42
G1 F1800 X150.829 Y100.483 E58.2519
G1 X150.899 Y100.553
G0 F3600 X150.829 Y101.049
G1 F1800 X147.2 Y97.42 E58.5109
G1 X147.13 Y97.35
G0 F3600 X146.634 Y97.42
G1 F1800 X150.829 Y101.614 E58.81026
G1 X150.899 Y101.684
G0 F3600 X150.829 Y102.18
G1 F1800 X146.069 Y97.42 E59.14997
G1 X145.999 Y97.35
G0 F3600 X145.503 Y97.42
G1 F1800 X150.829 Y102.746 E59.53008
G1 X150.899 Y102.816
G0 F3600 X150.829 Y103.311
G1 F1800 X144.937 Y97.42 E59.95055
G1 X144.867 Y97.35
G0 F3600 X144.372 Y97.42
G1 F1800 X150.829 Y103.877 E60.41138
G1 X150.899 Y103.947
G0 F3600 X150.829 Y104.443
G1 F1800 X143.806 Y97.42 E60.9126
G1 X143.736 Y97.35
G0 F3600 X143.24 Y97.42
G1 F1800 X150.829 Y105.008 E61.45418
G1 X150.899 Y105.078
G0 F3600 X150.829 Y105.574
G1 F1800 X142.675 Y97.42 E62.03612
G1 X142.605 Y97.35
G0 F3600 X142.109 Y97.42
G1 F1800 X150.829 Y106.14 E62.65846
G1 X150.899 Y106.21
G0 F3600 X150.829 Y106.705
G1 F1800 X141.543 Y97.42 E63.32115
G1 X141.473 Y97.35
G0 F3600 X140.978 Y97.42
G1 F1800 X150.829 Y107.271 E64.0242
G1 X150.899 Y107.341
G0 F3600 X150.829 Y107.837
G1 F1800 X140.412 Y97.42 E64.76765
G1 X140.342 Y97.35
G0 F3600 X139.846 Y97.42
G1 F1800 X150.829 Y108.403 E65.55149
G1 X150.899 Y108.473
G0 F3600 X150.829 Y108.968
G1 F1800 X139.28 Y97.42 E66.3757
G1 X139.21 Y97.35
G0 F3600 X138.715 Y97.42
G1 F1800 X150.829 Y109.534 E67.24026
G1 X150.899 Y109.604
G0 F3600 X150.829 Y110.1
G1 F1800 X138.149 Y97.42 E68.14521
G1 X138.079 Y97.35
G0 F3600 X137.583 Y97.42
G1 F1800 X150.829 Y110.665 E69.09053
G1 X150.899 Y110.735
G0 F3600 X150.829 Y111.231
G1 F1800 X137.018 Y97.42 E70.0762
G1 X136.948 Y97.35
G0 F3600 X136.452 Y97.42
G1 F1800 X150.829 Y111.797 E71.10227
G1 X150.899 Y111.867
G0 F3600 X150.829 Y112.362
G1 F1800 X135.886 Y97.42 E72.16869
G1 X135.816 Y97.35
G0 F3600 X135.321 Y97.42
G1 F1800 X150.48 Y112.579 E73.25057
G1 X150.55 Y112.649
G0 F3600 X149.914 Y112.579
G1 F1800 X134.755 Y97.42 E74.33245
G1 X134.685 Y97.35
G0 F3600 X134.189 Y97.42
G1 F1800 X149.348 Y112.579 E75.41433
G1 X149.418 Y112.649
G0 F3600 X148.783 Y112.579
G1 F1800 X133.624 Y97.42 E76.49621
G1 X133.554 Y97.35
G0 F3600 X133.058 Y97.42
G1 F1800 X148.217 Y112.579 E77.57809
G1 X148.287 Y112.649
G0 F3600 X147.651 Y112.579
G1 F1800 X132.492 Y97.42 E78.65996
G1 X132.422 Y97.35
G0 F3600 X131.927 Y97.42
G1 F1800 X147.085 Y112.579 E79.74181
G1 X147.155 Y112.649
G0 F3600 X146.52 Y112.579
G1 F1800 X131.361 Y97.42 E80.82369
G1 X131.291 Y97.35
G0 F3600 X130.795 Y97.42
G1 F1800 X145.954 Y112.579 E81.90556
G1 X146.024 Y112.649
G0 F3600 X145.388 Y112.579
G1 F1800 X130.229 Y97.42 E82.98744
G1 X130.159 Y97.35
G0 F3600 X129.664 Y97.42
G1 F1800 X144.823 Y112.579 E84.06932
G1 X144.893 Y112.649
G0 F3600 X144.257 Y112.579
G1 F1800 X129.098 Y97.42 E85.1512
G1 X129.028 Y97.35
G0 F3600 X128.532 Y97.42
G1 F1800 X143.691 Y112.579 E86.23308
G1 X143.761 Y112.649
G0 F3600 X143.126 Y112.579
G1 F1800 X127.967 Y97.42 E87.31496
G1 X127.897 Y97.35
G0 F3600 X127.401 Y97.42
G1 F1800 X142.56 Y112.579 E88.39683
G1 X142.63 Y112.649
G0 F3600 X141.994 Y112.579
G1 F1800 X126.835 Y97.42 E89.47871
G1 X126.765 Y97.35
G0 F3600 X126.27 Y97.42
G1 F1800 X141.429 Y112.579 E90.56059
G1 X141.499 Y112.649
G0 F3600 X140.863 Y112.579
G1 F1800 X125.704 Y97.42 E91.64247
G1 X125.634 Y97.35
G0 F3600 X125.138 Y97.42
G1 F1800 X140.297 Y112.579 E92.72435
G1 X140.367 Y112.649
G0 F3600 X139.732 Y112.579
G1 F1800 X124.573 Y97.42 E93.80623
G1 X124.503 Y97.35
G0 F3600 X124.007 Y97.42
G1 F1800 X139.166 Y112.579 E94.8881
G1 X139.236 Y112.649
G0 F3600 X138.6 Y112.579
G1 F1800 X123.441 Y97.42 E95.96998
G1 X123.371 Y97.35
G0 F3600 X122.876 Y97.42
G1 F1800 X138.035 Y112.579 E97.05186
G1 X138.105 Y112.649
G0 F3600 X137.469 Y112.579
G1 F1800 X122.31 Y97.42 E98.13374
G1 X122.24 Y97.35
G0 F3600 X121.744 Y97.42
G1 F1800 X136.903 Y112.579 E99.21562
G1 X136.973 Y112.649
G0 F3600 X136.337 Y112.579
G1 F1800 X121.179 Y97.42 E100.29746
G1 X121.109 Y97.35
G0 F3600 X120.613 Y97.42
G1 F1800 X135.772 Y112.579 E101.37934
G1 X135.842 Y112.649
G0 F3600 X135.206 Y112.579
G1 F1800 X120.047 Y97.42 E102.46122
G1 X119.977 Y97.35
G0 F3600 X119.481 Y97.42
G1 F1800 X134.64 Y112.579 E103.54309
G1 X134.71 Y112.649
G0 F3600 X134.075 Y112.579
G1 F1800 X118.916 Y97.42 E104.62497
G1 X118.846 Y97.35
G0 F3600 X118.35 Y97.42
G1 F1800 X133.509 Y112.579 E105.70685
G1 X133.579 Y112.649
G0 F3600 X132.943 Y112.579
G1 F1800 X117.784 Y97.42 E106.78873
G1 X117.714 Y97.35
G0 F3600 X117.219 Y97.42
G1 F1800 X132.378 Y112.579 E107.87061
G1 X132.448 Y112.649
G0 F3600 X131.812 Y112.579
G1 F1800 X116.653 Y97.42 E108.95249
G1 X116.583 Y97.35
G0 F3600 X116.087 Y97.42
G1 F1800 X131.246 Y112.579 E110.03436
G1 X131.316 Y112.649
G0 F3600 X130.681 Y112.579
G1 F1800 X115.522 Y97.42 E111.11624
G1 X115.452 Y97.35
G0 F3600 X114.956 Y97.42
G1 F1800 X130.115 Y112.579 E112.19812
G1 X130.185 Y112.649
G0 F3600 X129.549 Y112.579
G1 F1800 X114.39 Y97.42 E113.28
G1 X114.32 Y97.35
G0 F3600 X113.825 Y97.42
G1 F1800 X128.984 Y112.579 E114.36188
G1 X129.054 Y112.649
G0 F3600 X128.418 Y112.579
G1 F1800 X113.259 Y97.42 E115.44376
G1 X113.189 Y97.35
G0 F3600 X112.693 Y97.42
G1 F1800 X127.852 Y112.579 E116.52563
G1 X127.922 Y112.649
G0 F3600 X127.286 Y112.579
G1 F1800 X112.128 Y97.42 E117.60748
G1 X112.058 Y97.35
G0 F3600 X111.562 Y97.42
G1 F1800 X126.721 Y112.579 E118.68936
G1 X126.791 Y112.649
G0 F3600 X126.155 Y112.579
G1 F1800 X110.996 Y97.42 E119.77123
G1 X110.926 Y97.35
G0 F3600 X110.43 Y97.42
G1 F1800 X125.589 Y112.579 E120.85311
G1 X125.659 Y112.649
G0 F3600 X125.024 Y112.579
G1 F1800 X109.865 Y97.42 E121.93499
G1 X109.795 Y97.35
G0 F3600 X109.299 Y97.42
G1 F1800 X124.458 Y112.579 E123.01687
G1 X124.528 Y112.649
G0 F3600 X123.892 Y112.579
G1 F1800 X108.733 Y97.42 E124.09875
G1 X108.663 Y97.35
G0 F3600 X108.168 Y97.42
G1 F1800 X123.327 Y112.579 E125.18063
G1 X123.397 Y112.649
G0 F3600 X122.761 Y112.579
G1 F1800 X107.602 Y97.42 E126.2625
G1 X107.532 Y97.35
G0 F3600 X107.036 Y97.42
G1 F1800 X122.195 Y112.579 E127.34438
G1 X122.265 Y112.649
G0 F3600 X121.63 Y112.579
G1 F1800 X106.471 Y97.42 E128.42626
G1 X106.401 Y97.35
G0 F3600 X105.905 Y97.42
G1 F1800 X121.064 Y112.579 E129.50814
G1 X121.134 Y112.649
G0 F3600 X120.498 Y112.579
G1 F1800 X105.339 Y97.42 E130.59002
G1 X105.269 Y97.35
G0 F3600 X104.773 Y97.419
G1 F1800 X119.933 Y112.579 E131.67197
G1 X120.003 Y112.649
G0 F3600 X119.367 Y112.579
G1 F1800 X104.207 Y97.419 E132.75392
G1 X104.137 Y97.349
G0 F3600 X103.642 Y97.419
G1 F1800 X118.801 Y112.579 E133.83583
G1 X118.871 Y112.649
G0 F3600 X118.236 Y112.579
G1 F1800 X103.076 Y97.419 E134.91778
G1 X103.006 Y97.349
G0 F3600 X102.51 Y97.419
G1 F1800 X117.67 Y112.579 E135.99973
G1 X117.74 Y112.649
G0 F3600 X117.104 Y112.579
G1 F1800 X101.944 Y97.419 E137.08168
G1 X101.874 Y97.349
G0 F3600 X101.379 Y97.419
G1 F1800 X116.538 Y112.579 E138.16359
G1 X116.608 Y112.649
G0 F3600 X115.973 Y112.579
G1 F1800 X100.813 Y97.419 E139.24554
G1 X100.743 Y97.349
G0 F3600 X100.247 Y97.419
G1 F1800 X115.407 Y112.579 E140.32749
G1 X115.477 Y112.649
G0 F3600 X114.841 Y112.579
G1 F1800 X99.682 Y97.419 E141.40941
G1 X99.612 Y97.349
G0 F3600 X99.116 Y97.419
G1 F1800 X114.276 Y112.579 E142.49136
G1 X114.346 Y112.649
G0 F3600 X113.71 Y112.579
G1 F1800 X98.55 Y97.419 E143.57331
G1 X98.48 Y97.349
G0 F3600 X97.985 Y97.419
G1 F1800 X113.144 Y112.579 E144.65522
G1 X113.214 Y112.649
G0 F3600 X112.579 Y112.579
G1 F1800 X97.419 Y97.419 E145.73717
G1 X97.349 Y97.349
G0 F3600 X96.853 Y97.419
G1 F1800 X112.013 Y112.579 E146.81912
G1 X112.083 Y112.649
G0 F3600 X111.447 Y112.579
G1 F1800 X96.288 Y97.419 E147.90103
G1 X96.218 Y97.349
G0 F3600 X95.722 Y97.419
G1 F1800 X110.882 Y112.579 E148.98298
G1 X110.952 Y112.649
G0 F3600 X110.316 Y112.579
G1 F1800 X95.156 Y97.419 E150.06493
G1 X95.086 Y97.349
G0 F3600 X94.591 Y97.419
G1 F1800 X109.75 Y112.579 E151.14685
G1 X109.82 Y112.649
G0 F3600 X109.185 Y112.579
G1 F1800 X94.025 Y97.419 E152.2288
G1 X93.955 Y97.349
G0 F3600 X93.459 Y97.419
G1 F1800 X108.619 Y112.579 E153.31075
G1 X108.689 Y112.649
G0 F3600 X108.053 Y112.579
G1 F1800 X92.894 Y97.419 E154.39266
G1 X92.824 Y97.349
G0 F3600 X92.328 Y97.419
G1 F1800 X107.488 Y112.579 E155.47461
G1 X107.558 Y112.649
G0 F3600 X106.922 Y112.579
G1 F1800 X91.762 Y97.419 E156.55656
G1 X91.692 Y97.349
G0 F3600 X91.196 Y97.419
G1 F1800 X106.356 Y112.579 E157.63851
G1 X106.426 Y112.649
G0 F3600 X105.79 Y112.579
G1 F1800 X90.631 Y97.419 E158.72042
G1 X90.561 Y97.349
G0 F3600 X90.065 Y97.419
G1 F1800 X105.225 Y112.579 E159.80237
G1 X105.295 Y112.649
G0 F3600 X104.659 Y112.579
G1 F1800 X89.499 Y97.419 E160.88432
G1 X89.429 Y97.349
G0 F3600 X88.934 Y97.419
G1 F1800 X104.093 Y112.579 E161.96624
G1 X104.163 Y112.649
G0 F3600 X103.528 Y112.579
G1 F1800 X88.368 Y97.419 E163.04819
G1 X88.298 Y97.349
G0 F3600 X87.802 Y97.419
G1 F1800 X102.962 Y112.579 E164.13014
G1 X103.032 Y112.649
G0 F3600 X102.396 Y112.579
G1 F1800 X87.237 Y97.419 E165.21205
G1 X87.167 Y97.349
G0 F3600 X86.671 Y97.419
G1 F1800 X101.831 Y112.579 E166.294
G1 X101.901 Y112.649
G0 F3600 X101.265 Y112.579
G1 F1800 X86.105 Y97.419 E167.37595
G1 X86.035 Y97.349
G0 F3600 X85.54 Y97.419
G1 F1800 X100.699 Y112.579 E168.45786
G1 X100.769 Y112.649
G0 F3600 X100.134 Y112.579
G1 F1800 X84.974 Y97.419 E169.53981
G1 X84.904 Y97.349
G0 F3600 X84.408 Y97.419
G1 F1800 X99.568 Y112.579 E170.62176
G1 X99.638 Y112.649
G0 F3600 X99.002 Y112.579
G1 F1800 X83.843 Y97.419 E171.70368
G1 X83.773 Y97.349
G0 F3600 X83.277 Y97.419
G1 F1800 X98.437 Y112.579 E172.78563
G1 X98.507 Y112.649
G0 F3600 X97.871 Y112.579
G1 F1800 X82.711 Y97.419 E173.86758
G1 X82.641 Y97.349
G0 F3600 X82.146 Y97.419
G1 F1800 X97.305 Y112.579 E174.94949
G1 X97.375 Y112.649
G0 F3600 X96.739 Y112.579
G1 F1800 X81.58 Y97.419 E176.0314
G1 X81.51 Y97.349
G0 F3600 X81.014 Y97.419
G1 F1800 X96.174 Y112.579 E177.11335
G1 X96.244 Y112.649
G0 F3600 X95.608 Y112.579
G1 F1800 X80.448 Y97.419 E178.1953
G1 X80.378 Y97.349
G0 F3600 X79.883 Y97.419
G1 F1800 X95.042 Y112.579 E179.27722
G1 X95.112 Y112.649
G0 F3600 X94.477 Y112.579
G1 F1800 X79.317 Y97.419 E180.35917
G1 X79.247 Y97.349
G0 F3600 X78.751 Y97.419
G1 F1800 X93.911 Y112.579 E181.44112
G1 X93.981 Y112.649
G0 F3600 X93.345 Y112.579
G1 F1800 X78.186 Y97.419 E182.52303
G1 X78.116 Y97.349
G0 F3600 X77.62 Y97.419
G1 F1800 X92.78 Y112.579 E183.60498
G1 X92.85 Y112.649
G0 F3600 X92.214 Y112.579
G1 F1800 X77.054 Y97.419 E184.68693
G1 X76.984 Y97.349
G0 F3600 X76.489 Y97.419
G1 F1800 X91.648 Y112.579 E185.76884
G1 X91.718 Y112.649
G0 F3600 X91.083 Y112.579
G1 F1800 X75.923 Y97.419 E186.85079
G1 X75.853 Y97.349
G0 F3600 X75.357 Y97.419
G1 F1800 X90.517 Y112.579 E187.93274
G1 X90.587 Y112.649
G0 F3600 X89.951 Y112.579
G1 F1800 X74.792 Y97.419 E189.01466
G1 X74.722 Y97.349
G0 F3600 X74.226 Y97.419
G1 F1800 X89.386 Y112.579 E190.09661
G1 X89.456 Y112.649
G0 F3600 X88.82 Y112.579
G1 F1800 X73.66 Y97.419 E191.17856
