;FLAVOR:Marlin
;TIME:829
;Filament used: 0.618134m
;Layer height: 0.2
;Generated with Cura_SteamEngine 3.2.1
M190 S50
M104 S200
M109 S200
M82 ;absolute extrusion mode
G28 ;Home
G1 Z15.0 F6000 ;Move the platform down 15mm
;Prime the extruder
G92 E0
G1 F200 E3
G92 E0
;LAYER_COUNT:4
;LAYER:0
M107
G0 F4500 X57.197 Y93.506 Z0.3
;TYPE:SKIRT
G1 F1200 X57.684 Y93.282 E0.02674
G1 X57.985 Y93.185 E0.04252
G1 X58.519 Y93.038 E0.07015
G1 X59.045 Y92.935 E0.09689
G1 X59.474 Y92.909 E0.11834
G1 X150.623 Y92.917 E4.66578
G1 X151.158 Y92.957 E4.69254
G1 X151.657 Y93.069 E4.71806
G1 X152.064 Y93.191 E4.73926
G1 X152.564 Y93.382 E4.76596
G1 X153.031 Y93.646 E4.79272
G1 X153.529 Y94.048 E4.82465
G1 X153.894 Y94.4 E4.84995
G1 X154.251 Y94.8 E4.8767
G1 X154.545 Y95.248 E4.90343
G1 X154.769 Y95.736 E4.93022
G1 X154.937 Y96.348 E4.96189
G1 X155.092 Y97.202 E5.00519
G1 X155.15 Y97.849 E5.0376
G1 X155.133 Y112.577 E5.77238
G1 X155.092 Y113.112 E5.79915
G1 X154.983 Y113.601 E5.82414
G1 X154.862 Y114.007 E5.84528
G1 X154.671 Y114.508 E5.87203
G1 X154.408 Y114.975 E5.89877
G1 X154.003 Y115.478 E5.93099
G1 X153.651 Y115.843 E5.95629
G1 X153.251 Y116.2 E5.98303
G1 X152.803 Y116.494 E6.00977
G1 X152.315 Y116.718 E6.03656
G1 X152.015 Y116.815 E6.05229
G1 X151.481 Y116.962 E6.07992
G1 X150.955 Y117.065 E6.10666
G1 X150.526 Y117.091 E6.1281
G1 X59.46 Y117.09 E10.6714
G1 X58.925 Y117.05 E10.69817
G1 X58.543 Y116.971 E10.71763
G1 X58.053 Y116.842 E10.74291
G1 X57.546 Y116.668 E10.76965
G1 X57.071 Y116.419 E10.79641
G1 X56.471 Y115.952 E10.83434
G1 X56.106 Y115.6 E10.85964
G1 X55.749 Y115.2 E10.88639
G1 X55.455 Y114.752 E10.91312
G1 X55.231 Y114.264 E10.93991
G1 X55.133 Y113.96 E10.95584
G1 X54.987 Y113.427 E10.98342
G1 X54.884 Y112.901 E11.01016
G1 X54.859 Y112.476 E11.0314
G1 X54.86 Y97.511 E11.778
G1 X54.9 Y96.976 E11.80477
G1 X54.978 Y96.596 E11.82412
G1 X55.107 Y96.105 E11.84945
G1 X55.282 Y95.598 E11.87621
G1 X55.53 Y95.123 E11.90294
G1 X55.998 Y94.521 E11.94098
G1 X56.349 Y94.157 E11.96621
G1 X56.749 Y93.8 E11.99296
G1 X57.197 Y93.506 E12.01969
G0 F4500 X57.442 Y93.828
G1 F1200 X58.091 Y93.571 E12.05452
G1 X58.625 Y93.424 E12.08215
G1 X59.121 Y93.329 E12.10735
G1 X59.474 Y93.309 E12.12499
G1 X150.623 Y93.317 E16.67243
G1 X151.127 Y93.357 E16.69765
G1 X151.542 Y93.452 E16.71889
G1 X151.949 Y93.574 E16.74009
G1 X152.42 Y93.757 E16.7653
G1 X152.857 Y94.012 E16.79054
G1 X153.251 Y94.336 E16.81599
G1 X153.616 Y94.688 E16.84129
G1 X153.951 Y95.066 E16.86649
G1 X154.223 Y95.493 E16.89175
G1 X154.423 Y95.957 E16.91695
G1 X154.544 Y96.42 E16.94083
G1 X154.699 Y97.274 E16.98413
G1 X154.75 Y97.849 E17.01293
G1 X154.733 Y112.577 E17.74771
G1 X154.692 Y113.081 E17.77294
G1 X154.6 Y113.487 E17.79371
G1 X154.479 Y113.893 E17.81485
G1 X154.296 Y114.365 E17.8401
G1 X154.042 Y114.802 E17.86532
G1 X153.715 Y115.2 E17.89102
G1 X153.363 Y115.565 E17.91632
G1 X152.985 Y115.9 E17.94152
G1 X152.558 Y116.172 E17.96677
G1 X151.909 Y116.429 E18.0016
G1 X151.375 Y116.576 E18.02923
G1 X150.879 Y116.671 E18.05443
G1 X150.526 Y116.691 E18.07207
G1 X59.46 Y116.69 E22.61537
G1 X58.956 Y116.65 E22.64059
G1 X58.645 Y116.585 E22.65644
G1 X58.155 Y116.456 E22.68172
G1 X57.678 Y116.289 E22.70694
G1 X57.233 Y116.049 E22.73216
G1 X56.749 Y115.664 E22.76301
G1 X56.384 Y115.312 E22.78831
G1 X56.049 Y114.934 E22.81351
G1 X55.777 Y114.507 E22.83877
G1 X55.519 Y113.854 E22.8738
G1 X55.373 Y113.321 E22.90137
G1 X55.278 Y112.825 E22.92656
G1 X55.259 Y112.476 E22.944
G1 X55.26 Y97.511 E23.69061
G1 X55.3 Y97.007 E23.71583
G1 X55.365 Y96.698 E23.73159
G1 X55.494 Y96.207 E23.75691
G1 X55.661 Y95.73 E23.78213
G1 X55.901 Y95.284 E23.8074
G1 X56.285 Y94.799 E23.83826
G1 X56.636 Y94.435 E23.86349
G1 X57.015 Y94.1 E23.88872
G1 X57.442 Y93.828 E23.91398
G1 F2400 E16.91398
G0 F4500 X59.323 Y95.847
G0 X59.491 Y97.119
G0 X150.628 Y97.215
G0 X150.653 Y97.119
;TYPE:WALL-INNER
G1 F2400 E23.91398
G1 F1200 X150.745 Y97.157 E23.91895
G1 X150.829 Y97.221 E23.92421
G1 X150.893 Y97.305 E23.92948
G1 X150.931 Y97.397 E23.93445
G1 X150.95 Y97.54 E23.94165
G1 X150.95 Y112.46 E24.68601
G1 X150.931 Y112.603 E24.69321
G1 X150.893 Y112.695 E24.69817
G1 X150.829 Y112.779 E24.70344
G1 X150.745 Y112.843 E24.70871
G1 X150.653 Y112.881 E24.71367
G1 X150.51 Y112.9 E24.72087
G1 X59.49 Y112.9 E29.26188
G1 X59.347 Y112.881 E29.26907
G1 X59.255 Y112.843 E29.27404
G1 X59.171 Y112.779 E29.27931
G1 X59.107 Y112.695 E29.28458
G1 X59.069 Y112.603 E29.28954
G1 X59.05 Y112.46 E29.29674
G1 X59.05 Y97.54 E30.0411
G1 X59.069 Y97.397 E30.0483
G1 X59.107 Y97.305 E30.05327
G1 X59.171 Y97.221 E30.05853
G1 X59.255 Y97.157 E30.0638
G1 X59.347 Y97.119 E30.06877
G1 X59.49 Y97.1 E30.07597
G1 X150.51 Y97.1 E34.61697
G1 X150.653 Y97.119 E34.62417
G0 F4500 X150.754 Y96.728
;TYPE:WALL-OUTER
G1 F1200 X150.949 Y96.809 E34.6347
G1 X151.114 Y96.936 E34.64509
G1 X151.241 Y97.101 E34.65548
G1 X151.322 Y97.296 E34.66601
G1 X151.35 Y97.511 E34.67683
G1 X151.35 Y112.489 E35.42409
G1 X151.322 Y112.704 E35.4349
G1 X151.241 Y112.899 E35.44544
G1 X151.114 Y113.064 E35.45583
G1 X150.949 Y113.191 E35.46621
G1 X150.754 Y113.272 E35.47675
G1 X150.539 Y113.3 E35.48757
G1 X59.461 Y113.3 E40.03147
G1 X59.246 Y113.272 E40.04228
G1 X59.051 Y113.191 E40.05282
G1 X58.886 Y113.064 E40.0632
G1 X58.759 Y112.899 E40.07359
G1 X58.678 Y112.704 E40.08413
G1 X58.65 Y112.489 E40.09494
G1 X58.65 Y97.511 E40.8422
G1 X58.678 Y97.296 E40.85302
G1 X58.759 Y97.101 E40.86355
G1 X58.886 Y96.936 E40.87394
G1 X59.051 Y96.809 E40.88433
G1 X59.246 Y96.728 E40.89486
G1 X59.461 Y96.7 E40.90568
G1 X150.539 Y96.7 E45.44958
G1 X150.754 Y96.728 E45.4604
G0 F4500 X150.938 Y96.804
G0 X150.548 Y97.497
;TYPE:SKIN
G1 F1200 X150.56 Y97.559 E45.46355
G1 X150.56 Y112.441 E46.20601
G1 X150.548 Y112.503 E46.20916
G1 X150.491 Y112.51 E46.21203
G1 X59.509 Y112.51 E50.75114
G1 X59.447 Y112.498 E50.75429
G1 X59.44 Y112.441 E50.75715
G1 X59.44 Y97.559 E51.49962
G1 X59.452 Y97.497 E51.50277
G1 X59.509 Y97.49 E51.50564
G1 X150.491 Y97.49 E56.04475
G1 X150.548 Y97.497 E56.04761
G0 F4500 X150.328 Y97.719
G1 F1200 X150.045 Y98.002 E56.07472
G1 X150.449 Y98.406
G0 F4500 X150.379 Y98.902
G1 F1200 X149.147 Y97.669 E56.16168
G1 X149.077 Y97.599
G0 F4500 X148.581 Y97.669
G1 F1200 X150.379 Y99.468 E56.28857
G1 X150.449 Y99.538
G0 F4500 X150.379 Y100.033
G1 F1200 X148.015 Y97.669 E56.45536
G1 X147.945 Y97.599
G0 F4500 X147.45 Y97.669
G1 F1200 X150.379 Y100.599 E56.66205
G1 X150.449 Y100.669
G0 F4500 X150.379 Y101.165
G1 F1200 X146.884 Y97.669 E56.90868
G1 X146.814 Y97.599
G0 F4500 X146.318 Y97.669
G1 F1200 X150.379 Y101.73 E57.19521
G1 X150.449 Y101.8
G0 F4500 X150.379 Y102.296
G1 F1200 X145.753 Y97.669 E57.52163
G1 X145.683 Y97.599
G0 F4500 X145.187 Y97.669
G1 F1200 X150.379 Y102.862 E57.88799
G1 X150.449 Y102.932
G0 F4500 X150.379 Y103.427
G1 F1200 X144.621 Y97.669 E58.29425
G1 X144.551 Y97.599
G0 F4500 X144.056 Y97.669
G1 F1200 X150.379 Y103.993 E58.74041
G1 X150.449 Y104.063
G0 F4500 X150.379 Y104.559
G1 F1200 X143.49 Y97.669 E59.2265
G1 X143.42 Y97.599
G0 F4500 X142.924 Y97.669
G1 F1200 X150.379 Y105.124 E59.75249
G1 X150.449 Y105.194
G0 F4500 X150.379 Y105.69
G1 F1200 X142.358 Y97.669 E60.31841
G1 X142.288 Y97.599
G0 F4500 X141.793 Y97.669
G1 F1200 X150.379 Y106.256 E60.92424
G1 X150.449 Y106.326
G0 F4500 X150.379 Y106.821
G1 F1200 X141.227 Y97.669 E61.56996
G1 X141.157 Y97.599
G0 F4500 X140.661 Y97.669
G1 F1200 X150.379 Y107.387 E62.25562
G1 X150.449 Y107.457
G0 F4500 X150.379 Y107.953
G1 F1200 X140.096 Y97.669 E62.98117
G1 X140.026 Y97.599
G0 F4500 X139.53 Y97.669
G1 F1200 X150.379 Y108.518 E63.74663
G1 X150.449 Y108.588
G0 F4500 X150.379 Y109.084
G1 F1200 X138.964 Y97.669 E64.55202
G1 X138.894 Y97.599
G0 F4500 X138.399 Y97.669
G1 F1200 X150.379 Y109.65 E65.39731
G1 X150.449 Y109.72
G0 F4500 X150.379 Y110.216
G1 F1200 X137.833 Y97.669 E66.28253
G1 X137.763 Y97.599
G0 F4500 X137.267 Y97.669
G1 F1200 X150.379 Y110.781 E67.20765
G1 X150.449 Y110.851
G0 F4500 X150.379 Y111.347
G1 F1200 X136.702 Y97.669 E68.17267
G1 X136.632 Y97.599
G0 F4500 X136.136 Y97.669
G1 F1200 X150.379 Y111.913 E69.17763
G1 X150.449 Y111.983
G0 F4500 X150.23 Y112.329
G1 F1200 X135.57 Y97.669 E70.21197
G1 X135.5 Y97.599
G0 F4500 X135.005 Y97.669
G1 F1200 X149.664 Y112.329 E71.24628
G1 X149.734 Y112.399
G0 F4500 X149.099 Y112.329
G1 F1200 X134.439 Y97.669 E72.28062
G1 X134.369 Y97.599
G0 F4500 X133.873 Y97.669
G1 F1200 X148.533 Y112.329 E73.31496
G1 X148.603 Y112.399
G0 F4500 X147.967 Y112.329
G1 F1200 X133.308 Y97.669 E74.34927
G1 X133.238 Y97.599
G0 F4500 X132.742 Y97.669
G1 F1200 X147.402 Y112.329 E75.38361
G1 X147.472 Y112.399
G0 F4500 X146.836 Y112.329
G1 F1200 X132.176 Y97.669 E76.41796
G1 X132.106 Y97.599
G0 F4500 X131.61 Y97.669
G1 F1200 X146.27 Y112.329 E77.4523
G1 X146.34 Y112.399
G0 F4500 X145.705 Y112.329
G1 F1200 X131.045 Y97.669 E78.48664
G1 X130.975 Y97.599
G0 F4500 X130.479 Y97.669
G1 F1200 X145.139 Y112.329 E79.52098
G1 X145.209 Y112.399
G0 F4500 X144.573 Y112.329
G1 F1200 X129.913 Y97.669 E80.55532
G1 X129.843 Y97.599
G0 F4500 X129.348 Y97.669
G1 F1200 X144.007 Y112.329 E81.58963
G1 X144.077 Y112.399
G0 F4500 X143.442 Y112.329
G1 F1200 X128.782 Y97.669 E82.62397
G1 X128.712 Y97.599
G0 F4500 X128.216 Y97.669
G1 F1200 X142.876 Y112.329 E83.65832
G1 X142.946 Y112.399
G0 F4500 X142.31 Y112.329
G1 F1200 X127.651 Y97.669 E84.69262
G1 X127.581 Y97.599
G0 F4500 X127.085 Y97.669
G1 F1200 X141.745 Y112.329 E85.72696
G1 X141.815 Y112.399
G0 F4500 X141.179 Y112.329
G1 F1200 X126.519 Y97.669 E86.76131
G1 X126.449 Y97.599
G0 F4500 X125.954 Y97.669
G1 F1200 X140.613 Y112.329 E87.79561
G1 X140.683 Y112.399
G0 F4500 X140.048 Y112.329
G1 F1200 X125.388 Y97.669 E88.82996
G1 X125.318 Y97.599
G0 F4500 X124.822 Y97.669
G1 F1200 X139.482 Y112.329 E89.8643
G1 X139.552 Y112.399
G0 F4500 X138.916 Y112.329
G1 F1200 X124.257 Y97.669 E90.8986
G1 X124.187 Y97.599
G0 F4500 X123.691 Y97.669
G1 F1200 X138.351 Y112.329 E91.93295
G1 X138.421 Y112.399
G0 F4500 X137.785 Y112.329
G1 F1200 X123.125 Y97.669 E92.96729
G1 X123.055 Y97.599
G0 F4500 X122.559 Y97.669
G1 F1200 X137.219 Y112.329 E94.00163
G1 X137.289 Y112.399
G0 F4500 X136.654 Y112.329
G1 F1200 X121.994 Y97.669 E95.03597
G1 X121.924 Y97.599
G0 F4500 X121.428 Y97.669
G1 F1200 X136.088 Y112.329 E96.07032
G1 X136.158 Y112.399
G0 F4500 X135.522 Y112.329
G1 F1200 X120.862 Y97.669 E97.10466
G1 X120.792 Y97.599
G0 F4500 X120.297 Y97.669
G1 F1200 X134.956 Y112.329 E98.13896
G1 X135.026 Y112.399
G0 F4500 X134.391 Y112.329
G1 F1200 X119.731 Y97.669 E99.17331
G1 X119.661 Y97.599
G0 F4500 X119.165 Y97.669
G1 F1200 X133.825 Y112.329 E100.20765
G1 X133.895 Y112.399
G0 F4500 X133.259 Y112.329
G1 F1200 X118.6 Y97.669 E101.24196
G1 X118.53 Y97.599
G0 F4500 X118.034 Y97.669
G1 F1200 X132.694 Y112.329 E102.2763
G1 X132.764 Y112.399
G0 F4500 X132.128 Y112.329
G1 F1200 X117.468 Y97.669 E103.31064
G1 X117.398 Y97.599
G0 F4500 X116.903 Y97.669
G1 F1200 X131.562 Y112.329 E104.34495
G1 X131.632 Y112.399
G0 F4500 X130.997 Y112.329
G1 F1200 X116.337 Y97.669 E105.37929
G1 X116.267 Y97.599
G0 F4500 X115.771 Y97.669
G1 F1200 X130.431 Y112.329 E106.41363
G1 X130.501 Y112.399
G0 F4500 X129.865 Y112.329
G1 F1200 X115.206 Y97.669 E107.44794
G1 X115.136 Y97.599
G0 F4500 X114.64 Y97.669
G1 F1200 X129.3 Y112.329 E108.48228
G1 X129.37 Y112.399
G0 F4500 X128.734 Y112.329
G1 F1200 X114.074 Y97.669 E109.51662
G1 X114.004 Y97.599
G0 F4500 X113.509 Y97.669
G1 F1200 X128.168 Y112.329 E110.55093
G1 X128.238 Y112.399
G0 F4500 X127.603 Y112.329
G1 F1200 X112.943 Y97.669 E111.58527
G1 X112.873 Y97.599
G0 F4500 X112.377 Y97.669
G1 F1200 X127.037 Y112.329 E112.61961
G1 X127.107 Y112.399
G0 F4500 X126.471 Y112.329
G1 F1200 X111.811 Y97.669 E113.65396
G1 X111.741 Y97.599
G0 F4500 X111.246 Y97.669
G1 F1200 X125.906 Y112.329 E114.6883
G1 X125.976 Y112.399
G0 F4500 X125.34 Y112.329
G1 F1200 X110.68 Y97.669 E115.72264
G1 X110.61 Y97.599
G0 F4500 X110.114 Y97.669
G1 F1200 X124.774 Y112.329 E116.75698
G1 X124.844 Y112.399
G0 F4500 X124.208 Y112.329
G1 F1200 X109.549 Y97.669 E117.79129
G1 X109.479 Y97.599
G0 F4500 X108.983 Y97.669
G1 F1200 X123.643 Y112.329 E118.82563
G1 X123.713 Y112.399
G0 F4500 X123.077 Y112.329
G1 F1200 X108.417 Y97.669 E119.85997
G1 X108.347 Y97.599
G0 F4500 X107.852 Y97.669
G1 F1200 X122.511 Y112.329 E120.89428
G1 X122.581 Y112.399
G0 F4500 X121.946 Y112.329
G1 F1200 X107.286 Y97.669 E121.92862
G1 X107.216 Y97.599
G0 F4500 X106.72 Y97.669
G1 F1200 X121.38 Y112.329 E122.96297
G1 X121.45 Y112.399
G0 F4500 X120.814 Y112.329
G1 F1200 X106.155 Y97.669 E123.99727
G1 X106.085 Y97.599
G0 F4500 X105.589 Y97.669
G1 F1200 X120.249 Y112.329 E125.03161
G1 X120.319 Y112.399
G0 F4500 X119.683 Y112.329
G1 F1200 X105.023 Y97.669 E126.06596
G1 X104.953 Y97.599
G0 F4500 X104.458 Y97.669
G1 F1200 X119.117 Y112.329 E127.10026
G1 X119.187 Y112.399
G0 F4500 X118.552 Y112.329
G1 F1200 X103.892 Y97.669 E128.13461
G1 X103.822 Y97.599
G0 F4500 X103.326 Y97.669
G1 F1200 X117.986 Y112.329 E129.16895
G1 X118.056 Y112.399
G0 F4500 X117.42 Y112.329
G1 F1200 X102.761 Y97.669 E130.20325
G1 X102.691 Y97.599
G0 F4500 X102.195 Y97.669
G1 F1200 X116.855 Y112.329 E131.2376
G1 X116.925 Y112.399
G0 F4500 X116.289 Y112.329
G1 F1200 X101.629 Y97.669 E132.27194
G1 X101.559 Y97.599
G0 F4500 X101.063 Y97.669
G1 F1200 X115.723 Y112.329 E133.30628
G1 X115.793 Y112.399
G0 F4500 X115.157 Y112.329
G1 F1200 X100.498 Y97.669 E134.34059
G1 X100.428 Y97.599
G0 F4500 X99.932 Y97.669
G1 F1200 X114.592 Y112.329 E135.37493
G1 X114.662 Y112.399
G0 F4500 X114.026 Y112.329
G1 F1200 X99.366 Y97.669 E136.40927
G1 X99.296 Y97.599
G0 F4500 X98.801 Y97.669
G1 F1200 X113.46 Y112.329 E137.44358
G1 X113.53 Y112.399
G0 F4500 X112.895 Y112.329
G1 F1200 X98.235 Y97.669 E138.47792
G1 X98.165 Y97.599
G0 F4500 X97.669 Y97.669
G1 F1200 X112.329 Y112.329 E139.51226
G1 X112.399 Y112.399
G0 F4500 X111.763 Y112.329
G1 F1200 X97.104 Y97.669 E140.54657
G1 X97.034 Y97.599
G0 F4500 X96.538 Y97.669
G1 F1200 X111.198 Y112.329 E141.58091
G1 X111.268 Y112.399
G0 F4500 X110.632 Y112.329
G1 F1200 X95.972 Y97.669 E142.61525
G1 X95.902 Y97.599
G0 F4500 X95.407 Y97.669
G1 F1200 X110.066 Y112.329 E143.64956
G1 X110.136 Y112.399
G0 F4500 X109.501 Y112.329
G1 F1200 X94.841 Y97.669 E144.6839
G1 X94.771 Y97.599
G0 F4500 X94.275 Y97.669
G1 F1200 X108.935 Y112.329 E145.71825
G1 X109.005 Y112.399
G0 F4500 X108.369 Y112.329
G1 F1200 X93.71 Y97.669 E146.75255
G1 X93.64 Y97.599
G0 F4500 X93.144 Y97.669
G1 F1200 X107.804 Y112.329 E147.7869
G1 X107.874 Y112.399
G0 F4500 X107.238 Y112.329
G1 F1200 X92.578 Y97.669 E148.82124
G1 X92.508 Y97.599
G0 F4500 X92.012 Y97.669
G1 F1200 X106.672 Y112.329 E149.85558
G1 X106.742 Y112.399
G0 F4500 X106.107 Y112.329
G1 F1200 X91.447 Y97.669 E150.88992
G1 X91.377 Y97.599
G0 F4500 X90.881 Y97.669
G1 F1200 X105.541 Y112.329 E151.92426
G1 X105.611 Y112.399
G0 F4500 X104.975 Y112.329
G1 F1200 X90.315 Y97.669 E152.95861
G1 X90.245 Y97.599
G0 F4500 X89.75 Y97.669
G1 F1200 X104.409 Y112.329 E153.99291
G1 X104.479 Y112.399
G0 F4500 X103.844 Y112.329
G1 F1200 X89.184 Y97.669 E155.02726
G1 X89.114 Y97.599
G0 F4500 X88.618 Y97.669
G1 F1200 X103.278 Y112.329 E156.0616
G1 X103.348 Y112.399
G0 F4500 X102.712 Y112.329
G1 F1200 X88.053 Y97.669 E157.0959
G1 X87.983 Y97.599
G0 F4500 X87.487 Y97.669
G1 F1200 X102.147 Y112.329 E158.13025
G1 X102.217 Y112.399
G0 F4500 X101.581 Y112.329
G1 F1200 X86.921 Y97.669 E159.16459
G1 X86.851 Y97.599
G0 F4500 X86.356 Y97.669
G1 F1200 X101.015 Y112.329 E160.1989
G1 X101.085 Y112.399
G0 F4500 X100.45 Y112.329
G1 F1200 X85.79 Y97.669 E161.23324
G1 X85.72 Y97.599
G0 F4500 X85.224 Y97.669
G1 F1200 X99.884 Y112.329 E162.26758
G1 X99.954 Y112.399
G0 F4500 X99.318 Y112.329
G1 F1200 X84.659 Y97.669 E163.30189
G1 X84.589 Y97.599
G0 F4500 X84.093 Y97.669
G1 F1200 X98.753 Y112.329 E164.33623
G1 X98.823 Y112.399
G0 F4500 X98.187 Y112.329
G1 F1200 X83.527 Y97.669 E165.37057
G1 X83.457 Y97.599
G0 F4500 X82.962 Y97.669
G1 F1200 X97.621 Y112.329 E166.40488
G1 X97.691 Y112.399
G0 F4500 X97.056 Y112.329
G1 F1200 X82.396 Y97.669 E167.43922
G1 X82.326 Y97.599
G0 F4500 X81.83 Y97.669
