;FLAVOR:Marlin
;TIME:310
;Filament used: 0.238733m
;Layer height: 0.2
;Generated with Cura_SteamEngine 3.2.1
M190 S50
M104 S200
M109 S200
M82 ;absolute extrusion mode
G28 ;Home
G1 Z15.0 F6000 ;Move the platform down 15mm
;Prime the extruder
G92 E0
G1 F200 E3
G92 E0
;LAYER_COUNT:3
;LAYER:0
M107
G0 F4500 X80.699 Y93.8 Z0.3
;TYPE:SKIRT
G1 F1200 X81.147 Y93.506 E0.02673
G1 X81.634 Y93.282 E0.05348
G1 X81.935 Y93.185 E0.06925
G1 X82.469 Y93.038 E0.09689
G1 X82.995 Y92.935 E0.12363
G1 X83.425 Y92.909 E0.14512
G1 X126.674 Y92.917 E2.30282
G1 X127.208 Y92.957 E2.32954
G1 X127.707 Y93.069 E2.35505
G1 X128.114 Y93.191 E2.37625
G1 X128.614 Y93.382 E2.40295
G1 X129.081 Y93.646 E2.42972
G1 X129.579 Y94.048 E2.46165
G1 X129.944 Y94.4 E2.48695
G1 X130.301 Y94.8 E2.51369
G1 X130.595 Y95.248 E2.54043
G1 X130.819 Y95.736 E2.56722
G1 X130.987 Y96.348 E2.59888
G1 X131.142 Y97.202 E2.64218
G1 X131.2 Y97.849 E2.67459
G1 X131.183 Y112.577 E3.40937
G1 X131.142 Y113.112 E3.43614
G1 X131.033 Y113.601 E3.46114
G1 X130.912 Y114.007 E3.48227
G1 X130.721 Y114.508 E3.50902
G1 X130.458 Y114.975 E3.53576
G1 X130.053 Y115.478 E3.56798
G1 X129.701 Y115.843 E3.59328
G1 X129.301 Y116.2 E3.62003
G1 X128.853 Y116.494 E3.64676
G1 X128.365 Y116.718 E3.67355
G1 X128.065 Y116.815 E3.68928
G1 X127.531 Y116.962 E3.71691
G1 X127.005 Y117.065 E3.74365
G1 X126.576 Y117.091 E3.76509
G1 X83.41 Y117.09 E5.91866
G1 X82.875 Y117.05 E5.94542
G1 X82.493 Y116.971 E5.96488
G1 X82.003 Y116.842 E5.99016
G1 X81.496 Y116.668 E6.0169
G1 X81.021 Y116.419 E6.04366
G1 X80.421 Y115.952 E6.08159
G1 X80.056 Y115.6 E6.10689
G1 X79.699 Y115.2 E6.13364
G1 X79.405 Y114.752 E6.16037
G1 X79.181 Y114.264 E6.18716
G1 X79.083 Y113.96 E6.2031
G1 X78.937 Y113.427 E6.23067
G1 X78.834 Y112.901 E6.25741
G1 X78.809 Y112.476 E6.27865
G1 X78.81 Y97.511 E7.02526
G1 X78.85 Y96.976 E7.05202
G1 X78.928 Y96.596 E7.07138
G1 X79.057 Y96.105 E7.0967
G1 X79.232 Y95.598 E7.12346
G1 X79.48 Y95.123 E7.15019
G1 X79.948 Y94.521 E7.18824
G1 X80.299 Y94.157 E7.21346
G1 X80.699 Y93.8 E7.24021
G0 F4500 X80.965 Y94.1
G1 F1200 X81.392 Y93.828 E7.26547
G1 X82.041 Y93.571 E7.3003
G1 X82.575 Y93.424 E7.32793
G1 X83.071 Y93.329 E7.35312
G1 X83.425 Y93.309 E7.37081
G1 X126.674 Y93.317 E9.52851
G1 X127.178 Y93.357 E9.55374
G1 X127.592 Y93.452 E9.57493
G1 X127.999 Y93.574 E9.59613
G1 X128.47 Y93.757 E9.62134
G1 X128.907 Y94.012 E9.64658
G1 X129.301 Y94.336 E9.67203
G1 X129.666 Y94.688 E9.69733
G1 X130.001 Y95.066 E9.72253
G1 X130.273 Y95.493 E9.74778
G1 X130.473 Y95.957 E9.77299
G1 X130.594 Y96.42 E9.79687
G1 X130.749 Y97.274 E9.84017
G1 X130.8 Y97.849 E9.86897
G1 X130.783 Y112.577 E10.60375
G1 X130.742 Y113.081 E10.62898
G1 X130.65 Y113.487 E10.64975
G1 X130.529 Y113.893 E10.67088
G1 X130.346 Y114.365 E10.69614
G1 X130.092 Y114.802 E10.72136
G1 X129.765 Y115.2 E10.74706
G1 X129.413 Y115.565 E10.77235
G1 X129.035 Y115.9 E10.79755
G1 X128.608 Y116.172 E10.82281
G1 X127.959 Y116.429 E10.85764
G1 X127.425 Y116.576 E10.88527
G1 X126.929 Y116.671 E10.91046
G1 X126.576 Y116.691 E10.9281
G1 X83.41 Y116.69 E13.08166
G1 X82.906 Y116.65 E13.10689
G1 X82.595 Y116.585 E13.12274
G1 X82.105 Y116.456 E13.14802
G1 X81.628 Y116.289 E13.17323
G1 X81.183 Y116.049 E13.19846
G1 X80.699 Y115.664 E13.22931
G1 X80.334 Y115.312 E13.25461
G1 X79.999 Y114.934 E13.27981
G1 X79.727 Y114.507 E13.30507
G1 X79.469 Y113.854 E13.34009
G1 X79.323 Y113.321 E13.36767
G1 X79.228 Y112.825 E13.39286
G1 X79.209 Y112.476 E13.4103
G1 X79.21 Y97.511 E14.15691
G1 X79.25 Y97.007 E14.18213
G1 X79.315 Y96.698 E14.19788
G1 X79.444 Y96.207 E14.22321
G1 X79.611 Y95.73 E14.24842
G1 X79.851 Y95.284 E14.27369
G1 X80.235 Y94.799 E14.30456
G1 X80.586 Y94.435 E14.32978
G1 X80.965 Y94.1 E14.35502
G1 F2400 E7.35502
G0 F4500 X82.936 Y95.901
G0 X83.441 Y97.119
G0 X126.678 Y97.215
G0 X126.703 Y97.119
;TYPE:WALL-INNER
G1 F2400 E14.35502
G1 F1200 X126.795 Y97.157 E14.35998
G1 X126.879 Y97.221 E14.36525
G1 X126.943 Y97.305 E14.37052
G1 X126.981 Y97.397 E14.37549
G1 X127 Y97.54 E14.38268
G1 X127 Y112.46 E15.12705
G1 X126.981 Y112.603 E15.13424
G1 X126.943 Y112.695 E15.13921
G1 X126.879 Y112.779 E15.14448
G1 X126.795 Y112.843 E15.14975
G1 X126.703 Y112.881 E15.15471
G1 X126.56 Y112.9 E15.16191
G1 X83.44 Y112.9 E17.31318
G1 X83.297 Y112.881 E17.32037
G1 X83.205 Y112.843 E17.32534
G1 X83.121 Y112.779 E17.33061
G1 X83.057 Y112.695 E17.33588
G1 X83.019 Y112.603 E17.34084
G1 X83 Y112.46 E17.34804
G1 X83 Y97.54 E18.0924
G1 X83.019 Y97.397 E18.0996
G1 X83.057 Y97.305 E18.10456
G1 X83.121 Y97.221 E18.10983
G1 X83.205 Y97.157 E18.1151
G1 X83.297 Y97.119 E18.12007
G1 X83.44 Y97.1 E18.12726
G1 X126.56 Y97.1 E20.27853
G1 X126.703 Y97.119 E20.28573
G0 F4500 X126.804 Y96.728
;TYPE:WALL-OUTER
G1 F1200 X126.999 Y96.809 E20.29626
G1 X127.164 Y96.936 E20.30665
G1 X127.291 Y97.101 E20.31704
G1 X127.372 Y97.296 E20.32757
G1 X127.4 Y97.511 E20.33839
G1 X127.4 Y112.489 E21.08564
G1 X127.372 Y112.704 E21.09646
G1 X127.291 Y112.899 E21.10699
G1 X127.164 Y113.064 E21.11738
G1 X126.999 Y113.191 E21.12777
G1 X126.804 Y113.272 E21.13831
G1 X126.589 Y113.3 E21.14912
G1 X83.411 Y113.3 E23.30328
G1 X83.196 Y113.272 E23.3141
G1 X83.001 Y113.191 E23.32463
G1 X82.836 Y113.064 E23.33502
G1 X82.709 Y112.899 E23.34541
G1 X82.628 Y112.704 E23.35594
G1 X82.6 Y112.489 E23.36676
G1 X82.6 Y97.511 E24.11402
G1 X82.628 Y97.296 E24.12483
G1 X82.709 Y97.101 E24.13537
G1 X82.836 Y96.936 E24.14576
G1 X83.001 Y96.809 E24.15614
G1 X83.196 Y96.728 E24.16668
G1 X83.411 Y96.7 E24.17749
G1 X126.589 Y96.7 E26.33165
G1 X126.804 Y96.728 E26.34247
G0 F4500 X126.988 Y96.804
G0 X126.598 Y97.497
;TYPE:SKIN
G1 F1200 X126.61 Y97.559 E26.34562
G1 X126.61 Y112.441 E27.08809
G1 X126.598 Y112.503 E27.09124
G1 X126.541 Y112.51 E27.0941
G1 X83.459 Y112.51 E29.24347
G1 X83.397 Y112.498 E29.24662
G1 X83.39 Y112.441 E29.24949
G1 X83.39 Y97.559 E29.99195
G1 X83.402 Y97.497 E29.99511
G1 X83.459 Y97.49 E29.99797
G1 X126.541 Y97.49 E32.14734
G1 X126.598 Y97.497 E32.15021
G0 F4500 X126.429 Y98.145
G1 F1200 X125.954 Y97.669 E32.18375
G0 F4500 X125.388 Y97.669
G1 F1200 X126.429 Y98.71 E32.2572
G1 X126.499 Y98.78
G0 F4500 X126.429 Y99.276
G1 F1200 X124.822 Y97.669 E32.37058
G1 X124.752 Y97.599
G0 F4500 X124.257 Y97.669
G1 F1200 X126.429 Y99.842 E32.52387
G1 X126.499 Y99.912
G0 F4500 X126.429 Y100.407
G1 F1200 X123.691 Y97.669 E32.71705
G1 X123.621 Y97.599
G0 F4500 X123.125 Y97.669
G1 F1200 X126.429 Y100.973 E32.95016
G1 X126.499 Y101.043
G0 F4500 X126.429 Y101.539
G1 F1200 X122.559 Y97.669 E33.22321
G1 X122.489 Y97.599
G0 F4500 X121.994 Y97.669
G1 F1200 X126.429 Y102.104 E33.53612
G1 X126.499 Y102.174
G0 F4500 X126.429 Y102.67
G1 F1200 X121.428 Y97.669 E33.88897
G1 X121.358 Y97.599
G0 F4500 X120.862 Y97.669
G1 F1200 X126.429 Y103.236 E34.28175
G1 X126.499 Y103.306
G0 F4500 X126.429 Y103.801
G1 F1200 X120.297 Y97.669 E34.7144
G1 X120.227 Y97.599
G0 F4500 X119.731 Y97.669
G1 F1200 X126.429 Y104.367 E35.18698
G1 X126.499 Y104.437
G0 F4500 X126.429 Y104.933
G1 F1200 X119.165 Y97.669 E35.69949
G1 X119.095 Y97.599
G0 F4500 X118.6 Y97.669
G1 F1200 X126.429 Y105.498 E36.25187
G1 X126.499 Y105.568
G0 F4500 X126.429 Y106.064
G1 F1200 X118.034 Y97.669 E36.84419
G1 X117.964 Y97.599
G0 F4500 X117.468 Y97.669
G1 F1200 X126.429 Y106.63 E37.47643
G1 X126.499 Y106.7
G0 F4500 X126.429 Y107.195
G1 F1200 X116.903 Y97.669 E38.14854
G1 X116.833 Y97.599
G0 F4500 X116.337 Y97.669
G1 F1200 X126.429 Y107.761 E38.86059
G1 X126.499 Y107.831
G0 F4500 X126.429 Y108.327
G1 F1200 X115.771 Y97.669 E39.61257
G1 X115.701 Y97.599
G0 F4500 X115.206 Y97.669
G1 F1200 X126.429 Y108.893 E40.40445
G1 X126.499 Y108.963
G0 F4500 X126.429 Y109.458
G1 F1200 X114.64 Y97.669 E41.23622
G1 X114.57 Y97.599
G0 F4500 X114.074 Y97.669
G1 F1200 X126.429 Y110.024 E42.10794
G1 X126.499 Y110.094
G0 F4500 X126.429 Y110.59
G1 F1200 X113.509 Y97.669 E43.01955
G1 X113.439 Y97.599
G0 F4500 X112.943 Y97.669
G1 F1200 X126.429 Y111.155 E43.97106
G1 X126.499 Y111.225
G0 F4500 X126.429 Y111.721
G1 F1200 X112.377 Y97.669 E44.9625
G1 X112.307 Y97.599
G0 F4500 X111.811 Y97.669
G1 F1200 X126.429 Y112.287 E45.99388
G1 X126.499 Y112.357
G0 F4500 X125.906 Y112.329
G1 F1200 X111.246 Y97.669 E47.02822
G1 X111.176 Y97.599
G0 F4500 X110.68 Y97.669
G1 F1200 X125.34 Y112.329 E48.06256
G1 X125.41 Y112.399
G0 F4500 X124.774 Y112.329
G1 F1200 X110.114 Y97.669 E49.09691
G1 X110.044 Y97.599
G0 F4500 X109.549 Y97.669
G1 F1200 X124.208 Y112.329 E50.13121
G1 X124.278 Y112.399
G0 F4500 X123.643 Y112.329
G1 F1200 X108.983 Y97.669 E51.16556
G1 X108.913 Y97.599
G0 F4500 X108.417 Y97.669
G1 F1200 X123.077 Y112.329 E52.1999
G1 X123.147 Y112.399
G0 F4500 X122.511 Y112.329
G1 F1200 X107.852 Y97.669 E53.23421
G1 X107.782 Y97.599
G0 F4500 X107.286 Y97.669
G1 F1200 X121.946 Y112.329 E54.26855
G1 X122.016 Y112.399
G0 F4500 X121.38 Y112.329
G1 F1200 X106.72 Y97.669 E55.30289
G1 X106.65 Y97.599
G0 F4500 X106.155 Y97.669
G1 F1200 X120.814 Y112.329 E56.3372
G1 X120.884 Y112.399
G0 F4500 X120.249 Y112.329
G1 F1200 X105.589 Y97.669 E57.37154
G1 X105.519 Y97.599
G0 F4500 X105.023 Y97.669
G1 F1200 X119.683 Y112.329 E58.40588
G1 X119.753 Y112.399
G0 F4500 X119.117 Y112.329
G1 F1200 X104.458 Y97.669 E59.44019
G1 X104.388 Y97.599
G0 F4500 X103.892 Y97.669
G1 F1200 X118.552 Y112.329 E60.47453
G1 X118.622 Y112.399
G0 F4500 X117.986 Y112.329
G1 F1200 X103.326 Y97.669 E61.50887
G1 X103.256 Y97.599
G0 F4500 X102.761 Y97.669
G1 F1200 X117.42 Y112.329 E62.54318
G1 X117.49 Y112.399
G0 F4500 X116.855 Y112.329
G1 F1200 X102.195 Y97.669 E63.57752
G1 X102.125 Y97.599
G0 F4500 X101.629 Y97.669
G1 F1200 X116.289 Y112.329 E64.61186
G1 X116.359 Y112.399
G0 F4500 X115.723 Y112.329
G1 F1200 X101.063 Y97.669 E65.64621
G1 X100.993 Y97.599
G0 F4500 X100.498 Y97.669
G1 F1200 X115.157 Y112.329 E66.68051
G1 X115.227 Y112.399
G0 F4500 X114.592 Y112.329
G1 F1200 X99.932 Y97.669 E67.71485
G1 X99.862 Y97.599
G0 F4500 X99.366 Y97.669
G1 F1200 X114.026 Y112.329 E68.7492
G1 X114.096 Y112.399
G0 F4500 X113.46 Y112.329
G1 F1200 X98.801 Y97.669 E69.7835
G1 X98.731 Y97.599
G0 F4500 X98.235 Y97.669
G1 F1200 X112.895 Y112.329 E70.81785
G1 X112.965 Y112.399
G0 F4500 X112.329 Y112.329
G1 F1200 X97.669 Y97.669 E71.85219
G1 X97.599 Y97.599
G0 F4500 X97.104 Y97.669
G1 F1200 X111.763 Y112.329 E72.88649
G1 X111.833 Y112.399
G0 F4500 X111.198 Y112.329
G1 F1200 X96.538 Y97.669 E73.92084
G1 X96.468 Y97.599
G0 F4500 X95.972 Y97.669
G1 F1200 X110.632 Y112.329 E74.95518
G1 X110.702 Y112.399
G0 F4500 X110.066 Y112.329
G1 F1200 X95.407 Y97.669 E75.98949
G1 X95.337 Y97.599
G0 F4500 X94.841 Y97.669
G1 F1200 X109.501 Y112.329 E77.02383
G1 X109.571 Y112.399
G0 F4500 X108.935 Y112.329
G1 F1200 X94.275 Y97.669 E78.05817
G1 X94.205 Y97.599
G0 F4500 X93.71 Y97.669
G1 F1200 X108.369 Y112.329 E79.09248
G1 X108.439 Y112.399
G0 F4500 X107.804 Y112.329
G1 F1200 X93.144 Y97.669 E80.12682
G1 X93.074 Y97.599
G0 F4500 X92.578 Y97.669
G1 F1200 X107.238 Y112.329 E81.16116
G1 X107.308 Y112.399
G0 F4500 X106.672 Y112.329
G1 F1200 X92.012 Y97.669 E82.1955
G1 X91.942 Y97.599
G0 F4500 X91.447 Y97.669
G1 F1200 X106.107 Y112.329 E83.22985
G1 X106.177 Y112.399
G0 F4500 X105.541 Y112.329
G1 F1200 X90.881 Y97.669 E84.26419
G1 X90.811 Y97.599
G0 F4500 X90.315 Y97.669
G1 F1200 X104.975 Y112.329 E85.29853
G1 X105.045 Y112.399
G0 F4500 X104.409 Y112.329
G1 F1200 X89.75 Y97.669 E86.33284
G1 X89.68 Y97.599
G0 F4500 X89.184 Y97.669
G1 F1200 X103.844 Y112.329 E87.36718
G1 X103.914 Y112.399
G0 F4500 X103.278 Y112.329
G1 F1200 X88.618 Y97.669 E88.40152
G1 X88.548 Y97.599
G0 F4500 X88.053 Y97.669
G1 F1200 X102.712 Y112.329 E89.43583
G1 X102.782 Y112.399
G0 F4500 X102.147 Y112.329
G1 F1200 X87.487 Y97.669 E90.47017
G1 X87.417 Y97.599
G0 F4500 X86.921 Y97.669
G1 F1200 X101.581 Y112.329 E91.50451
G1 X101.651 Y112.399
G0 F4500 X101.015 Y112.329
G1 F1200 X86.356 Y97.669 E92.53882
G1 X86.286 Y97.599
G0 F4500 X85.79 Y97.669
G1 F1200 X100.45 Y112.329 E93.57316
G1 X100.52 Y112.399
G0 F4500 X99.884 Y112.329
G1 F1200 X85.224 Y97.669 E94.6075
G1 X85.154 Y97.599
G0 F4500 X84.659 Y97.669
G1 F1200 X99.318 Y112.329 E95.64181
G1 X99.388 Y112.399
G0 F4500 X98.753 Y112.329
G1 F1200 X84.093 Y97.669 E96.67615
G1 X84.023 Y97.599
G0 F4500 X83.57 Y97.712
G1 F1200 X98.187 Y112.329 E97.70746
G1 X98.257 Y112.399
G0 F4500 X97.621 Y112.329
G1 F1200 X83.57 Y98.277 E98.69887
G1 X83.5 Y98.207
G0 F4500 X83.57 Y98.843
G1 F1200 X97.056 Y112.329 E99.65038
G1 X97.126 Y112.399
G0 F4500 X96.49 Y112.329
G1 F1200 X83.57 Y99.409 E100.56196
G1 X83.5 Y99.339
G0 F4500 X83.57 Y99.974
G1 F1200 X95.924 Y112.329 E101.43363
G1 X95.994 Y112.399
G0 F4500 X95.359 Y112.329
G1 F1200 X83.57 Y100.54 E102.26541
G1 X83.5 Y100.47
G0 F4500 X83.57 Y101.106
G1 F1200 X94.793 Y112.329 E103.05725
G1 X94.863 Y112.399
G0 F4500 X94.227 Y112.329
G1 F1200 X83.57 Y101.672 E103.80916
G1 X83.5 Y101.602
G0 F4500 X83.57 Y102.237
G1 F1200 X93.661 Y112.329 E104.52117
G1 X93.731 Y112.399
G0 F4500 X93.096 Y112.329
G1 F1200 X83.57 Y102.803 E105.19328
G1 X83.5 Y102.733
G0 F4500 X83.57 Y103.369
G1 F1200 X92.53 Y112.329 E105.82546
G1 X92.6 Y112.399
G0 F4500 X91.964 Y112.329
G1 F1200 X83.57 Y103.934 E106.41774
G1 X83.5 Y103.864
G0 F4500 X83.57 Y104.5
G1 F1200 X91.399 Y112.329 E106.97012
G1 X91.469 Y112.399
G0 F4500 X90.833 Y112.329
G1 F1200 X83.57 Y105.066 E107.48256
G1 X83.5 Y104.996
G0 F4500 X83.57 Y105.631
G1 F1200 X90.267 Y112.329 E107.9551
G1 X90.337 Y112.399
G0 F4500 X89.702 Y112.329
G1 F1200 X83.57 Y106.197 E108.38775
G1 X83.5 Y106.127
G0 F4500 X83.57 Y106.763
G1 F1200 X89.136 Y112.329 E108.78046
G1 X89.206 Y112.399
G0 F4500 X88.57 Y112.329
G1 F1200 X83.57 Y107.328 E109.13327
G1 X83.5 Y107.258
G0 F4500 X83.57 Y107.894
G1 F1200 X88.005 Y112.329 E109.44619
G1 X88.075 Y112.399
G0 F4500 X87.439 Y112.329
G1 F1200 X83.57 Y108.46 E109.71917
G1 X83.5 Y108.39
G0 F4500 X83.57 Y109.025
G1 F1200 X86.873 Y112.329 E109.95225
G1 X86.943 Y112.399
G0 F4500 X86.308 Y112.329
G1 F1200 X83.57 Y109.591 E110.14543
G1 X83.5 Y109.521
G0 F4500 X83.57 Y110.157
G1 F1200 X85.742 Y112.329 E110.29867
G1 X85.812 Y112.399
G0 F4500 X85.176 Y112.329
G1 F1200 X83.57 Y110.723 E110.41198
G1 X83.5 Y110.653
G0 F4500 X83.57 Y111.288
G1 F1200 X84.61 Y112.329 E110.4854
G1 X84.68 Y112.399
G0 F4500 X84.045 Y112.329
G1 F1200 X83.57 Y111.854 E110.51891
G0 F4500 X126.678 Y97.215
G0 X126.703 Y97.119
;TIME_ELAPSED:116.584644
;LAYER:1
M140 S50
M106 S255
G0 F6750 X126.703 Y97.119 Z0.5
;TYPE:WALL-INNER
G1 F1800 X126.795 Y97.157 E110.52222
G1 X126.879 Y97.221 E110.52573
G1 X126.943 Y97.305 E110.52925
G1 X126.981 Y97.397 E110.53256
G1 X127 Y97.54 E110.53736
G1 X127 Y112.46 E111.0336
G1 X126.981 Y112.603 E111.03839
G1 X126.943 Y112.695 E111.04171
G1 X126.879 Y112.779 E111.04522
G1 X126.795 Y112.843 E111.04873
G1 X126.703 Y112.881 E111.05204
G1 X126.56 Y112.9 E111.05684
G1 X83.44 Y112.9 E112.49102
G1 X83.297 Y112.881 E112.49581
G1 X83.205 Y112.843 E112.49912
G1 X83.121 Y112.779 E112.50264
G1 X83.057 Y112.695 E112.50615
G1 X83.019 Y112.603 E112.50946
G1 X83 Y112.46 E112.51426
G1 X83 Y97.54 E113.0105
G1 X83.019 Y97.397 E113.0153
G1 X83.057 Y97.305 E113.01861
G1 X83.121 Y97.221 E113.02212
G1 X83.205 Y97.157 E113.02563
G1 X83.297 Y97.119 E113.02894
G1 X83.44 Y97.1 E113.03374
G1 X126.56 Y97.1 E114.46792
G1 X126.703 Y97.119 E114.47272
G0 F6750 X126.804 Y96.728
;TYPE:WALL-OUTER
G1 F1200 X126.999 Y96.809 E114.47974
G1 X127.164 Y96.936 E114.48666
G1 X127.291 Y97.101 E114.49359
G1 X127.372 Y97.296 E114.50061
G1 X127.4 Y97.511 E114.50782
G1 X127.4 Y112.489 E115.00599
G1 X127.372 Y112.704 E115.01321
G1 X127.291 Y112.899 E115.02023
G1 X127.164 Y113.064 E115.02715
G1 X126.999 Y113.191 E115.03408
G1 X126.804 Y113.272 E115.0411
G1 X126.589 Y113.3 E115.04831
G1 X83.411 Y113.3 E116.48442
G1 X83.196 Y113.272 E116.49163
G1 X83.001 Y113.191 E116.49865
G1 X82.836 Y113.064 E116.50558
G1 X82.709 Y112.899 E116.5125
G1 X82.628 Y112.704 E116.51953
G1 X82.6 Y112.489 E116.52674
G1 X82.6 Y97.511 E117.02491
G1 X82.628 Y97.296 E117.03212
G1 X82.709 Y97.101 E117.03914
G1 X82.836 Y96.936 E117.04607
G1 X83.001 Y96.809 E117.05299
G1 X83.196 Y96.728 E117.06002
G1 X83.411 Y96.7 E117.06723
