;FLAVOR:Marlin
;TIME:78
;Filament used: 0.0611778m
;Layer height: 0.2
;Generated with Cura_SteamEngine 3.2.1
M190 S50
M104 S210
M109 S210
M82 ;absolute extrusion mode
G28 ;Home
G1 Z15.0 F6000 ;Move the platform down 15mm
;Prime the extruder
G92 E0
G1 F200 E3
G92 E0
;LAYER_COUNT:3
;LAYER:0
M107
G0 F3600 X97.372 Y93.966 Z0.3
;TYPE:SKIRT
G1 F1200 X97.723 Y93.602 E0.02552
G1 X98.162 Y93.204 E0.05542
G1 X98.651 Y92.868 E0.08536
G1 X99.181 Y92.602 E0.11529
G1 X99.722 Y92.414 E0.14419
G1 X100.256 Y92.267 E0.17214
G1 X100.837 Y92.148 E0.20207
G1 X101.429 Y92.109 E0.23201
G1 X108.678 Y92.117 E0.59784
G1 X109.269 Y92.158 E0.62773
G1 X109.936 Y92.302 E0.66217
G1 X110.343 Y92.424 E0.68361
G1 X110.899 Y92.632 E0.71357
G1 X111.421 Y92.913 E0.74349
G1 X111.9 Y93.262 E0.7734
G1 X112.134 Y93.472 E0.78926
G1 X112.499 Y93.824 E0.81485
G1 X112.897 Y94.263 E0.84476
G1 X113.233 Y94.752 E0.8747
G1 X113.499 Y95.282 E0.90462
G1 X113.692 Y95.843 E0.93456
G1 X113.774 Y96.205 E0.95329
G1 X113.929 Y97.059 E0.9971
G1 X114 Y97.85 E1.03717
G1 X113.983 Y112.578 E1.78043
G1 X113.942 Y113.17 E1.81037
G1 X113.8 Y113.83 E1.84444
G1 X113.679 Y114.236 E1.86582
G1 X113.471 Y114.791 E1.89573
G1 X113.191 Y115.314 E1.92567
G1 X112.844 Y115.794 E1.95556
G1 X112.629 Y116.033 E1.97179
G1 X112.277 Y116.398 E1.99738
G1 X111.838 Y116.796 E2.02728
G1 X111.349 Y117.132 E2.05722
G1 X110.819 Y117.398 E2.08715
G1 X110.278 Y117.586 E2.11605
G1 X109.744 Y117.733 E2.144
G1 X109.163 Y117.852 E2.17393
G1 X108.575 Y117.891 E2.20367
G1 X101.409 Y117.89 E2.5653
G1 X100.818 Y117.85 E2.5952
G1 X100.29 Y117.745 E2.62236
G1 X99.8 Y117.616 E2.64793
G1 X99.238 Y117.427 E2.67786
G1 X98.706 Y117.164 E2.70781
G1 X98.215 Y116.832 E2.73772
G1 X97.866 Y116.528 E2.76107
G1 X97.501 Y116.176 E2.78666
G1 X97.103 Y115.737 E2.81657
G1 X96.767 Y115.248 E2.84651
G1 X96.501 Y114.718 E2.87644
G1 X96.311 Y114.171 E2.90566
G1 X96.165 Y113.638 E2.93355
G1 X96.048 Y113.057 E2.96346
G1 X96.009 Y112.476 E2.99284
G1 X96.01 Y97.511 E3.74806
G1 X96.05 Y96.919 E3.778
G1 X96.154 Y96.393 E3.80506
G1 X96.283 Y95.902 E3.83068
G1 X96.472 Y95.34 E3.8606
G1 X96.735 Y94.808 E3.89055
G1 X97.067 Y94.317 E3.92046
G1 X97.372 Y93.966 E3.94393
G0 F3600 X97.66 Y94.243
G1 F1200 X98.011 Y93.879 E3.96944
G1 X98.431 Y93.501 E3.99796
G1 X98.9 Y93.186 E4.02647
G1 X99.409 Y92.94 E4.055
G1 X99.828 Y92.799 E4.07731
G1 X100.362 Y92.652 E4.10526
G1 X100.917 Y92.541 E4.13382
G1 X101.428 Y92.509 E4.15966
G1 X108.677 Y92.517 E4.52549
G1 X109.241 Y92.558 E4.55402
G1 X109.822 Y92.685 E4.58404
G1 X110.229 Y92.807 E4.60548
G1 X110.757 Y93.008 E4.63399
G1 X111.252 Y93.28 E4.66249
G1 X111.857 Y93.76 E4.70147
G1 X112.222 Y94.112 E4.72706
G1 X112.6 Y94.532 E4.75557
G1 X112.915 Y95.001 E4.78408
G1 X113.161 Y95.51 E4.81261
G1 X113.381 Y96.277 E4.85288
G1 X113.536 Y97.131 E4.89668
G1 X113.6 Y97.85 E4.93311
G1 X113.583 Y112.578 E5.67636
G1 X113.542 Y113.141 E5.70485
G1 X113.416 Y113.715 E5.73451
G1 X113.295 Y114.121 E5.75589
G1 X113.096 Y114.65 E5.78441
G1 X112.824 Y115.146 E5.81296
G1 X112.341 Y115.756 E5.85222
G1 X111.989 Y116.121 E5.87781
G1 X111.569 Y116.499 E5.90633
G1 X111.1 Y116.814 E5.93484
G1 X110.591 Y117.06 E5.96337
G1 X110.172 Y117.201 E5.98568
G1 X109.638 Y117.348 E6.01363
G1 X109.083 Y117.459 E6.04219
G1 X108.575 Y117.491 E6.06788
G1 X101.409 Y117.49 E6.42951
G1 X100.846 Y117.45 E6.458
G1 X100.392 Y117.358 E6.48137
G1 X99.902 Y117.229 E6.50694
G1 X99.366 Y117.047 E6.53551
G1 X98.862 Y116.791 E6.56404
G1 X98.399 Y116.467 E6.59256
G1 X98.143 Y116.24 E6.60982
G1 X97.778 Y115.888 E6.63541
G1 X97.4 Y115.468 E6.66393
G1 X97.085 Y114.999 E6.69244
G1 X96.839 Y114.49 E6.72097
G1 X96.697 Y114.066 E6.74353
G1 X96.551 Y113.533 E6.77142
G1 X96.441 Y112.978 E6.79998
G1 X96.409 Y112.476 E6.82536
G1 X96.41 Y97.511 E7.58057
G1 X96.45 Y96.947 E7.60911
G1 X96.541 Y96.495 E7.63238
G1 X96.67 Y96.004 E7.658
G1 X96.852 Y95.468 E7.68656
G1 X97.108 Y94.964 E7.71509
G1 X97.432 Y94.501 E7.74361
G1 X97.66 Y94.243 E7.76098
G0 F3600 X97.948 Y94.521
G1 F1200 X98.299 Y94.157 E7.7865
G1 X98.699 Y93.8 E7.81356
G1 X99.147 Y93.506 E7.8406
G1 X99.634 Y93.282 E7.86765
G1 X99.935 Y93.185 E7.88361
G1 X100.469 Y93.038 E7.91156
G1 X100.995 Y92.935 E7.93861
G1 X101.428 Y92.909 E7.9605
G1 X108.677 Y92.917 E8.32633
G1 X109.212 Y92.958 E8.3534
G1 X109.707 Y93.069 E8.379
G1 X110.114 Y93.191 E8.40045
G1 X110.614 Y93.382 E8.42746
G1 X111.081 Y93.646 E8.45453
G1 X111.579 Y94.048 E8.48683
G1 X111.944 Y94.4 E8.51242
G1 X112.301 Y94.8 E8.53947
G1 X112.595 Y95.248 E8.56652
G1 X112.819 Y95.736 E8.59361
G1 X112.987 Y96.348 E8.62564
G1 X113.142 Y97.202 E8.66944
G1 X113.2 Y97.849 E8.70223
G1 X113.183 Y112.577 E9.44548
G1 X113.142 Y113.112 E9.47256
G1 X113.033 Y113.601 E9.49784
G1 X112.912 Y114.007 E9.51922
G1 X112.721 Y114.508 E9.54628
G1 X112.458 Y114.975 E9.57333
G1 X112.053 Y115.478 E9.60591
G1 X111.701 Y115.843 E9.6315
G1 X111.301 Y116.2 E9.65856
G1 X110.853 Y116.494 E9.6856
G1 X110.365 Y116.718 E9.7127
G1 X110.065 Y116.815 E9.72861
G1 X109.531 Y116.962 E9.75656
G1 X109.005 Y117.065 E9.78361
G1 X108.575 Y117.091 E9.80535
G1 X101.409 Y117.09 E10.16699
G1 X100.875 Y117.05 E10.19401
G1 X100.493 Y116.971 E10.2137
G1 X100.003 Y116.842 E10.23927
G1 X99.496 Y116.668 E10.26632
G1 X99.021 Y116.419 E10.29338
G1 X98.421 Y115.952 E10.33175
G1 X98.056 Y115.6 E10.35734
G1 X97.699 Y115.2 E10.3844
G1 X97.405 Y114.752 E10.41144
G1 X97.181 Y114.264 E10.43854
G1 X97.083 Y113.96 E10.45466
G1 X96.937 Y113.427 E10.48255
G1 X96.834 Y112.901 E10.50959
G1 X96.809 Y112.476 E10.53108
G1 X96.81 Y97.511 E11.28629
G1 X96.85 Y96.976 E11.31337
G1 X96.928 Y96.596 E11.33294
G1 X97.057 Y96.105 E11.35856
G1 X97.232 Y95.598 E11.38563
G1 X97.48 Y95.123 E11.41267
G1 X97.948 Y94.521 E11.45115
G0 F3600 X98.235 Y94.799
G1 F1200 X98.586 Y94.435 E11.47667
G1 X98.965 Y94.1 E11.5022
G1 X99.392 Y93.828 E11.52775
G1 X100.041 Y93.571 E11.56297
G1 X100.575 Y93.424 E11.59092
G1 X101.071 Y93.329 E11.61641
G1 X101.428 Y93.309 E11.63445
G1 X108.677 Y93.317 E12.00028
G1 X109.18 Y93.357 E12.02574
G1 X109.592 Y93.452 E12.04708
G1 X109.999 Y93.574 E12.06852
G1 X110.47 Y93.757 E12.09402
G1 X110.907 Y94.012 E12.11955
G1 X111.301 Y94.336 E12.1453
G1 X111.666 Y94.688 E12.17089
G1 X112.001 Y95.066 E12.19638
G1 X112.273 Y95.493 E12.22193
G1 X112.473 Y95.957 E12.24742
G1 X112.594 Y96.42 E12.27157
G1 X112.749 Y97.274 E12.31538
G1 X112.8 Y97.849 E12.34451
G1 X112.783 Y112.577 E13.08776
G1 X112.742 Y113.081 E13.11328
G1 X112.65 Y113.487 E13.13429
G1 X112.529 Y113.893 E13.15567
G1 X112.346 Y114.365 E13.18121
G1 X112.092 Y114.802 E13.20672
G1 X111.765 Y115.2 E13.23272
G1 X111.413 Y115.565 E13.25831
G1 X111.035 Y115.9 E13.2838
G1 X110.608 Y116.172 E13.30935
G1 X109.959 Y116.429 E13.34457
G1 X109.425 Y116.576 E13.37252
G1 X108.929 Y116.671 E13.39801
G1 X108.576 Y116.691 E13.41585
G1 X101.41 Y116.69 E13.77749
G1 X100.906 Y116.65 E13.803
G1 X100.595 Y116.585 E13.81903
G1 X100.105 Y116.456 E13.84461
G1 X99.628 Y116.289 E13.87011
G1 X99.183 Y116.049 E13.89562
G1 X98.699 Y115.664 E13.92683
G1 X98.334 Y115.312 E13.95242
G1 X97.999 Y114.934 E13.97791
G1 X97.727 Y114.507 E14.00346
G1 X97.469 Y113.854 E14.0389
G1 X97.323 Y113.321 E14.06678
G1 X97.228 Y112.825 E14.09227
G1 X97.209 Y112.476 E14.10991
G1 X97.21 Y97.511 E14.86512
G1 X97.25 Y97.007 E14.89064
G1 X97.315 Y96.698 E14.90657
G1 X97.444 Y96.207 E14.93219
G1 X97.611 Y95.73 E14.9577
G1 X97.851 Y95.284 E14.98326
G1 X98.235 Y94.799 E15.01447
G1 F1500 E8.51447
G0 F3600 X100.936 Y95.901
G0 X101.441 Y97.119
G0 X108.678 Y97.215
G0 X108.703 Y97.119
;TYPE:WALL-INNER
G1 F1500 E15.01447
G1 F1200 X108.795 Y97.157 E15.0195
G1 X108.879 Y97.221 E15.02483
G1 X108.943 Y97.305 E15.03016
G1 X108.981 Y97.397 E15.03518
G1 X109 Y97.54 E15.04246
G1 X109 Y112.46 E15.7954
G1 X108.981 Y112.603 E15.80268
G1 X108.943 Y112.695 E15.8077
G1 X108.879 Y112.779 E15.81303
G1 X108.795 Y112.843 E15.81836
G1 X108.703 Y112.881 E15.82339
G1 X108.56 Y112.9 E15.83067
G1 X101.44 Y112.9 E16.18998
G1 X101.297 Y112.881 E16.19726
G1 X101.205 Y112.843 E16.20228
G1 X101.121 Y112.779 E16.20761
G1 X101.057 Y112.695 E16.21294
G1 X101.019 Y112.603 E16.21796
G1 X101 Y112.46 E16.22524
G1 X101 Y97.54 E16.97819
G1 X101.019 Y97.397 E16.98547
G1 X101.057 Y97.305 E16.99049
G1 X101.121 Y97.221 E16.99582
G1 X101.205 Y97.157 E17.00115
G1 X101.297 Y97.119 E17.00617
G1 X101.44 Y97.1 E17.01345
G1 X108.56 Y97.1 E17.37276
G1 X108.703 Y97.119 E17.38004
G0 F3600 X108.804 Y96.728
;TYPE:WALL-OUTER
G1 F1200 X108.999 Y96.809 E17.3907
G1 X109.164 Y96.936 E17.40121
G1 X109.291 Y97.101 E17.41172
G1 X109.372 Y97.296 E17.42237
G1 X109.4 Y97.511 E17.43331
G1 X109.4 Y112.489 E18.18918
G1 X109.372 Y112.704 E18.20012
G1 X109.291 Y112.899 E18.21078
G1 X109.164 Y113.064 E18.22129
G1 X108.999 Y113.191 E18.2318
G1 X108.804 Y113.272 E18.24245
G1 X108.589 Y113.3 E18.25339
G1 X101.411 Y113.3 E18.61563
G1 X101.196 Y113.272 E18.62657
G1 X101.001 Y113.191 E18.63723
G1 X100.836 Y113.064 E18.64774
G1 X100.709 Y112.899 E18.65825
G1 X100.628 Y112.704 E18.6689
G1 X100.6 Y112.489 E18.67984
G1 X100.6 Y97.511 E19.43571
G1 X100.628 Y97.296 E19.44665
G1 X100.709 Y97.101 E19.45731
G1 X100.836 Y96.936 E19.46782
G1 X101.001 Y96.809 E19.47833
G1 X101.196 Y96.728 E19.48898
G1 X101.411 Y96.7 E19.49992
G1 X108.589 Y96.7 E19.86216
G1 X108.804 Y96.728 E19.87311
G0 F3600 X108.988 Y96.804
G0 X108.598 Y97.497
;TYPE:SKIN
G1 F1200 X108.61 Y97.559 E19.87629
G1 X108.61 Y112.441 E20.62732
G1 X108.598 Y112.503 E20.6305
G1 X108.541 Y112.51 E20.6334
G1 X101.459 Y112.51 E20.9908
G1 X101.397 Y112.498 E20.99398
G1 X101.39 Y112.441 E20.99688
G1 X101.39 Y97.559 E21.74791
G1 X101.402 Y97.497 E21.75109
G1 X101.459 Y97.49 E21.75399
G1 X108.541 Y97.49 E22.11139
G1 X108.598 Y97.497 E22.11428
G0 F3600 X108.429 Y98.247
G1 F1200 X107.852 Y97.669 E22.1555
G1 X107.782 Y97.599
G0 F3600 X107.286 Y97.669
G1 F1200 X108.429 Y98.813 E22.23711
G1 X108.499 Y98.883
G0 F3600 X108.429 Y99.378
G1 F1200 X106.72 Y97.669 E22.35908
G1 X106.65 Y97.599
G0 F3600 X106.155 Y97.669
G1 F1200 X108.429 Y99.944 E22.52141
G1 X108.499 Y100.014
G0 F3600 X108.429 Y100.51
G1 F1200 X105.589 Y97.669 E22.72413
G1 X105.519 Y97.599
G0 F3600 X105.023 Y97.669
G1 F1200 X108.429 Y101.075 E22.96721
G1 X108.499 Y101.145
G0 F3600 X108.429 Y101.641
G1 F1200 X104.458 Y97.669 E23.25065
G1 X104.388 Y97.599
G0 F3600 X103.892 Y97.669
G1 F1200 X108.429 Y102.207 E23.57449
G1 X108.499 Y102.277
G0 F3600 X108.429 Y102.773
G1 F1200 X103.326 Y97.669 E23.93872
G1 X103.256 Y97.599
G0 F3600 X102.761 Y97.669
G1 F1200 X108.429 Y103.338 E24.34327
G1 X108.499 Y103.408
G0 F3600 X108.429 Y103.904
G1 F1200 X102.195 Y97.669 E24.78822
G1 X102.125 Y97.599
G0 F3600 X101.629 Y97.669
G1 F1200 X108.429 Y104.47 E25.27356
G1 X108.499 Y104.54
G0 F3600 X108.429 Y105.035
G1 F1200 X101.568 Y98.174 E25.76322
G1 X101.498 Y98.104
G0 F3600 X101.568 Y98.74
G1 F1200 X108.429 Y105.601 E26.25289
G1 X108.499 Y105.671
G0 F3600 X108.429 Y106.167
G1 F1200 X101.568 Y99.306 E26.74255
G1 X101.498 Y99.236
G0 F3600 X101.568 Y99.871
G1 F1200 X108.429 Y106.732 E27.23221
G1 X108.499 Y106.802
G0 F3600 X108.429 Y107.298
G1 F1200 X101.568 Y100.437 E27.72187
G1 X101.498 Y100.367
G0 F3600 X101.568 Y101.003
G1 F1200 X108.429 Y107.864 E28.21153
G1 X108.499 Y107.934
G0 F3600 X108.429 Y108.429
G1 F1200 X101.568 Y101.568 E28.70119
G1 X101.498 Y101.498
G0 F3600 X101.568 Y102.134
G1 F1200 X108.429 Y108.995 E29.19085
G1 X108.499 Y109.065
G0 F3600 X108.429 Y109.561
G1 F1200 X101.568 Y102.7 E29.68051
G1 X101.498 Y102.63
G0 F3600 X101.568 Y103.265
G1 F1200 X108.429 Y110.126 E30.17017
G1 X108.499 Y110.196
G0 F3600 X108.429 Y110.692
G1 F1200 X101.568 Y103.831 E30.65983
G1 X101.498 Y103.761
G0 F3600 X101.568 Y104.397
G1 F1200 X108.429 Y111.258 E31.14949
G1 X108.499 Y111.328
G0 F3600 X108.429 Y111.823
G1 F1200 X101.568 Y104.962 E31.63915
G1 X101.498 Y104.892
G0 F3600 X101.569 Y105.529
G1 F1200 X108.369 Y112.328 E32.12443
G1 X108.439 Y112.398
G0 F3600 X107.803 Y112.328
G1 F1200 X101.569 Y106.095 E32.5693
G1 X101.499 Y106.025
G0 F3600 X101.569 Y106.66
G1 F1200 X107.237 Y112.328 E32.97382
G1 X107.307 Y112.398
G0 F3600 X106.672 Y112.328
G1 F1200 X101.569 Y107.226 E33.33798
G1 X101.499 Y107.156
G0 F3600 X101.569 Y107.792
G1 F1200 X106.106 Y112.328 E33.66174
G1 X106.176 Y112.398
G0 F3600 X105.54 Y112.328
G1 F1200 X101.569 Y108.357 E33.94515
G1 X101.499 Y108.287
G0 F3600 X101.569 Y108.923
G1 F1200 X104.974 Y112.328 E34.18816
G1 X105.044 Y112.398
G0 F3600 X104.409 Y112.328
G1 F1200 X101.569 Y109.489 E34.39081
G1 X101.499 Y109.419
G0 F3600 X101.569 Y110.054
G1 F1200 X103.843 Y112.328 E34.5531
G1 X103.913 Y112.398
G0 F3600 X103.277 Y112.328
G1 F1200 X101.569 Y110.62 E34.675
G1 X101.499 Y110.55
G0 F3600 X101.569 Y111.186
G1 F1200 X102.712 Y112.328 E34.75654
G1 X102.782 Y112.398
G0 F3600 X102.146 Y112.328
G1 F1200 X101.569 Y111.751 E34.79772
G1 X101.499 Y111.681
G0 F3600 X108.678 Y97.215
G0 X108.703 Y97.119
;TIME_ELAPSED:38.607456
;LAYER:1
M140 S50
M106 S255
G0 F5400 X108.703 Y97.119 Z0.5
;TYPE:WALL-INNER
G1 F1800 X108.795 Y97.157 E34.80107
G1 X108.879 Y97.221 E34.80462
G1 X108.943 Y97.305 E34.80817
G1 X108.981 Y97.397 E34.81152
G1 X109 Y97.54 E34.81638
G1 X109 Y112.46 E35.31834
G1 X108.981 Y112.603 E35.32319
G1 X108.943 Y112.695 E35.32654
G1 X108.879 Y112.779 E35.33009
G1 X108.795 Y112.843 E35.33364
G1 X108.703 Y112.881 E35.33699
G1 X108.56 Y112.9 E35.34185
G1 X101.44 Y112.9 E35.58139
G1 X101.297 Y112.881 E35.58624
G1 X101.205 Y112.843 E35.58959
G1 X101.121 Y112.779 E35.59314
G1 X101.057 Y112.695 E35.5967
G1 X101.019 Y112.603 E35.60005
G1 X101 Y112.46 E35.6049
G1 X101 Y97.54 E36.10686
G1 X101.019 Y97.397 E36.11171
G1 X101.057 Y97.305 E36.11506
G1 X101.121 Y97.221 E36.11862
G1 X101.205 Y97.157 E36.12217
G1 X101.297 Y97.119 E36.12552
G1 X101.44 Y97.1 E36.13037
G1 X108.56 Y97.1 E36.36991
G1 X108.703 Y97.119 E36.37477
G0 F5400 X108.804 Y96.728
;TYPE:WALL-OUTER
G1 F1200 X108.999 Y96.809 E36.38187
G1 X109.164 Y96.936 E36.38887
G1 X109.291 Y97.101 E36.39588
G1 X109.372 Y97.296 E36.40298
G1 X109.4 Y97.511 E36.41028
G1 X109.4 Y112.489 E36.91419
G1 X109.372 Y112.704 E36.92149
G1 X109.291 Y112.899 E36.92859
G1 X109.164 Y113.064 E36.93559
G1 X108.999 Y113.191 E36.9426
G1 X108.804 Y113.272 E36.9497
G1 X108.589 Y113.3 E36.957
G1 X101.411 Y113.3 E37.19849
G1 X101.196 Y113.272 E37.20579
G1 X101.001 Y113.191 E37.21289
G1 X100.836 Y113.064 E37.2199
G1 X100.709 Y112.899 E37.2269
G1 X100.628 Y112.704 E37.234
G1 X100.6 Y112.489 E37.2413
G1 X100.6 Y97.511 E37.74521
G1 X100.628 Y97.296 E37.75251
G1 X100.709 Y97.101 E37.75961
G1 X100.836 Y96.936 E37.76661
G1 X101.001 Y96.809 E37.77362
G1 X101.196 Y96.728 E37.78072
G1 X101.411 Y96.7 E37.78802
G1 X108.589 Y96.7 E38.02951
G1 X108.804 Y96.728 E38.03681
G0 F5400 X108.988 Y96.804
G0 X108.598 Y97.497
;TYPE:SKIN
G1 F1200 X108.61 Y97.559 E38.03893
G1 X108.61 Y112.441 E38.53961
G1 X108.598 Y112.503 E38.54174
G1 X108.541 Y112.51 E38.54367
G1 X101.459 Y112.51 E38.78193
G1 X101.397 Y112.498 E38.78406
G1 X101.39 Y112.441 E38.78599
G1 X101.39 Y97.559 E39.28667
G1 X101.402 Y97.497 E39.2888
G1 X101.459 Y97.49 E39.29073
G1 X108.541 Y97.49 E39.52899
G1 X108.598 Y97.497 E39.53093
G0 F5400 X101.569 Y98.117
G1 F1200 X102.017 Y97.669 E39.55224
G0 F5400 X102.582 Y97.669
G1 F1200 X101.569 Y98.683 E39.60046
G1 X101.499 Y98.753
G0 F5400 X101.569 Y99.248
G1 F1200 X103.148 Y97.669 E39.67559
G1 X103.218 Y97.599
G0 F5400 X103.714 Y97.669
G1 F1200 X101.569 Y99.814 E39.77765
G1 X101.499 Y99.884
G0 F5400 X101.569 Y100.38
G1 F1200 X104.279 Y97.669 E39.90661
G1 X104.349 Y97.599
G0 F5400 X104.845 Y97.669
G1 F1200 X101.569 Y100.945 E40.06248
G1 X101.499 Y101.015
G0 F5400 X101.569 Y101.511
G1 F1200 X105.411 Y97.669 E40.24528
G1 X105.481 Y97.599
G0 F5400 X105.976 Y97.669
G1 F1200 X101.569 Y102.077 E40.45498
G1 X101.499 Y102.147
G0 F5400 X101.569 Y102.642
G1 F1200 X106.542 Y97.669 E40.6916
G1 X106.612 Y97.599
G0 F5400 X107.108 Y97.669
G1 F1200 X101.569 Y103.208 E40.95514
G1 X101.499 Y103.278
G0 F5400 X101.569 Y103.774
G1 F1200 X107.673 Y97.669 E41.24558
G1 X107.743 Y97.599
G0 F5400 X108.239 Y97.669
G1 F1200 X101.569 Y104.339 E41.56294
G1 X101.499 Y104.409
