;FLAVOR:Marlin
;TIME:65
;Filament used: 0.0719833m
;Layer height: 0.2
;Generated with Cura_SteamEngine 3.2.1
M190 S50
M104 S210
M109 S210
M82 ;absolute extrusion mode
G28 ;Home
G1 Z15.0 F6000 ;Move the platform down 15mm
;Prime the extruder
G92 E0
G1 F200 E3
G92 E0
;LAYER_COUNT:4
;LAYER:0
M107
G0 F3600 X97.87 Y93.615 Z0.3
;TYPE:SKIRT
G1 F1800 X98.327 Y93.237 E0.02993
G1 X98.629 Y93.039 E0.04815
G1 X99.057 Y92.782 E0.07335
G1 X99.585 Y92.512 E0.10327
G1 X100.144 Y92.315 E0.13319
G1 X100.725 Y92.195 E0.16312
G1 X101.299 Y92.154 E0.19217
G1 X108.45 Y92.117 E0.55305
G1 X109.042 Y92.154 E0.58298
G1 X109.736 Y92.302 E0.61879
G1 X110.143 Y92.424 E0.64023
G1 X110.699 Y92.632 E0.67019
G1 X111.221 Y92.913 E0.70011
G1 X111.7 Y93.262 E0.73002
G1 X111.934 Y93.472 E0.74588
G1 X112.299 Y93.824 E0.77147
G1 X112.697 Y94.263 E0.80138
G1 X113.033 Y94.752 E0.83132
G1 X113.299 Y95.282 E0.86125
G1 X113.492 Y95.843 E0.89119
G1 X113.574 Y96.205 E0.90992
G1 X113.729 Y97.059 E0.95372
G1 X113.8 Y97.848 E0.9937
G1 X113.791 Y113.494 E1.78328
G1 X113.751 Y114.085 E1.81317
G1 X113.631 Y114.666 E1.84311
G1 X113.435 Y115.225 E1.873
G1 X113.165 Y115.753 E1.90293
G1 X112.826 Y116.24 E1.93288
G1 X112.426 Y116.677 E1.96277
G1 X111.97 Y117.056 E1.9927
G1 X111.467 Y117.371 E2.02265
G1 X110.926 Y117.614 E2.05258
G1 X110.358 Y117.783 E2.08248
G1 X109.772 Y117.874 E2.11241
G1 X109.391 Y117.891 E2.13165
G1 X100.609 Y117.891 E2.57484
G1 X100.017 Y117.851 E2.60478
G1 X99.437 Y117.732 E2.63466
G1 X98.877 Y117.536 E2.66461
G1 X98.349 Y117.266 E2.69453
G1 X97.862 Y116.928 E2.72445
G1 X97.425 Y116.527 E2.75438
G1 X97.045 Y116.072 E2.7843
G1 X96.731 Y115.569 E2.81422
G1 X96.486 Y115.029 E2.84415
G1 X96.317 Y114.46 E2.8741
G1 X96.226 Y113.875 E2.90398
G1 X96.209 Y113.49 E2.92343
G1 X96.214 Y97.457 E3.73254
G1 X96.254 Y96.865 E3.76248
G1 X96.373 Y96.284 E3.79241
G1 X96.576 Y95.71 E3.82313
G1 X96.856 Y95.063 E3.85871
G1 X97.128 Y94.536 E3.88864
G1 X97.468 Y94.051 E3.91853
G1 X97.87 Y93.615 E3.94846
G0 F3600 X98.203 Y93.852
G1 F1800 X98.835 Y93.382 E3.98821
G1 X99.263 Y93.125 E4.0134
G1 X99.767 Y92.869 E4.04193
G1 X100.302 Y92.686 E4.07046
G1 X100.857 Y92.581 E4.09897
G1 X101.301 Y92.554 E4.12141
G1 X108.452 Y92.517 E4.4823
G1 X109.016 Y92.554 E4.51082
G1 X109.622 Y92.685 E4.54211
G1 X110.029 Y92.807 E4.56355
G1 X110.557 Y93.008 E4.59206
G1 X111.052 Y93.28 E4.62057
G1 X111.657 Y93.76 E4.65954
G1 X112.022 Y94.112 E4.68513
G1 X112.4 Y94.532 E4.71364
G1 X112.715 Y95.001 E4.74216
G1 X112.961 Y95.51 E4.77069
G1 X113.181 Y96.277 E4.81095
G1 X113.336 Y97.131 E4.85475
G1 X113.4 Y97.847 E4.89103
G1 X113.391 Y113.493 E5.68061
G1 X113.351 Y114.057 E5.70915
G1 X113.231 Y114.61 E5.7377
G1 X113.035 Y115.14 E5.76622
G1 X112.766 Y115.637 E5.79474
G1 X112.43 Y116.092 E5.82328
G1 X112.033 Y116.494 E5.8518
G1 X111.583 Y116.837 E5.88035
G1 X111.09 Y117.112 E5.90884
G1 X110.562 Y117.316 E5.9374
G1 X110.011 Y117.443 E5.96594
G1 X109.391 Y117.491 E5.99732
G1 X100.609 Y117.491 E6.44051
G1 X100.045 Y117.451 E6.46904
G1 X99.492 Y117.332 E6.49759
G1 X98.962 Y117.136 E6.5261
G1 X98.465 Y116.868 E6.5546
G1 X98.01 Y116.532 E6.58314
G1 X97.607 Y116.135 E6.61169
G1 X97.265 Y115.685 E6.64021
G1 X96.989 Y115.192 E6.66873
G1 X96.785 Y114.664 E6.69729
G1 X96.658 Y114.114 E6.72578
G1 X96.609 Y113.49 E6.75737
G1 X96.614 Y97.457 E7.56648
G1 X96.654 Y96.893 E7.59501
G1 X96.773 Y96.34 E7.62356
G1 X96.943 Y95.869 E7.64883
G1 X97.223 Y95.222 E7.6844
G1 X97.484 Y94.721 E7.71291
G1 X97.812 Y94.261 E7.74142
G1 X98.203 Y93.852 E7.76998
G0 F3600 X98.534 Y94.093
G1 F1800 X99.041 Y93.725 E7.80159
G1 X99.469 Y93.468 E7.82679
G1 X99.948 Y93.227 E7.85385
G1 X100.457 Y93.059 E7.8809
G1 X100.986 Y92.97 E7.90797
G1 X101.303 Y92.954 E7.92399
G1 X108.454 Y92.917 E8.28487
G1 X108.989 Y92.954 E8.31193
G1 X109.507 Y93.069 E8.33871
G1 X109.914 Y93.191 E8.36015
G1 X110.414 Y93.382 E8.38716
G1 X110.881 Y93.646 E8.41424
G1 X111.379 Y94.048 E8.44653
G1 X111.744 Y94.4 E8.47212
G1 X112.101 Y94.8 E8.49918
G1 X112.395 Y95.248 E8.52622
G1 X112.619 Y95.736 E8.55332
G1 X112.787 Y96.348 E8.58535
G1 X112.942 Y97.202 E8.62915
G1 X113 Y97.847 E8.66183
G1 X112.991 Y113.493 E9.45141
G1 X112.951 Y114.028 E9.47848
G1 X112.831 Y114.551 E9.50556
G1 X112.636 Y115.05 E9.5326
G1 X112.368 Y115.515 E9.55969
G1 X112.035 Y115.935 E9.58673
G1 X111.642 Y116.3 E9.6138
G1 X111.2 Y116.603 E9.64085
G1 X110.718 Y116.838 E9.66791
G1 X110.206 Y116.998 E9.69498
G1 X109.676 Y117.08 E9.72204
G1 X109.391 Y117.091 E9.73644
G1 X100.609 Y117.091 E10.17962
G1 X100.074 Y117.051 E10.2067
G1 X99.551 Y116.932 E10.23376
G1 X99.052 Y116.737 E10.2608
G1 X98.587 Y116.469 E10.28789
G1 X98.167 Y116.136 E10.31493
G1 X97.801 Y115.744 E10.342
G1 X97.498 Y115.302 E10.36904
G1 X97.263 Y114.819 E10.39615
G1 X97.103 Y114.308 E10.42317
G1 X97.02 Y113.778 E10.45024
G1 X97.009 Y113.49 E10.46479
G1 X97.014 Y97.457 E11.2739
G1 X97.054 Y96.922 E11.30097
G1 X97.173 Y96.399 E11.32804
G1 X97.31 Y96.028 E11.348
G1 X97.59 Y95.381 E11.38358
G1 X97.839 Y94.906 E11.41064
G1 X98.156 Y94.474 E11.43768
G1 X98.534 Y94.093 E11.46477
G0 F3600 X98.862 Y94.339
G1 F1800 X99.247 Y94.068 E11.48853
G1 X99.675 Y93.811 E11.51372
G1 X100.127 Y93.585 E11.53922
G1 X100.61 Y93.434 E11.56476
G1 X101.305 Y93.354 E11.60007
G1 X108.456 Y93.317 E11.96095
G1 X108.961 Y93.354 E11.9865
G1 X109.392 Y93.452 E12.00881
G1 X109.799 Y93.574 E12.03025
G1 X110.27 Y93.757 E12.05575
G1 X110.707 Y94.012 E12.08128
G1 X111.101 Y94.336 E12.10703
G1 X111.466 Y94.688 E12.13262
G1 X111.801 Y95.066 E12.15811
G1 X112.073 Y95.493 E12.18366
G1 X112.273 Y95.957 E12.20915
G1 X112.394 Y96.42 E12.2333
G1 X112.549 Y97.274 E12.27711
G1 X112.6 Y97.847 E12.30614
G1 X112.591 Y113.493 E13.09572
G1 X112.551 Y113.997 E13.12123
G1 X112.432 Y114.488 E13.14673
G1 X112.237 Y114.955 E13.17227
G1 X111.971 Y115.385 E13.19778
G1 X111.64 Y115.767 E13.22329
G1 X111.254 Y116.093 E13.24879
G1 X110.821 Y116.354 E13.2743
G1 X110.352 Y116.543 E13.29982
G1 X109.859 Y116.657 E13.32536
G1 X109.391 Y116.691 E13.34904
G1 X100.609 Y116.691 E13.79222
G1 X100.105 Y116.651 E13.81774
G1 X99.614 Y116.532 E13.84323
G1 X99.147 Y116.338 E13.86875
G1 X98.717 Y116.072 E13.89427
G1 X98.334 Y115.742 E13.91978
G1 X98.008 Y115.355 E13.94532
G1 X97.747 Y114.922 E13.97083
G1 X97.557 Y114.454 E13.99632
G1 X97.444 Y113.961 E14.02185
G1 X97.409 Y113.49 E14.04568
G1 X97.414 Y97.457 E14.85479
G1 X97.454 Y96.953 E14.88031
G1 X97.573 Y96.462 E14.9058
G1 X97.677 Y96.187 E14.92064
G1 X97.957 Y95.54 E14.95622
G1 X98.194 Y95.093 E14.98175
G1 X98.498 Y94.69 E15.00722
G1 X98.862 Y94.339 E15.03274
G1 F1500 E8.53274
G0 F3600 X101.136 Y95.901
G0 X101.641 Y97.119
G0 X108.478 Y97.215
G0 X108.503 Y97.119
;TYPE:WALL-INNER
G1 F1500 E15.03274
G1 F1800 X108.595 Y97.157 E15.03777
G1 X108.679 Y97.221 E15.04309
G1 X108.743 Y97.305 E15.04842
G1 X108.781 Y97.397 E15.05345
G1 X108.8 Y97.54 E15.06073
G1 X108.8 Y112.9 E15.83587
G1 X101.2 Y112.9 E16.21941
G1 X101.2 Y97.54 E16.99456
G1 X101.219 Y97.397 E17.00184
G1 X101.257 Y97.305 E17.00686
G1 X101.321 Y97.221 E17.01219
G1 X101.405 Y97.157 E17.01752
G1 X101.497 Y97.119 E17.02254
G1 X101.64 Y97.1 E17.02982
G1 X108.36 Y97.1 E17.36895
G1 X108.503 Y97.119 E17.37623
G0 F3600 X108.604 Y96.728
;TYPE:WALL-OUTER
G1 F1800 X108.799 Y96.809 E17.38689
G1 X108.964 Y96.936 E17.39739
G1 X109.091 Y97.101 E17.4079
G1 X109.172 Y97.296 E17.41856
G1 X109.2 Y97.511 E17.4295
G1 X109.2 Y113.3 E18.2263
G1 X100.8 Y113.3 E18.6502
G1 X100.8 Y97.511 E19.447
G1 X100.828 Y97.296 E19.45794
G1 X100.909 Y97.101 E19.4686
G1 X101.036 Y96.936 E19.47911
G1 X101.201 Y96.809 E19.48961
G1 X101.396 Y96.728 E19.50027
G1 X101.611 Y96.7 E19.51121
G1 X108.389 Y96.7 E19.85326
G1 X108.604 Y96.728 E19.86421
G0 F3600 X108.788 Y96.804
G0 X108.4 Y97.5
;TYPE:SKIN
G1 F1800 X108.41 Y97.559 E19.86723
G1 X108.41 Y112.51 E20.62173
G1 X101.59 Y112.51 E20.96591
G1 X101.59 Y97.559 E21.72041
G1 X101.602 Y97.497 E21.7236
G1 X101.659 Y97.49 E21.7265
G1 X108.341 Y97.49 E22.06371
G1 X108.4 Y97.5 E22.06673
G0 F3600 X108.229 Y98.047
G1 F1800 X107.852 Y97.669 E22.09367
G0 F3600 X107.286 Y97.669
G1 F1800 X108.229 Y98.613 E22.16101
G1 X108.299 Y98.683
G0 F3600 X108.229 Y99.178
G1 F1800 X106.72 Y97.669 E22.2687
G1 X106.65 Y97.599
G0 F3600 X106.155 Y97.669
G1 F1800 X108.229 Y99.744 E22.41676
G1 X108.299 Y99.814
G0 F3600 X108.229 Y100.31
G1 F1800 X105.589 Y97.669 E22.6052
G1 X105.519 Y97.599
G0 F3600 X105.023 Y97.669
G1 F1800 X108.229 Y100.875 E22.83401
G1 X108.299 Y100.945
G0 F3600 X108.229 Y101.441
G1 F1800 X104.458 Y97.669 E23.10318
G1 X104.388 Y97.599
G0 F3600 X103.892 Y97.669
G1 F1800 X108.229 Y102.007 E23.41274
G1 X108.299 Y102.077
G0 F3600 X108.229 Y102.572
G1 F1800 X103.326 Y97.669 E23.76266
G1 X103.256 Y97.599
G0 F3600 X102.761 Y97.669
G1 F1800 X108.229 Y103.138 E24.15294
G1 X108.299 Y103.208
G0 F3600 X108.229 Y103.704
G1 F1800 X102.195 Y97.669 E24.58362
G1 X102.125 Y97.599
G0 F3600 X101.769 Y97.809
G1 F1800 X108.229 Y104.269 E25.04466
G1 X108.299 Y104.339
G0 F3600 X108.229 Y104.835
G1 F1800 X101.769 Y98.375 E25.5057
G1 X101.699 Y98.305
G0 F3600 X101.769 Y98.941
G1 F1800 X108.229 Y105.401 E25.96674
G1 X108.299 Y105.471
G0 F3600 X108.229 Y105.967
G1 F1800 X101.769 Y99.506 E26.42782
G1 X101.699 Y99.436
G0 F3600 X101.769 Y100.072
G1 F1800 X108.229 Y106.532 E26.88886
G1 X108.299 Y106.602
G0 F3600 X108.229 Y107.098
G1 F1800 X101.769 Y100.638 E27.3499
G1 X101.699 Y100.568
G0 F3600 X101.769 Y101.203
G1 F1800 X108.229 Y107.664 E27.81098
G1 X108.299 Y107.734
G0 F3600 X108.229 Y108.229
G1 F1800 X101.769 Y101.769 E28.27202
G1 X101.699 Y101.699
G0 F3600 X101.769 Y102.335
G1 F1800 X108.229 Y108.795 E28.73306
G1 X108.299 Y108.865
G0 F3600 X108.229 Y109.361
G1 F1800 X101.769 Y102.901 E29.19411
G1 X101.699 Y102.831
G0 F3600 X101.769 Y103.466
G1 F1800 X108.229 Y109.926 E29.65515
G1 X108.299 Y109.996
G0 F3600 X108.229 Y110.492
G1 F1800 X101.769 Y104.032 E30.11619
G1 X101.699 Y103.962
G0 F3600 X101.769 Y104.598
G1 F1800 X108.229 Y111.058 E30.57723
G1 X108.299 Y111.128
G0 F3600 X108.229 Y111.623
G1 F1800 X101.769 Y105.163 E31.03827
G1 X101.699 Y105.093
G0 F3600 X101.769 Y105.729
G1 F1800 X108.229 Y112.189 E31.49932
G1 X108.299 Y112.259
G0 F3600 X107.804 Y112.329
G1 F1800 X101.769 Y106.295 E31.92999
G1 X101.699 Y106.225
G0 F3600 X101.769 Y106.86
G1 F1800 X107.238 Y112.329 E32.32031
G1 X107.308 Y112.399
G0 F3600 X106.672 Y112.329
G1 F1800 X101.769 Y107.426 E32.67023
G1 X101.699 Y107.356
G0 F3600 X101.769 Y107.992
G1 F1800 X106.107 Y112.329 E32.97979
G1 X106.177 Y112.399
G0 F3600 X105.541 Y112.329
G1 F1800 X101.769 Y108.557 E33.24899
G1 X101.699 Y108.487
G0 F3600 X101.769 Y109.123
G1 F1800 X104.975 Y112.329 E33.4778
G1 X105.045 Y112.399
G0 F3600 X104.409 Y112.329
G1 F1800 X101.769 Y109.689 E33.66621
G1 X101.699 Y109.619
G0 F3600 X101.769 Y110.254
G1 F1800 X103.844 Y112.329 E33.8143
G1 X103.914 Y112.399
G0 F3600 X103.278 Y112.329
G1 F1800 X101.769 Y110.82 E33.922
G1 X101.699 Y110.75
G0 F3600 X101.769 Y111.386
G1 F1800 X102.712 Y112.329 E33.9893
G1 X102.782 Y112.399
G0 F3600 X102.147 Y112.329
G1 F1800 X101.769 Y111.951 E34.01628
G0 F3600 X108.478 Y97.215
G0 X108.503 Y97.119
;TIME_ELAPSED:26.535174
;LAYER:1
M140 S50
M106 S255
G0 F5400 X108.503 Y97.119 Z0.5
;TYPE:WALL-INNER
G1 F2700 X108.595 Y97.157 E34.01963
G1 X108.679 Y97.221 E34.02318
G1 X108.743 Y97.305 E34.02673
G1 X108.781 Y97.397 E34.03008
G1 X108.8 Y97.54 E34.03493
G1 X108.8 Y112.9 E34.5517
G1 X101.2 Y112.9 E34.80739
G1 X101.2 Y97.54 E35.32415
G1 X101.219 Y97.397 E35.32901
G1 X101.257 Y97.305 E35.33236
G1 X101.321 Y97.221 E35.33591
G1 X101.405 Y97.157 E35.33946
G1 X101.497 Y97.119 E35.34281
G1 X101.64 Y97.1 E35.34766
G1 X108.36 Y97.1 E35.57375
G1 X108.503 Y97.119 E35.5786
G0 F5400 X108.604 Y96.728
;TYPE:WALL-OUTER
G1 F1800 X108.799 Y96.809 E35.58571
G1 X108.964 Y96.936 E35.59271
G1 X109.091 Y97.101 E35.59972
G1 X109.172 Y97.296 E35.60682
G1 X109.2 Y97.511 E35.61411
G1 X109.2 Y113.3 E36.14531
G1 X100.8 Y113.3 E36.42792
G1 X100.8 Y97.511 E36.95911
G1 X100.828 Y97.296 E36.96641
G1 X100.909 Y97.101 E36.97351
G1 X101.036 Y96.936 E36.98052
G1 X101.201 Y96.809 E36.98752
G1 X101.396 Y96.728 E36.99463
G1 X101.611 Y96.7 E37.00192
G1 X108.389 Y96.7 E37.22996
G1 X108.604 Y96.728 E37.23725
G0 F5400 X108.788 Y96.804
G0 X108.4 Y97.5
;TYPE:SKIN
G1 F1800 X108.41 Y97.559 E37.23927
G1 X108.41 Y112.51 E37.74227
G1 X101.59 Y112.51 E37.97172
G1 X101.59 Y97.559 E38.47472
G1 X101.602 Y97.497 E38.47685
G1 X101.659 Y97.49 E38.47878
G1 X108.341 Y97.49 E38.70359
G1 X108.4 Y97.5 E38.7056
G0 F5400 X101.769 Y97.917
G1 F1800 X102.017 Y97.669 E38.7174
G0 F5400 X102.582 Y97.669
G1 F1800 X101.769 Y98.483 E38.7561
G1 X101.699 Y98.553
G0 F5400 X101.769 Y99.048
G1 F1800 X103.148 Y97.669 E38.82172
G1 X103.218 Y97.599
G0 F5400 X103.714 Y97.669
G1 F1800 X101.769 Y99.614 E38.91426
G1 X101.699 Y99.684
G0 F5400 X101.769 Y100.18
G1 F1800 X104.279 Y97.669 E39.03371
G1 X104.349 Y97.599
G0 F5400 X104.845 Y97.669
G1 F1800 X101.769 Y100.745 E39.18006
G1 X101.699 Y100.815
G0 F5400 X101.769 Y101.311
G1 F1800 X105.411 Y97.669 E39.35334
G1 X105.481 Y97.599
G0 F5400 X105.976 Y97.669
G1 F1800 X101.769 Y101.877 E39.55353
G1 X101.699 Y101.947
G0 F5400 X101.769 Y102.442
G1 F1800 X106.542 Y97.669 E39.78063
G1 X106.612 Y97.599
G0 F5400 X107.108 Y97.669
G1 F1800 X101.769 Y103.008 E40.03465
G1 X101.699 Y103.078
G0 F5400 X101.769 Y103.574
G1 F1800 X107.673 Y97.669 E40.31558
G1 X107.743 Y97.599
G0 F5400 X108.229 Y97.679
G1 F1800 X101.769 Y104.139 E40.62294
G1 X101.699 Y104.209
G0 F5400 X101.769 Y104.705
G1 F1800 X108.229 Y98.245 E40.93031
G1 X108.299 Y98.175
G0 F5400 X108.229 Y98.811
G1 F1800 X101.769 Y105.271 E41.23767
G1 X101.699 Y105.341
G0 F5400 X101.769 Y105.836
G1 F1800 X108.229 Y99.376 E41.54503
G1 X108.299 Y99.306
G0 F5400 X108.229 Y99.942
G1 F1800 X101.769 Y106.402 E41.85239
G1 X101.699 Y106.472
G0 F5400 X101.769 Y106.968
G1 F1800 X108.229 Y100.508 E42.15975
G1 X108.299 Y100.438
G0 F5400 X108.229 Y101.073
G1 F1800 X101.769 Y107.533 E42.46711
G1 X101.699 Y107.603
G0 F5400 X101.769 Y108.099
G1 F1800 X108.229 Y101.639 E42.77447
G1 X108.299 Y101.569
G0 F5400 X108.229 Y102.205
G1 F1800 X101.769 Y108.665 E43.08183
G1 X101.699 Y108.735
G0 F5400 X101.769 Y109.231
G1 F1800 X108.229 Y102.77 E43.38922
G1 X108.299 Y102.7
G0 F5400 X108.229 Y103.336
G1 F1800 X101.769 Y109.796 E43.69658
G1 X101.699 Y109.866
G0 F5400 X101.769 Y110.362
G1 F1800 X108.229 Y103.902 E44.00394
G1 X108.299 Y103.832
G0 F5400 X108.229 Y104.467
G1 F1800 X101.769 Y110.928 E44.31133
G1 X101.699 Y110.998
G0 F5400 X101.769 Y111.493
G1 F1800 X108.229 Y105.033 E44.61869
G1 X108.299 Y104.963
G0 F5400 X108.229 Y105.599
G1 F1800 X101.769 Y112.059 E44.92605
G1 X101.699 Y112.129
G0 F5400 X102.065 Y112.329
G1 F1800 X108.229 Y106.165 E45.21933
G1 X108.299 Y106.095
G0 F5400 X108.229 Y106.73
G1 F1800 X102.63 Y112.329 E45.48572
G1 X102.56 Y112.399
G0 F5400 X103.196 Y112.329
G1 F1800 X108.229 Y107.296 E45.72519
G1 X108.299 Y107.226
G0 F5400 X108.229 Y107.862
G1 F1800 X103.762 Y112.329 E45.93772
G1 X103.692 Y112.399
G0 F5400 X104.327 Y112.329
G1 F1800 X108.229 Y108.427 E46.12338
G1 X108.299 Y108.357
G0 F5400 X108.229 Y108.993
G1 F1800 X104.893 Y112.329 E46.2821
G1 X104.823 Y112.399
G0 F5400 X105.459 Y112.329
G1 F1800 X108.229 Y109.559 E46.4139
G1 X108.299 Y109.489
G0 F5400 X108.229 Y110.124
G1 F1800 X106.025 Y112.329 E46.51878
G1 X105.955 Y112.399
G0 F5400 X106.59 Y112.329
G1 F1800 X108.229 Y110.69 E46.59677
G1 X108.299 Y110.62
G0 F5400 X108.229 Y111.256
G1 F1800 X107.156 Y112.329 E46.64782
G1 X107.086 Y112.399
G0 F5400 X107.722 Y112.329
G1 F1800 X108.229 Y111.821 E46.67197
G0 F5400 X108.478 Y97.215
G0 X108.503 Y97.119
;TIME_ELAPSED:39.845789
;LAYER:2
G0 F7200 X108.503 Y97.119 Z0.7
;TYPE:WALL-INNER
G1 F3600 X108.595 Y97.157 E46.67531
G1 X108.679 Y97.221 E46.67887
G1 X108.743 Y97.305 E46.68242
G1 X108.781 Y97.397 E46.68577
G1 X108.8 Y97.54 E46.69062
G1 X108.8 Y112.9 E47.20739
G1 X101.2 Y112.9 E47.46308
G1 X101.2 Y97.54 E47.97984
G1 X101.219 Y97.397 E47.9847
G1 X101.257 Y97.305 E47.98804
G1 X101.321 Y97.221 E47.9916
G1 X101.405 Y97.157 E47.99515
G1 X101.497 Y97.119 E47.9985
G1 X101.64 Y97.1 E48.00335
