;FLAVOR:Marlin
;TIME:312
;Filament used: 0.24024m
;Layer height: 0.2
;Generated with Cura_SteamEngine 3.2.1
M190 S50
M104 S200
M109 S200
M82 ;absolute extrusion mode
G28 ;Home
G1 Z15.0 F6000 ;Move the platform down 15mm
;Prime the extruder
G92 E0
G1 F200 E3
G92 E0
;LAYER_COUNT:3
;LAYER:0
M107
G0 F4500 X80.549 Y93.8 Z0.3
;TYPE:SKIRT
G1 F1200 X80.997 Y93.506 E0.02673
G1 X81.484 Y93.282 E0.05348
G1 X81.785 Y93.185 E0.06925
G1 X82.319 Y93.038 E0.09689
G1 X82.845 Y92.935 E0.12363
G1 X83.275 Y92.909 E0.14512
G1 X126.824 Y92.917 E2.31779
G1 X127.358 Y92.957 E2.3445
G1 X127.857 Y93.069 E2.37002
G1 X128.264 Y93.191 E2.39122
G1 X128.764 Y93.382 E2.41792
G1 X129.231 Y93.646 E2.44468
G1 X129.729 Y94.048 E2.47661
G1 X130.094 Y94.4 E2.50191
G1 X130.451 Y94.8 E2.52866
G1 X130.745 Y95.248 E2.55539
G1 X130.969 Y95.736 E2.58218
G1 X131.137 Y96.348 E2.61385
G1 X131.292 Y97.202 E2.65715
G1 X131.35 Y97.849 E2.68956
G1 X131.333 Y112.577 E3.42434
G1 X131.292 Y113.112 E3.45111
G1 X131.183 Y113.601 E3.4761
G1 X131.062 Y114.007 E3.49724
G1 X130.871 Y114.508 E3.52399
G1 X130.608 Y114.975 E3.55073
G1 X130.203 Y115.478 E3.58295
G1 X129.851 Y115.843 E3.60825
G1 X129.451 Y116.2 E3.63499
G1 X129.003 Y116.494 E3.66173
G1 X128.515 Y116.718 E3.68852
G1 X128.215 Y116.815 E3.70425
G1 X127.681 Y116.962 E3.73188
G1 X127.155 Y117.065 E3.75862
G1 X126.726 Y117.091 E3.78006
G1 X83.26 Y117.09 E5.94859
G1 X82.725 Y117.05 E5.97535
G1 X82.343 Y116.971 E5.99482
G1 X81.853 Y116.842 E6.0201
G1 X81.346 Y116.668 E6.04684
G1 X80.871 Y116.419 E6.07359
G1 X80.271 Y115.952 E6.11153
G1 X79.906 Y115.6 E6.13683
G1 X79.549 Y115.2 E6.16357
G1 X79.255 Y114.752 E6.19031
G1 X79.031 Y114.264 E6.2171
G1 X78.933 Y113.96 E6.23303
G1 X78.787 Y113.427 E6.2606
G1 X78.684 Y112.901 E6.28734
G1 X78.659 Y112.476 E6.30858
G1 X78.66 Y97.511 E7.05519
G1 X78.7 Y96.976 E7.08196
G1 X78.778 Y96.596 E7.10131
G1 X78.907 Y96.105 E7.12664
G1 X79.082 Y95.598 E7.1534
G1 X79.33 Y95.123 E7.18013
G1 X79.798 Y94.521 E7.21817
G1 X80.149 Y94.157 E7.2434
G1 X80.549 Y93.8 E7.27015
G0 F4500 X80.815 Y94.1
G1 F1200 X81.242 Y93.828 E7.2954
G1 X81.891 Y93.571 E7.33023
G1 X82.425 Y93.424 E7.35786
G1 X82.921 Y93.329 E7.38306
G1 X83.275 Y93.309 E7.40075
G1 X126.824 Y93.317 E9.57342
G1 X127.328 Y93.357 E9.59864
G1 X127.742 Y93.452 E9.61983
G1 X128.149 Y93.574 E9.64103
G1 X128.62 Y93.757 E9.66624
G1 X129.057 Y94.012 E9.69148
G1 X129.451 Y94.336 E9.71693
G1 X129.816 Y94.688 E9.74223
G1 X130.151 Y95.066 E9.76743
G1 X130.423 Y95.493 E9.79268
G1 X130.623 Y95.957 E9.81789
G1 X130.744 Y96.42 E9.84177
G1 X130.899 Y97.274 E9.88507
G1 X130.95 Y97.849 E9.91387
G1 X130.933 Y112.577 E10.64865
G1 X130.892 Y113.081 E10.67388
G1 X130.8 Y113.487 E10.69465
G1 X130.679 Y113.893 E10.71579
G1 X130.496 Y114.365 E10.74104
G1 X130.242 Y114.802 E10.76626
G1 X129.915 Y115.2 E10.79196
G1 X129.563 Y115.565 E10.81726
G1 X129.185 Y115.9 E10.84245
G1 X128.758 Y116.172 E10.86771
G1 X128.109 Y116.429 E10.90254
G1 X127.575 Y116.576 E10.93017
G1 X127.079 Y116.671 E10.95537
G1 X126.726 Y116.691 E10.973
G1 X83.26 Y116.69 E13.14153
G1 X82.756 Y116.65 E13.16676
G1 X82.445 Y116.585 E13.18261
G1 X81.955 Y116.456 E13.20789
G1 X81.478 Y116.289 E13.2331
G1 X81.033 Y116.049 E13.25832
G1 X80.549 Y115.664 E13.28918
G1 X80.184 Y115.312 E13.31448
G1 X79.849 Y114.934 E13.33968
G1 X79.577 Y114.507 E13.36493
G1 X79.319 Y113.854 E13.39996
G1 X79.173 Y113.321 E13.42753
G1 X79.078 Y112.825 E13.45273
G1 X79.059 Y112.476 E13.47017
G1 X79.06 Y97.511 E14.21677
G1 X79.1 Y97.007 E14.242
G1 X79.165 Y96.698 E14.25775
G1 X79.294 Y96.207 E14.28308
G1 X79.461 Y95.73 E14.30829
G1 X79.701 Y95.284 E14.33356
G1 X80.085 Y94.799 E14.36442
G1 X80.436 Y94.435 E14.38965
G1 X80.815 Y94.1 E14.41489
G1 F1800 E7.91489
G0 F4500 X82.786 Y95.901
G0 X83.291 Y97.119
G0 X126.828 Y97.215
G0 X126.853 Y97.119
;TYPE:WALL-INNER
G1 F1800 E14.41489
G1 F1200 X126.945 Y97.157 E14.41985
G1 X127.029 Y97.221 E14.42512
G1 X127.093 Y97.305 E14.43039
G1 X127.131 Y97.397 E14.43536
G1 X127.15 Y97.54 E14.44255
G1 X127.15 Y112.46 E15.18692
G1 X127.131 Y112.603 E15.19411
G1 X127.093 Y112.695 E15.19908
G1 X127.029 Y112.779 E15.20435
G1 X126.945 Y112.843 E15.20962
G1 X126.853 Y112.881 E15.21458
G1 X126.71 Y112.9 E15.22178
G1 X83.29 Y112.9 E17.38801
G1 X83.147 Y112.881 E17.39521
G1 X83.055 Y112.843 E17.40017
G1 X82.971 Y112.779 E17.40544
G1 X82.907 Y112.695 E17.41071
G1 X82.869 Y112.603 E17.41568
G1 X82.85 Y112.46 E17.42287
G1 X82.85 Y97.54 E18.16724
G1 X82.869 Y97.397 E18.17443
G1 X82.907 Y97.305 E18.1794
G1 X82.971 Y97.221 E18.18467
G1 X83.055 Y97.157 E18.18994
G1 X83.147 Y97.119 E18.1949
G1 X83.29 Y97.1 E18.2021
G1 X126.71 Y97.1 E20.36833
G1 X126.853 Y97.119 E20.37553
G0 F4500 X126.954 Y96.728
;TYPE:WALL-OUTER
G1 F1200 X127.149 Y96.809 E20.38606
G1 X127.314 Y96.936 E20.39645
G1 X127.441 Y97.101 E20.40684
G1 X127.522 Y97.296 E20.41737
G1 X127.55 Y97.511 E20.42819
G1 X127.55 Y112.489 E21.17545
G1 X127.522 Y112.704 E21.18626
G1 X127.441 Y112.899 E21.1968
G1 X127.314 Y113.064 E21.20719
G1 X127.149 Y113.191 E21.21757
G1 X126.954 Y113.272 E21.22811
G1 X126.739 Y113.3 E21.23892
G1 X83.261 Y113.3 E23.40805
G1 X83.046 Y113.272 E23.41887
G1 X82.851 Y113.191 E23.4294
G1 X82.686 Y113.064 E23.43979
G1 X82.559 Y112.899 E23.45018
G1 X82.478 Y112.704 E23.46071
G1 X82.45 Y112.489 E23.47153
G1 X82.45 Y97.511 E24.21879
G1 X82.478 Y97.296 E24.2296
G1 X82.559 Y97.101 E24.24014
G1 X82.686 Y96.936 E24.25052
G1 X82.851 Y96.809 E24.26091
G1 X83.046 Y96.728 E24.27145
G1 X83.261 Y96.7 E24.28226
G1 X126.739 Y96.7 E26.45139
G1 X126.954 Y96.728 E26.46221
G0 F4500 X127.138 Y96.804
G0 X126.748 Y97.497
;TYPE:SKIN
G1 F1200 X126.76 Y97.559 E26.46536
G1 X126.76 Y112.441 E27.20782
G1 X126.748 Y112.503 E27.21097
G1 X126.691 Y112.51 E27.21384
G1 X83.309 Y112.51 E29.37818
G1 X83.247 Y112.498 E29.38133
G1 X83.24 Y112.441 E29.38419
G1 X83.24 Y97.559 E30.12666
G1 X83.252 Y97.497 E30.12981
G1 X83.309 Y97.49 E30.13267
G1 X126.691 Y97.49 E32.29701
G1 X126.748 Y97.497 E32.29988
G0 F4500 X126.549 Y97.699
G1 F1200 X126.266 Y97.981 E32.32399
G1 X126.649 Y98.364
G0 F4500 X126.579 Y98.86
G1 F1200 X125.388 Y97.669 E32.40802
G1 X125.318 Y97.599
G0 F4500 X124.822 Y97.669
G1 F1200 X126.579 Y99.426 E32.53199
G1 X126.649 Y99.496
G0 F4500 X126.579 Y99.991
G1 F1200 X124.257 Y97.669 E32.69582
G1 X124.187 Y97.599
G0 F4500 X123.691 Y97.669
G1 F1200 X126.579 Y100.557 E32.89958
G1 X126.649 Y100.627
G0 F4500 X126.579 Y101.123
G1 F1200 X123.125 Y97.669 E33.14328
G1 X123.055 Y97.599
G0 F4500 X122.559 Y97.669
G1 F1200 X126.579 Y101.689 E33.42692
G1 X126.649 Y101.759
G0 F4500 X126.579 Y102.254
G1 F1200 X121.994 Y97.669 E33.75041
G1 X121.924 Y97.599
G0 F4500 X121.428 Y97.669
G1 F1200 X126.579 Y102.82 E34.11384
G1 X126.649 Y102.89
G0 F4500 X126.579 Y103.386
G1 F1200 X120.862 Y97.669 E34.51721
G1 X120.792 Y97.599
G0 F4500 X120.297 Y97.669
G1 F1200 X126.579 Y103.951 E34.96044
G1 X126.649 Y104.021
G0 F4500 X126.579 Y104.517
G1 F1200 X119.731 Y97.669 E35.4436
G1 X119.661 Y97.599
G0 F4500 X119.165 Y97.669
G1 F1200 X126.579 Y105.083 E35.9667
G1 X126.649 Y105.153
G0 F4500 X126.579 Y105.648
G1 F1200 X118.6 Y97.669 E36.52966
G1 X118.53 Y97.599
G0 F4500 X118.034 Y97.669
G1 F1200 X126.579 Y106.214 E37.13256
G1 X126.649 Y106.284
G0 F4500 X126.579 Y106.78
G1 F1200 X117.468 Y97.669 E37.77539
G1 X117.398 Y97.599
G0 F4500 X116.903 Y97.669
G1 F1200 X126.579 Y107.345 E38.45808
G1 X126.649 Y107.415
G0 F4500 X126.579 Y107.911
G1 F1200 X116.337 Y97.669 E39.18071
G1 X116.267 Y97.599
G0 F4500 X115.771 Y97.669
G1 F1200 X126.579 Y108.477 E39.94327
G1 X126.649 Y108.547
G0 F4500 X126.579 Y109.042
G1 F1200 X115.206 Y97.669 E40.7457
G1 X115.136 Y97.599
G0 F4500 X114.64 Y97.669
G1 F1200 X126.579 Y109.608 E41.58806
G1 X126.649 Y109.678
G0 F4500 X126.579 Y110.174
G1 F1200 X114.074 Y97.669 E42.47035
G1 X114.004 Y97.599
G0 F4500 X113.509 Y97.669
G1 F1200 X126.579 Y110.739 E43.39251
G1 X126.649 Y110.809
G0 F4500 X126.579 Y111.305
G1 F1200 X112.943 Y97.669 E44.35461
G1 X112.873 Y97.599
G0 F4500 X112.377 Y97.669
G1 F1200 X126.579 Y111.871 E45.35663
G1 X126.649 Y111.941
G0 F4500 X126.471 Y112.329
G1 F1200 X111.811 Y97.669 E46.39098
G1 X111.741 Y97.599
G0 F4500 X111.246 Y97.669
G1 F1200 X125.906 Y112.329 E47.42532
G1 X125.976 Y112.399
G0 F4500 X125.34 Y112.329
G1 F1200 X110.68 Y97.669 E48.45966
G1 X110.61 Y97.599
G0 F4500 X110.114 Y97.669
G1 F1200 X124.774 Y112.329 E49.494
G1 X124.844 Y112.399
G0 F4500 X124.208 Y112.329
G1 F1200 X109.549 Y97.669 E50.52831
G1 X109.479 Y97.599
G0 F4500 X108.983 Y97.669
G1 F1200 X123.643 Y112.329 E51.56265
G1 X123.713 Y112.399
G0 F4500 X123.077 Y112.329
G1 F1200 X108.417 Y97.669 E52.59699
G1 X108.347 Y97.599
G0 F4500 X107.852 Y97.669
G1 F1200 X122.511 Y112.329 E53.6313
G1 X122.581 Y112.399
G0 F4500 X121.946 Y112.329
G1 F1200 X107.286 Y97.669 E54.66564
G1 X107.216 Y97.599
G0 F4500 X106.72 Y97.669
G1 F1200 X121.38 Y112.329 E55.69999
G1 X121.45 Y112.399
G0 F4500 X120.814 Y112.329
G1 F1200 X106.155 Y97.669 E56.73429
G1 X106.085 Y97.599
G0 F4500 X105.589 Y97.669
G1 F1200 X120.249 Y112.329 E57.76863
G1 X120.319 Y112.399
G0 F4500 X119.683 Y112.329
G1 F1200 X105.023 Y97.669 E58.80298
G1 X104.953 Y97.599
G0 F4500 X104.458 Y97.669
G1 F1200 X119.117 Y112.329 E59.83728
G1 X119.187 Y112.399
G0 F4500 X118.552 Y112.329
G1 F1200 X103.892 Y97.669 E60.87163
G1 X103.822 Y97.599
G0 F4500 X103.326 Y97.669
G1 F1200 X117.986 Y112.329 E61.90597
G1 X118.056 Y112.399
G0 F4500 X117.42 Y112.329
G1 F1200 X102.761 Y97.669 E62.94027
G1 X102.691 Y97.599
G0 F4500 X102.195 Y97.669
G1 F1200 X116.855 Y112.329 E63.97462
G1 X116.925 Y112.399
G0 F4500 X116.289 Y112.329
G1 F1200 X101.629 Y97.669 E65.00896
G1 X101.559 Y97.599
G0 F4500 X101.063 Y97.669
G1 F1200 X115.723 Y112.329 E66.0433
G1 X115.793 Y112.399
G0 F4500 X115.157 Y112.329
G1 F1200 X100.498 Y97.669 E67.07761
G1 X100.428 Y97.599
G0 F4500 X99.932 Y97.669
G1 F1200 X114.592 Y112.329 E68.11195
G1 X114.662 Y112.399
G0 F4500 X114.026 Y112.329
G1 F1200 X99.366 Y97.669 E69.14629
G1 X99.296 Y97.599
G0 F4500 X98.801 Y97.669
G1 F1200 X113.46 Y112.329 E70.1806
G1 X113.53 Y112.399
G0 F4500 X112.895 Y112.329
G1 F1200 X98.235 Y97.669 E71.21494
G1 X98.165 Y97.599
G0 F4500 X97.669 Y97.669
G1 F1200 X112.329 Y112.329 E72.24928
G1 X112.399 Y112.399
G0 F4500 X111.763 Y112.329
G1 F1200 X97.104 Y97.669 E73.28359
G1 X97.034 Y97.599
G0 F4500 X96.538 Y97.669
G1 F1200 X111.198 Y112.329 E74.31793
G1 X111.268 Y112.399
G0 F4500 X110.632 Y112.329
G1 F1200 X95.972 Y97.669 E75.35228
G1 X95.902 Y97.599
G0 F4500 X95.407 Y97.669
G1 F1200 X110.066 Y112.329 E76.38658
G1 X110.136 Y112.399
G0 F4500 X109.501 Y112.329
G1 F1200 X94.841 Y97.669 E77.42092
G1 X94.771 Y97.599
G0 F4500 X94.275 Y97.669
G1 F1200 X108.935 Y112.329 E78.45527
G1 X109.005 Y112.399
G0 F4500 X108.369 Y112.329
G1 F1200 X93.71 Y97.669 E79.48957
G1 X93.64 Y97.599
G0 F4500 X93.144 Y97.669
G1 F1200 X107.804 Y112.329 E80.52392
G1 X107.874 Y112.399
G0 F4500 X107.238 Y112.329
G1 F1200 X92.578 Y97.669 E81.55826
G1 X92.508 Y97.599
G0 F4500 X92.012 Y97.669
G1 F1200 X106.672 Y112.329 E82.5926
G1 X106.742 Y112.399
G0 F4500 X106.107 Y112.329
G1 F1200 X91.447 Y97.669 E83.62694
G1 X91.377 Y97.599
G0 F4500 X90.881 Y97.669
G1 F1200 X105.541 Y112.329 E84.66128
G1 X105.611 Y112.399
G0 F4500 X104.975 Y112.329
G1 F1200 X90.315 Y97.669 E85.69563
G1 X90.245 Y97.599
G0 F4500 X89.75 Y97.669
G1 F1200 X104.409 Y112.329 E86.72993
G1 X104.479 Y112.399
G0 F4500 X103.844 Y112.329
G1 F1200 X89.184 Y97.669 E87.76428
G1 X89.114 Y97.599
G0 F4500 X88.618 Y97.669
G1 F1200 X103.278 Y112.329 E88.79862
G1 X103.348 Y112.399
G0 F4500 X102.712 Y112.329
G1 F1200 X88.053 Y97.669 E89.83292
G1 X87.983 Y97.599
G0 F4500 X87.487 Y97.669
G1 F1200 X102.147 Y112.329 E90.86727
G1 X102.217 Y112.399
G0 F4500 X101.581 Y112.329
G1 F1200 X86.921 Y97.669 E91.90161
G1 X86.851 Y97.599
G0 F4500 X86.356 Y97.669
G1 F1200 X101.015 Y112.329 E92.93592
G1 X101.085 Y112.399
G0 F4500 X100.45 Y112.329
G1 F1200 X85.79 Y97.669 E93.97026
G1 X85.72 Y97.599
G0 F4500 X85.224 Y97.669
G1 F1200 X99.884 Y112.329 E95.0046
G1 X99.954 Y112.399
G0 F4500 X99.318 Y112.329
G1 F1200 X84.659 Y97.669 E96.03891
G1 X84.589 Y97.599
G0 F4500 X84.093 Y97.669
G1 F1200 X98.753 Y112.329 E97.07325
G1 X98.823 Y112.399
G0 F4500 X98.187 Y112.329
G1 F1200 X83.527 Y97.669 E98.10759
G1 X83.457 Y97.599
G0 F4500 X83.419 Y98.127
G1 F1200 X97.621 Y112.329 E99.10962
G1 X97.691 Y112.399
G0 F4500 X97.056 Y112.329
G1 F1200 X83.419 Y98.693 E100.07175
G1 X83.349 Y98.623
G0 F4500 X83.419 Y99.258
G1 F1200 X96.49 Y112.329 E100.99398
G1 X96.56 Y112.399
G0 F4500 X95.924 Y112.329
G1 F1200 X83.419 Y99.824 E101.87627
G1 X83.349 Y99.754
G0 F4500 X83.419 Y100.39
G1 F1200 X95.359 Y112.329 E102.71867
G1 X95.429 Y112.399
G0 F4500 X94.793 Y112.329
G1 F1200 X83.419 Y100.955 E103.52117
G1 X83.349 Y100.885
G0 F4500 X83.419 Y101.521
G1 F1200 X94.227 Y112.329 E104.28373
G1 X94.297 Y112.399
G0 F4500 X93.661 Y112.329
G1 F1200 X83.419 Y102.087 E105.00636
G1 X83.349 Y102.017
G0 F4500 X83.419 Y102.652
G1 F1200 X93.096 Y112.329 E105.68912
G1 X93.166 Y112.399
G0 F4500 X92.53 Y112.329
G1 F1200 X83.419 Y103.218 E106.33195
G1 X83.349 Y103.148
G0 F4500 X83.419 Y103.784
G1 F1200 X91.964 Y112.329 E106.93485
G1 X92.034 Y112.399
G0 F4500 X91.399 Y112.329
G1 F1200 X83.419 Y104.349 E107.49788
G1 X83.349 Y104.279
G0 F4500 X83.419 Y104.915
G1 F1200 X90.833 Y112.329 E108.02098
G1 X90.903 Y112.399
G0 F4500 X90.267 Y112.329
G1 F1200 X83.419 Y105.481 E108.50414
G1 X83.349 Y105.411
G0 F4500 X83.419 Y106.046
G1 F1200 X89.702 Y112.329 E108.94744
G1 X89.772 Y112.399
G0 F4500 X89.136 Y112.329
G1 F1200 X83.419 Y106.612 E109.35081
G1 X83.349 Y106.542
G0 F4500 X83.419 Y107.178
G1 F1200 X88.57 Y112.329 E109.71424
G1 X88.64 Y112.399
G0 F4500 X88.005 Y112.329
G1 F1200 X83.419 Y107.743 E110.0378
G1 X83.349 Y107.673
G0 F4500 X83.419 Y108.309
G1 F1200 X87.439 Y112.329 E110.32144
G1 X87.509 Y112.399
G0 F4500 X86.873 Y112.329
G1 F1200 X83.419 Y108.875 E110.56514
G1 X83.349 Y108.805
G0 F4500 X83.419 Y109.441
G1 F1200 X86.308 Y112.329 E110.76893
G1 X86.378 Y112.399
G0 F4500 X85.742 Y112.329
G1 F1200 X83.419 Y110.006 E110.93283
G1 X83.349 Y109.936
G0 F4500 X83.419 Y110.572
G1 F1200 X85.176 Y112.329 E111.0568
G1 X85.246 Y112.399
G0 F4500 X84.61 Y112.329
G1 F1200 X83.419 Y111.138 E111.14083
G1 X83.349 Y111.068
G0 F4500 X83.419 Y111.703
G1 F1200 X84.045 Y112.329 E111.185
G1 X84.115 Y112.399
G0 F4500 X83.479 Y112.329
G1 F1200 X83.419 Y112.269 E111.18923
G0 F4500 X126.828 Y97.215
G0 X126.853 Y97.119
;TIME_ELAPSED:117.337390
;LAYER:1
M140 S50
M106 S255
G0 F6750 X126.853 Y97.119 Z0.5
;TYPE:WALL-INNER
G1 F1800 X126.945 Y97.157 E111.19254
G1 X127.029 Y97.221 E111.19606
G1 X127.093 Y97.305 E111.19957
G1 X127.131 Y97.397 E111.20288
G1 X127.15 Y97.54 E111.20768
G1 X127.15 Y112.46 E111.70392
G1 X127.131 Y112.603 E111.70872
G1 X127.093 Y112.695 E111.71203
G1 X127.029 Y112.779 E111.71554
G1 X126.945 Y112.843 E111.71905
G1 X126.853 Y112.881 E111.72236
G1 X126.71 Y112.9 E111.72716
G1 X83.29 Y112.9 E113.17132
G1 X83.147 Y112.881 E113.17611
G1 X83.055 Y112.843 E113.17942
G1 X82.971 Y112.779 E113.18294
G1 X82.907 Y112.695 E113.18645
G1 X82.869 Y112.603 E113.18976
G1 X82.85 Y112.46 E113.19456
G1 X82.85 Y97.54 E113.6908
G1 X82.869 Y97.397 E113.6956
G1 X82.907 Y97.305 E113.69891
G1 X82.971 Y97.221 E113.70242
G1 X83.055 Y97.157 E113.70593
G1 X83.147 Y97.119 E113.70924
G1 X83.29 Y97.1 E113.71404
G1 X126.71 Y97.1 E115.1582
G1 X126.853 Y97.119 E115.16299
G0 F6750 X126.954 Y96.728
;TYPE:WALL-OUTER
G1 F1200 X127.149 Y96.809 E115.17002
G1 X127.314 Y96.936 E115.17694
G1 X127.441 Y97.101 E115.18387
G1 X127.522 Y97.296 E115.19089
G1 X127.55 Y97.511 E115.1981
G1 X127.55 Y112.489 E115.69627
G1 X127.522 Y112.704 E115.70348
G1 X127.441 Y112.899 E115.71051
G1 X127.314 Y113.064 E115.71743
G1 X127.149 Y113.191 E115.72436
G1 X126.954 Y113.272 E115.73138
G1 X126.739 Y113.3 E115.73859
G1 X83.261 Y113.3 E117.18468
G1 X83.046 Y113.272 E117.19189
G1 X82.851 Y113.191 E117.19891
G1 X82.686 Y113.064 E117.20584
G1 X82.559 Y112.899 E117.21276
G1 X82.478 Y112.704 E117.21978
G1 X82.45 Y112.489 E117.22699
G1 X82.45 Y97.511 E117.72517
