;FLAVOR:Marlin
;TIME:148
;Filament used: 0.163653m
;Layer height: 0.2
;Generated with Cura_SteamEngine 3.2.1
M190 S50
M104 S210
M109 S210
M82 ;absolute extrusion mode
G28 ;Home
G1 Z15.0 F6000 ;Move the platform down 15mm
;Prime the extruder
G92 E0
G1 F200 E3
G92 E0
;LAYER_COUNT:4
;LAYER:0
M107
G0 F3600 X91.453 Y93.602 Z0.3
;TYPE:SKIRT
G1 F1800 X92.085 Y93.132 E0.03975
G1 X92.513 Y92.875 E0.06494
G1 X93.017 Y92.619 E0.09347
G1 X93.552 Y92.436 E0.122
G1 X94.178 Y92.323 E0.1541
G1 X94.713 Y92.27 E0.18124
G1 X95.11 Y92.251 E0.20129
G1 X115.226 Y92.267 E1.21645
G1 X115.79 Y92.307 E1.24499
G1 X116.372 Y92.435 E1.27506
G1 X116.779 Y92.557 E1.2965
G1 X117.307 Y92.758 E1.32501
G1 X117.802 Y93.03 E1.35352
G1 X118.407 Y93.51 E1.39249
G1 X118.772 Y93.862 E1.41808
G1 X119.15 Y94.282 E1.4466
G1 X119.465 Y94.751 E1.47511
G1 X119.711 Y95.26 E1.50364
G1 X119.931 Y96.027 E1.5439
G1 X120.086 Y96.881 E1.58771
G1 X120.15 Y97.597 E1.62398
G1 X120.141 Y113.743 E2.4388
G1 X120.101 Y114.307 E2.46733
G1 X119.981 Y114.86 E2.49589
G1 X119.785 Y115.39 E2.5244
G1 X119.516 Y115.887 E2.55292
G1 X119.18 Y116.342 E2.58147
G1 X118.783 Y116.744 E2.60998
G1 X118.333 Y117.087 E2.63853
G1 X117.84 Y117.362 E2.66702
G1 X117.312 Y117.566 E2.69559
G1 X116.761 Y117.693 E2.72412
G1 X116.141 Y117.741 E2.7555
G1 X93.859 Y117.741 E3.87997
G1 X93.295 Y117.701 E3.90851
G1 X92.742 Y117.582 E3.93705
G1 X92.212 Y117.386 E3.96557
G1 X91.715 Y117.118 E3.99407
G1 X91.26 Y116.782 E4.02261
G1 X90.857 Y116.385 E4.05116
G1 X90.515 Y115.935 E4.07968
G1 X90.239 Y115.442 E4.10819
G1 X90.035 Y114.914 E4.13676
G1 X89.908 Y114.364 E4.16525
G1 X89.859 Y113.74 E4.19683
G1 X89.864 Y97.207 E5.03118
G1 X89.904 Y96.643 E5.05971
G1 X90.023 Y96.09 E5.08826
G1 X90.193 Y95.619 E5.11353
G1 X90.473 Y94.972 E5.1491
G1 X90.734 Y94.471 E5.17761
G1 X91.062 Y94.011 E5.20612
G1 X91.453 Y93.602 E5.23468
G0 F3600 X91.784 Y93.843
G1 F1800 X92.291 Y93.475 E5.26629
G1 X92.719 Y93.218 E5.29149
G1 X93.198 Y92.977 E5.31855
G1 X93.707 Y92.809 E5.3456
G1 X94.217 Y92.722 E5.37171
G1 X94.752 Y92.669 E5.39884
G1 X95.11 Y92.651 E5.41693
G1 X115.226 Y92.667 E6.43209
G1 X115.761 Y92.707 E6.45916
G1 X116.257 Y92.819 E6.48482
G1 X116.664 Y92.941 E6.50626
G1 X117.164 Y93.132 E6.53327
G1 X117.631 Y93.396 E6.56035
G1 X118.129 Y93.798 E6.59265
G1 X118.494 Y94.15 E6.61824
G1 X118.851 Y94.55 E6.64529
G1 X119.145 Y94.998 E6.67233
G1 X119.369 Y95.486 E6.69943
G1 X119.537 Y96.098 E6.73146
G1 X119.692 Y96.952 E6.77526
G1 X119.75 Y97.597 E6.80794
G1 X119.741 Y113.743 E7.62275
G1 X119.701 Y114.278 E7.64983
G1 X119.582 Y114.801 E7.6769
G1 X119.386 Y115.3 E7.70395
G1 X119.118 Y115.765 E7.73104
G1 X118.785 Y116.185 E7.75809
G1 X118.392 Y116.55 E7.78515
G1 X117.95 Y116.853 E7.8122
G1 X117.468 Y117.088 E7.83926
G1 X116.956 Y117.248 E7.86633
G1 X116.426 Y117.33 E7.89339
G1 X116.141 Y117.341 E7.90779
G1 X93.859 Y117.341 E9.03225
G1 X93.324 Y117.301 E9.05933
G1 X92.801 Y117.182 E9.0864
G1 X92.302 Y116.987 E9.11343
G1 X91.837 Y116.719 E9.14052
G1 X91.417 Y116.386 E9.16757
G1 X91.051 Y115.994 E9.19463
G1 X90.748 Y115.552 E9.22168
G1 X90.513 Y115.069 E9.24878
G1 X90.353 Y114.558 E9.2758
G1 X90.27 Y114.028 E9.30288
G1 X90.259 Y113.74 E9.31742
G1 X90.264 Y97.207 E10.15176
G1 X90.304 Y96.672 E10.17884
G1 X90.423 Y96.149 E10.20591
G1 X90.56 Y95.778 E10.22586
G1 X90.84 Y95.131 E10.26144
G1 X91.089 Y94.656 E10.28851
G1 X91.406 Y94.224 E10.31555
G1 X91.784 Y93.843 E10.34263
G0 F3600 X92.112 Y94.089
G1 F1800 X92.497 Y93.818 E10.36639
G1 X92.925 Y93.561 E10.39159
G1 X93.377 Y93.335 E10.41709
G1 X93.86 Y93.184 E10.44263
G1 X94.257 Y93.12 E10.46292
G1 X94.792 Y93.067 E10.49005
G1 X95.11 Y93.051 E10.50612
G1 X115.226 Y93.067 E11.52128
G1 X115.73 Y93.107 E11.54679
G1 X116.142 Y93.202 E11.56813
G1 X116.549 Y93.324 E11.58957
G1 X117.02 Y93.507 E11.61507
G1 X117.457 Y93.762 E11.64061
G1 X117.851 Y94.086 E11.66635
G1 X118.216 Y94.438 E11.69194
G1 X118.551 Y94.816 E11.71743
G1 X118.823 Y95.243 E11.74298
G1 X119.023 Y95.707 E11.76848
G1 X119.144 Y96.17 E11.79263
G1 X119.299 Y97.024 E11.83643
G1 X119.35 Y97.597 E11.86546
G1 X119.341 Y113.743 E12.68027
G1 X119.301 Y114.247 E12.70579
G1 X119.182 Y114.738 E12.73128
G1 X118.987 Y115.205 E12.75682
G1 X118.721 Y115.634 E12.7823
G1 X118.39 Y116.017 E12.80784
G1 X118.004 Y116.343 E12.83334
G1 X117.571 Y116.604 E12.85885
G1 X117.102 Y116.793 E12.88437
G1 X116.609 Y116.907 E12.90991
G1 X116.141 Y116.941 E12.93359
G1 X93.859 Y116.941 E14.05806
G1 X93.355 Y116.901 E14.08357
G1 X92.864 Y116.782 E14.10907
G1 X92.397 Y116.588 E14.13459
G1 X91.967 Y116.322 E14.1601
G1 X91.584 Y115.992 E14.18562
G1 X91.258 Y115.605 E14.21115
G1 X90.997 Y115.172 E14.23667
G1 X90.807 Y114.704 E14.26216
G1 X90.694 Y114.211 E14.28768
G1 X90.659 Y113.74 E14.31151
G1 X90.664 Y97.207 E15.14586
G1 X90.704 Y96.703 E15.17137
G1 X90.823 Y96.212 E15.19687
G1 X90.927 Y95.937 E15.21171
G1 X91.207 Y95.29 E15.24728
G1 X91.444 Y94.843 E15.27282
G1 X91.748 Y94.44 E15.29829
G1 X92.112 Y94.089 E15.32381
G1 F1500 E8.82381
G0 F3600 X94.386 Y95.651
G0 X94.891 Y96.869
G0 X115.228 Y96.965
G0 X115.253 Y96.869
;TYPE:WALL-INNER
G1 F1500 E15.32381
G1 F1800 X115.345 Y96.907 E15.32883
G1 X115.429 Y96.971 E15.33416
G1 X115.493 Y97.055 E15.33949
G1 X115.531 Y97.147 E15.34451
G1 X115.55 Y97.29 E15.35179
G1 X115.55 Y113.15 E16.15217
G1 X94.45 Y113.15 E17.21699
G1 X94.45 Y97.29 E18.01737
G1 X94.469 Y97.147 E18.02465
G1 X94.507 Y97.055 E18.02967
G1 X94.571 Y96.971 E18.035
G1 X94.655 Y96.907 E18.04033
G1 X94.747 Y96.869 E18.04536
G1 X94.89 Y96.85 E18.05264
G1 X115.11 Y96.85 E19.07304
G1 X115.253 Y96.869 E19.08032
G0 F3600 X115.354 Y96.478
;TYPE:WALL-OUTER
G1 F1800 X115.549 Y96.559 E19.09098
G1 X115.714 Y96.686 E19.10149
G1 X115.841 Y96.851 E19.112
G1 X115.922 Y97.046 E19.12265
G1 X115.95 Y97.261 E19.13359
G1 X115.95 Y113.55 E19.95562
G1 X94.05 Y113.55 E21.06081
G1 X94.05 Y97.261 E21.88284
G1 X94.078 Y97.046 E21.89378
G1 X94.159 Y96.851 E21.90444
G1 X94.286 Y96.686 E21.91495
G1 X94.451 Y96.559 E21.92545
G1 X94.646 Y96.478 E21.93611
G1 X94.861 Y96.45 E21.94705
G1 X115.139 Y96.45 E22.97039
G1 X115.354 Y96.478 E22.98133
G0 F3600 X115.538 Y96.554
G0 X115.15 Y97.25
;TYPE:SKIN
G1 F1800 X115.16 Y97.309 E22.98435
G1 X115.16 Y112.76 E23.76409
G1 X94.84 Y112.76 E24.78954
G1 X94.84 Y97.309 E25.56928
G1 X94.852 Y97.247 E25.57247
G1 X94.909 Y97.24 E25.57537
G1 X115.091 Y97.24 E26.59386
G1 X115.15 Y97.25 E26.59688
G0 F3600 X114.979 Y98.009
G1 F1800 X114.39 Y97.42 E26.63891
G1 X114.32 Y97.35
G0 F3600 X113.825 Y97.42
G1 F1800 X114.979 Y98.574 E26.72127
G1 X115.049 Y98.644
G0 F3600 X114.979 Y99.14
G1 F1800 X113.259 Y97.42 E26.84403
G1 X113.189 Y97.35
G0 F3600 X112.693 Y97.42
G1 F1800 X114.979 Y99.706 E27.00718
G1 X115.049 Y99.776
G0 F3600 X114.979 Y100.271
G1 F1800 X112.128 Y97.42 E27.21065
G1 X112.058 Y97.35
G0 F3600 X111.562 Y97.42
G1 F1800 X114.979 Y100.837 E27.45452
G1 X115.049 Y100.907
G0 F3600 X114.979 Y101.403
G1 F1800 X110.996 Y97.42 E27.73878
G1 X110.926 Y97.35
G0 F3600 X110.43 Y97.42
G1 F1800 X114.979 Y101.969 E28.06343
G1 X115.049 Y102.039
G0 F3600 X114.979 Y102.534
G1 F1800 X109.865 Y97.42 E28.42841
G1 X109.795 Y97.35
G0 F3600 X109.299 Y97.42
G1 F1800 X114.979 Y103.1 E28.83379
G1 X115.049 Y103.17
G0 F3600 X114.979 Y103.666
G1 F1800 X108.733 Y97.42 E29.27956
G1 X108.663 Y97.35
G0 F3600 X108.168 Y97.42
G1 F1800 X114.979 Y104.231 E29.76565
G1 X115.049 Y104.301
G0 F3600 X114.979 Y104.797
G1 F1800 X107.602 Y97.42 E30.29214
G1 X107.532 Y97.35
G0 F3600 X107.036 Y97.42
G1 F1800 X114.979 Y105.363 E30.85902
G1 X115.049 Y105.433
G0 F3600 X114.979 Y105.928
G1 F1800 X106.471 Y97.42 E31.46622
G1 X106.401 Y97.35
G0 F3600 X105.905 Y97.42
G1 F1800 X114.979 Y106.494 E32.11382
G1 X115.049 Y106.564
G0 F3600 X114.979 Y107.06
G1 F1800 X105.339 Y97.42 E32.80182
G1 X105.269 Y97.35
G0 F3600 X104.774 Y97.42
G1 F1800 X114.979 Y107.625 E33.53014
G1 X115.049 Y107.695
G0 F3600 X114.979 Y108.191
G1 F1800 X104.208 Y97.42 E34.29885
G1 X104.138 Y97.35
G0 F3600 X103.642 Y97.42
G1 F1800 X114.979 Y108.757 E35.10795
G1 X115.049 Y108.827
G0 F3600 X114.979 Y109.322
G1 F1800 X103.077 Y97.42 E35.95738
G1 X103.007 Y97.35
G0 F3600 X102.511 Y97.42
G1 F1800 X114.979 Y109.888 E36.84721
G1 X115.049 Y109.958
G0 F3600 X114.979 Y110.454
G1 F1800 X101.945 Y97.42 E37.77743
G1 X101.875 Y97.35
G0 F3600 X101.38 Y97.42
G1 F1800 X114.979 Y111.02 E38.74801
G1 X115.049 Y111.09
G0 F3600 X114.979 Y111.585
G1 F1800 X100.814 Y97.42 E39.75895
G1 X100.744 Y97.35
G0 F3600 X100.248 Y97.42
G1 F1800 X114.979 Y112.151 E40.81028
G1 X115.049 Y112.221
G0 F3600 X114.841 Y112.579
G1 F1800 X99.682 Y97.42 E41.89216
G1 X99.612 Y97.35
G0 F3600 X99.117 Y97.42
G1 F1800 X114.276 Y112.579 E42.97404
G1 X114.346 Y112.649
G0 F3600 X113.71 Y112.579
G1 F1800 X98.551 Y97.42 E44.05591
G1 X98.481 Y97.35
G0 F3600 X97.985 Y97.42
G1 F1800 X113.144 Y112.579 E45.13779
G1 X113.214 Y112.649
G0 F3600 X112.579 Y112.579
G1 F1800 X97.42 Y97.42 E46.21967
G1 X97.35 Y97.35
G0 F3600 X96.854 Y97.42
G1 F1800 X112.013 Y112.579 E47.30155
G1 X112.083 Y112.649
G0 F3600 X111.447 Y112.579
G1 F1800 X96.288 Y97.42 E48.38343
G1 X96.218 Y97.35
G0 F3600 X95.723 Y97.42
G1 F1800 X110.882 Y112.579 E49.46531
G1 X110.952 Y112.649
G0 F3600 X110.316 Y112.579
G1 F1800 X95.157 Y97.42 E50.54718
G1 X95.087 Y97.35
G0 F3600 X95.019 Y97.848
G1 F1800 X109.75 Y112.579 E51.59852
G1 X109.82 Y112.649
G0 F3600 X109.185 Y112.579
G1 F1800 X95.019 Y98.413 E52.60953
G1 X94.949 Y98.343
G0 F3600 X95.019 Y98.979
G1 F1800 X108.619 Y112.579 E53.58014
G1 X108.689 Y112.649
G0 F3600 X108.053 Y112.579
G1 F1800 X95.019 Y99.545 E54.51036
G1 X94.949 Y99.475
G0 F3600 X95.019 Y100.11
G1 F1800 X107.488 Y112.579 E55.40026
G1 X107.558 Y112.649
G0 F3600 X106.922 Y112.579
G1 F1800 X95.019 Y100.676 E56.24976
G1 X94.949 Y100.606
G0 F3600 X95.019 Y101.242
G1 F1800 X106.356 Y112.579 E57.05887
G1 X106.426 Y112.649
G0 F3600 X105.79 Y112.579
G1 F1800 X95.019 Y101.807 E57.82761
G1 X94.949 Y101.737
G0 F3600 X95.019 Y102.373
G1 F1800 X105.225 Y112.579 E58.556
G1 X105.295 Y112.649
G0 F3600 X104.659 Y112.579
G1 F1800 X95.019 Y102.939 E59.244
G1 X94.949 Y102.869
G0 F3600 X95.019 Y103.504
G1 F1800 X104.093 Y112.579 E59.89163
G1 X104.163 Y112.649
G0 F3600 X103.528 Y112.579
G1 F1800 X95.019 Y104.07 E60.49891
G1 X94.949 Y104
G0 F3600 X95.019 Y104.636
G1 F1800 X102.962 Y112.579 E61.06579
G1 X103.032 Y112.649
G0 F3600 X102.396 Y112.579
G1 F1800 X95.019 Y105.201 E61.59231
G1 X94.949 Y105.131
G0 F3600 X95.019 Y105.767
G1 F1800 X101.831 Y112.579 E62.07848
G1 X101.901 Y112.649
G0 F3600 X101.265 Y112.579
G1 F1800 X95.019 Y106.333 E62.52425
G1 X94.949 Y106.263
G0 F3600 X95.019 Y106.898
G1 F1800 X100.699 Y112.579 E62.92966
G1 X100.769 Y112.649
G0 F3600 X100.134 Y112.579
G1 F1800 X95.019 Y107.464 E63.29471
G1 X94.949 Y107.394
G0 F3600 X95.019 Y108.03
G1 F1800 X99.568 Y112.579 E63.61936
G1 X99.638 Y112.649
G0 F3600 X99.002 Y112.579
G1 F1800 X95.019 Y108.596 E63.90362
G1 X94.949 Y108.526
G0 F3600 X95.019 Y109.161
G1 F1800 X98.437 Y112.579 E64.14756
G1 X98.507 Y112.649
G0 F3600 X97.871 Y112.579
G1 F1800 X95.019 Y109.727 E64.35111
G1 X94.949 Y109.657
G0 F3600 X95.019 Y110.293
G1 F1800 X97.305 Y112.579 E64.51426
G1 X97.375 Y112.649
G0 F3600 X96.739 Y112.579
G1 F1800 X95.019 Y110.858 E64.63705
G1 X94.949 Y110.788
G0 F3600 X95.019 Y111.424
G1 F1800 X96.174 Y112.579 E64.71948
G1 X96.244 Y112.649
G0 F3600 X95.608 Y112.579
G1 F1800 X95.019 Y111.99 E64.76151
G1 X94.949 Y111.92
G0 F3600 X115.228 Y96.965
G0 X115.253 Y96.869
;TIME_ELAPSED:47.689788
;LAYER:1
M140 S50
M106 S255
G0 F5400 X115.253 Y96.869 Z0.5
;TYPE:WALL-INNER
G1 F2700 X115.345 Y96.907 E64.76486
G1 X115.429 Y96.971 E64.76841
G1 X115.493 Y97.055 E64.77197
G1 X115.531 Y97.147 E64.77532
G1 X115.55 Y97.29 E64.78017
G1 X115.55 Y113.15 E65.31376
G1 X94.45 Y113.15 E66.02363
G1 X94.45 Y97.29 E66.55722
G1 X94.469 Y97.147 E66.56207
G1 X94.507 Y97.055 E66.56542
G1 X94.571 Y96.971 E66.56898
G1 X94.655 Y96.907 E66.57253
G1 X94.747 Y96.869 E66.57588
G1 X94.89 Y96.85 E66.58073
G1 X115.11 Y96.85 E67.261
G1 X115.253 Y96.869 E67.26586
G0 F5400 X115.354 Y96.478
;TYPE:WALL-OUTER
G1 F1800 X115.549 Y96.559 E67.27296
G1 X115.714 Y96.686 E67.27996
G1 X115.841 Y96.851 E67.28697
G1 X115.922 Y97.046 E67.29407
G1 X115.95 Y97.261 E67.30137
G1 X115.95 Y113.55 E67.84939
G1 X94.05 Y113.55 E68.58618
G1 X94.05 Y97.261 E69.1342
G1 X94.078 Y97.046 E69.1415
G1 X94.159 Y96.851 E69.1486
G1 X94.286 Y96.686 E69.1556
G1 X94.451 Y96.559 E69.16261
G1 X94.646 Y96.478 E69.16971
G1 X94.861 Y96.45 E69.17701
G1 X115.139 Y96.45 E69.85923
G1 X115.354 Y96.478 E69.86653
G0 F5400 X115.538 Y96.554
G0 X115.15 Y97.25
;TYPE:SKIN
G1 F1800 X115.16 Y97.309 E69.86854
G1 X115.16 Y112.76 E70.38837
G1 X94.84 Y112.76 E71.072
G1 X94.84 Y97.309 E71.59183
G1 X94.852 Y97.247 E71.59395
G1 X94.909 Y97.24 E71.59589
G1 X115.091 Y97.24 E72.27488
G1 X115.15 Y97.25 E72.27689
G0 F5400 X114.979 Y112.426
G1 F1800 X114.825 Y112.579 E72.2842
G0 F5400 X114.259 Y112.579
G1 F1800 X114.979 Y111.86 E72.31843
G1 X115.049 Y111.79
G0 F5400 X114.979 Y111.295
G1 F1800 X113.694 Y112.579 E72.37954
G1 X113.624 Y112.649
G0 F5400 X113.128 Y112.579
G1 F1800 X114.979 Y110.729 E72.46759
G1 X115.049 Y110.659
G0 F5400 X114.979 Y110.163
G1 F1800 X112.562 Y112.579 E72.58256
G1 X112.492 Y112.649
G0 F5400 X111.997 Y112.579
G1 F1800 X114.979 Y109.598 E72.72442
G1 X115.049 Y109.528
G0 F5400 X114.979 Y109.032
G1 F1800 X111.431 Y112.579 E72.89321
G1 X111.361 Y112.649
G0 F5400 X110.865 Y112.579
G1 F1800 X114.979 Y108.466 E73.08893
G1 X115.049 Y108.396
G0 F5400 X114.979 Y107.9
G1 F1800 X110.3 Y112.579 E73.31155
G1 X110.23 Y112.649
G0 F5400 X109.734 Y112.579
G1 F1800 X114.979 Y107.335 E73.56108
G1 X115.049 Y107.265
G0 F5400 X114.979 Y106.769
G1 F1800 X109.168 Y112.579 E73.83754
G1 X109.098 Y112.649
G0 F5400 X108.603 Y112.579
G1 F1800 X114.979 Y106.203 E74.1409
G1 X115.049 Y106.133
G0 F5400 X114.979 Y105.638
G1 F1800 X108.037 Y112.579 E74.47117
G1 X107.967 Y112.649
G0 F5400 X107.471 Y112.579
G1 F1800 X114.979 Y105.072 E74.82837
G1 X115.049 Y105.002
G0 F5400 X114.979 Y104.506
G1 F1800 X106.906 Y112.579 E75.21248
G1 X106.836 Y112.649
G0 F5400 X106.34 Y112.579
G1 F1800 X114.979 Y103.941 E75.62349
G1 X115.049 Y103.871
G0 F5400 X114.979 Y103.375
G1 F1800 X105.774 Y112.579 E76.06143
G1 X105.704 Y112.649
G0 F5400 X105.209 Y112.579
G1 F1800 X114.979 Y102.809 E76.52628
G1 X115.049 Y102.739
G0 F5400 X114.979 Y102.244
G1 F1800 X104.643 Y112.579 E77.01803
G1 X104.573 Y112.649
G0 F5400 X104.077 Y112.579
G1 F1800 X114.979 Y101.678 E77.53672
G1 X115.049 Y101.608
G0 F5400 X114.979 Y101.112
G1 F1800 X103.511 Y112.579 E78.08233
G1 X103.441 Y112.649
G0 F5400 X102.946 Y112.579
G1 F1800 X114.979 Y100.547 E78.65483
G1 X115.049 Y100.477
G0 F5400 X114.979 Y99.981
G1 F1800 X102.38 Y112.579 E79.25425
G1 X102.31 Y112.649
G0 F5400 X101.814 Y112.579
G1 F1800 X114.979 Y99.415 E79.88061
G1 X115.049 Y99.345
G0 F5400 X114.979 Y98.849
G1 F1800 X101.249 Y112.579 E80.53387
G1 X101.179 Y112.649
G0 F5400 X100.683 Y112.579
G1 F1800 X114.979 Y98.284 E81.21404
G1 X115.049 Y98.214
G0 F5400 X114.979 Y97.718
G1 F1800 X100.117 Y112.579 E81.92114
G1 X100.047 Y112.649
G0 F5400 X99.552 Y112.579
G1 F1800 X114.712 Y97.419 E82.64244
G1 X114.782 Y97.349
G0 F5400 X114.146 Y97.419
G1 F1800 X98.986 Y112.579 E83.36374
G1 X98.916 Y112.649
G0 F5400 X98.42 Y112.579
G1 F1800 X113.581 Y97.419 E84.08506
G1 X113.651 Y97.349
G0 F5400 X113.015 Y97.419
G1 F1800 X97.855 Y112.579 E84.80636
G1 X97.785 Y112.649
G0 F5400 X97.289 Y112.579
G1 F1800 X112.449 Y97.419 E85.52766
G1 X112.519 Y97.349
G0 F5400 X111.884 Y97.419
G1 F1800 X96.723 Y112.579 E86.24898
G1 X96.653 Y112.649
G0 F5400 X96.158 Y112.579
G1 F1800 X111.318 Y97.419 E86.97028
G1 X111.388 Y97.349
G0 F5400 X110.752 Y97.419
G1 F1800 X95.592 Y112.579 E87.69158
G1 X95.522 Y112.649
G0 F5400 X95.026 Y112.579
G1 F1800 X110.187 Y97.419 E88.41291
G1 X110.257 Y97.349
G0 F5400 X109.621 Y97.419
G1 F1800 X95.02 Y112.02 E89.10761
G1 X94.95 Y112.09
G0 F5400 X95.02 Y111.454
G1 F1800 X109.055 Y97.419 E89.77538
G1 X109.125 Y97.349
G0 F5400 X108.489 Y97.419
G1 F1800 X95.02 Y110.889 E90.41625
G1 X94.95 Y110.959
G0 F5400 X95.02 Y110.323
